mile888/hybrid_gp/sparse-hybrid/IEEE9/datasets/dataset_pandapower_AC.csv
,Pg0,Pg1,Pg2,Load_P1,Load_P2,Load_P3,Load_Q1,Load_Q2,Load_Q3,RS_P1,RS_P2,RS_Q1,RS_Q2,P0,P1,P2,P3,P4,P5,P6,P7,P8,Q0,Q1,Q2,Q3,Q4,Q5,Q6,Q7,Q8,U0,U1,U2,U3,U4,U5,U6,U7,U8,Ud0,Ud1,Ud2,Ud3,Ud4,Ud5,Ud6,Ud7,Ud8,P_03,P_34,P_45,P_25,P_56,P_67,P_71,P_78,P_83
0,59.1330755874339,91.04612147299633,58.858774308192196,77.77384846705557,82.0965462677035,109.64202519665488,25.92461615568519,28.733791193696224,43.85681007866196,33.59640617903485,29.744811818914428,10.078921853710455,9.914937272971475,-58.85648389831493,-91.04612147299633,-58.85877430819221,-33.59640617903485,77.77384846705557,-29.744811818914428,82.0965462677035,0.0,109.64202519665488,2.350473916748115,6.317372939498739,23.60595481213693,-10.078921853710455,25.92461615568519,-9.914937272971475,28.73379119369622,0.0,43.85681007866195,1.0,0.9999999999999998,0.9999999999999998,1.0019275819241102,0.9949357169437243,1.0144196267632908,1.0000383604909864,1.005559720310217,0.9798052469580615,0.0,3.157379529909065,2.631294191622003,-1.9390365761417692,-3.6679439522428066,0.6828070980311375,-1.6917377331730952,-0.08667612716105066,-4.767008016136034,58.85648389831493,33.060232897681765,-44.89938433079892,58.85877430818517,42.90980951257306,-39.41186089715296,-91.04612147298748,51.50172292121567,-58.99941896155838
1,66.59988050985616,157.267681987393,92.23848848880849,102.30146068383573,104.04628678412884,142.3840235005017,34.100486894611905,36.41620037444509,56.95360940020069,19.325452648335062,17.635380037770943,5.797635794500518,5.878460012590314,-68.28922481216374,-157.26768198739296,-92.23848848880846,-19.325452648335062,102.30146068383573,-17.635380037770943,104.04628678412884,0.0,142.38402350050168,-28.62559932653994,-17.542616046816192,4.402647387248351,-5.797635794500518,34.100486894611905,-5.878460012590313,36.41620037444509,0.0,56.9536094002007,1.0,0.9999999999999998,0.9999999999999999,0.9842979149367456,0.9686549492675971,1.0040359311423588,0.9837706116262926,0.9939081037409299,0.948375612865166,0.0,9.33855346619427,6.0981853972564775,-2.2902684671454714,-3.989829938179789,3.0122049545622764,0.8947831149240025,3.6630241836506148,-4.928413853858312,68.28922481216374,32.79385720094575,-69.71805307913341,92.23848848880847,38.135506368437476,-66.11402172009556,-157.26768198739302,90.7680118277634,-54.374523613848986
2,79.07445205391932,134.38901305570536,64.8295961565148,95.96802348303254,108.66620837809832,136.36004893586667,31.989341161010845,38.03317293233441,54.54401957434667,38.2770400467817,28.24072074129792,11.483112014034509,9.41357358043264,-79.420587291445,-134.38901305570536,-64.82959615651481,-38.2770400467817,95.96802348303254,-28.24072074129792,108.6662083780983,0.0,136.36004893586664,-14.58834984545615,-10.672415646335764,11.381476500111432,-11.483112014034509,31.98934116101085,-9.41357358043264,38.03317293233441,0.0,54.54401957434668,1.0,1.0,0.9999999999999999,0.9926517766451521,0.9793863405064775,1.0073861346491093,0.9859711868108757,0.9968745253168033,0.9597382938456359,0.0,5.010389528874927,1.9137952672217466,-2.6414058342296576,-5.103046999550324,-0.24743275074734625,-2.591240131807748,0.17711890220677828,-6.08392508498283,79.420587291445,46.62017238897108,-49.730510206630186,64.82959615651478,42.33142736195066,-66.57971435936321,-134.38901305570536,67.41908346364372,-70.46019060633486
3,49.51010237523396,110.72814551366982,72.45939178275299,73.64167938744247,89.8006808671191,112.31135788094558,24.547226462480822,31.43023830349168,44.924543152378234,23.375186139129678,22.872133019779376,7.012555841738903,7.624044339926458,-49.48176443096152,-110.72814551366982,-72.45939178275299,-23.375186139129678,73.64167938744247,-22.872133019779376,89.8006808671191,0.0,112.31135788094556,-2.964563398107657,1.7120625433301484,19.577410040023267,-7.012555841738903,24.547226462480822,-7.624044339926458,31.430238303491677,0.0,44.924543152378234,1.0,0.9999999999999998,1.0,0.9986991910059608,0.9929602032224769,1.0123632221061423,0.9962453033814826,1.0034593005078303,0.9750070344501607,0.0,5.757109141529426,4.65307325114171,-1.635364495628244,-2.7992370338472896,2.2492308593366195,-0.12591018035348597,1.8024797130270944,-4.028747912576406,49.48176443096152,22.3243449897408,-51.4032022863271,72.45939178274313,42.880167730404146,-47.15068618030081,-110.72814551364898,63.38593340463348,-50.22404828658446
4,74.08875359277344,104.41571432968222,69.42099868439233,86.98142249218638,87.46964374951109,129.76042728159214,28.99380749739546,30.61437531232888,51.90417091263686,28.08131617048328,31.604787512931914,8.424394851144983,10.534929170977303,-74.32285106690536,-104.41571432968222,-69.42099868439234,-28.08131617048328,86.98142249218638,-31.604787512931914,87.4696437495111,0.0,129.76042728159214,-10.64465449603449,-1.099561889863594,18.77797993534824,-8.424394851144983,28.99380749739546,-10.534929170977303,30.614375312328878,0.0,51.90417091263686,1.0,1.0,1.0000000000000002,0.9947902512502108,0.9854406396530376,1.011822018931526,0.9952875420975754,1.0014413932996629,0.9655915519088184,0.0,3.7633216767783533,3.242835881463332,-2.4664373886562263,-4.250578629298577,0.9386152914000666,-1.6575883627825334,0.0269434410942337,-5.770506584290285,74.32285106690536,33.97833950452023,-53.204660865095875,69.42099868439233,46.68408842279692,-41.05592929397955,-104.41571432968222,63.214345684061314,-67.87347337221414
5,80.9678185140349,156.10564121892855,87.2809017594278,96.6917741696772,115.34663723729358,148.43274402683275,32.230591389892396,40.37132303305275,59.373097610733105,20.261443468057635,20.303581402876947,6.07843304041729,6.767860467625649,-82.07314623260167,-156.10564121892855,-87.28090175942782,-20.261443468057635,96.6917741696772,-20.303581402876944,115.34663723729358,0.0,148.43274402683275,-28.429452759949072,-20.245407490404887,3.9115710691458503,-6.07843304041729,32.230591389892396,-6.767860467625649,40.37132303305275,0.0,59.373097610733105,1.0,1.0,1.0,0.9847600045547306,0.9715164379842589,1.0035963286795904,0.9799732842190007,0.9921554706986785,0.9465438409945226,0.0,7.640505834252155,4.422331538251111,-2.7515838164524182,-4.62467606461795,1.5010824867057984,-0.9858749013258854,1.9970651177471743,-6.010598000469048,82.07314623260167,35.5000371088268,-61.424368489371915,87.28090175942776,44.60073001432417,-71.02436551246454,-156.10564121892855,84.63120511951237,-66.22357194702792
6,45.71394340910221,64.05152061629863,46.942892899269054,69.8960263953128,80.29253272363661,104.55758841407841,23.298675465104267,28.10238645327281,41.82303536563137,59.8353784264152,40.35152760305073,17.95061352792456,13.450509201016908,-45.55624539455295,-64.05152061629863,-46.942892899269054,-59.8353784264152,69.8960263953128,-40.35152760305073,80.29253272363661,0.0,104.55758841407842,15.539471813683349,11.062341703181971,29.926936895826202,-17.95061352792456,23.298675465104267,-13.450509201016908,28.102386453272807,0.0,41.82303536563137,1.0,0.9999999999999998,0.9999999999999999,1.0092919030949543,1.0043863572567306,1.0179089558557586,1.0031143720483018,1.0077094358438985,0.9883020797302331,0.0,0.6105749012046356,1.5863222827361971,-1.4897904586007211,-3.3211073032694793,0.03774087849060152,-2.8277450953578196,-1.6661526633926398,-4.8159797696122135,45.55624539455295,35.112029089178556,-34.98979063771269,46.94289289926231,51.83087657163595,-28.78187960664574,-64.05152061629583,35.19904093418695,-69.76064601927636
7,50.0510778688465,101.66585474337712,66.17323371116541,81.4676497717125,97.70019803363303,113.00851114337333,27.155883257237498,34.195069311771555,45.203404457349336,58.18292183604625,19.09144018715735,17.454876550813875,6.3638133957191165,-49.72983831103556,-101.66585474337711,-66.17323371116541,-58.18292183604625,81.4676497717125,-19.09144018715735,97.70019803363303,0.0,113.00851114337334,6.007812502818979,1.650893280467244,17.41726443654096,-17.454876550813875,27.155883257237498,-6.3638133957191165,34.195069311771555,0.0,45.20340445734933,1.0,0.9999999999999998,1.0,1.0038692524240913,0.9939765852909359,1.0109504946208503,0.9936628820535895,1.0030464396742993,0.9792679373143035,0.0,3.3081331762969852,2.2183199095771355,-1.635098654356087,-3.828406142959765,0.020058829666534106,-2.484779149498934,-0.32388174154135524,-4.757380707585617,49.72983831103556,42.208690243925645,-39.56191948178055,66.17323371115856,45.08483463606576,-52.87161667508852,-101.66585474336372,48.550767471963354,-65.22300568917605
8,101.81549853417324,126.18424709011879,81.71317445932864,98.10303748001095,104.62739836609485,148.18069744553733,32.70101249333698,36.619589428133196,59.272278978214935,22.15914289300921,23.286506927395433,6.647742867902763,7.7621689757984775,-102.21429095403425,-126.18424709011879,-81.71317445932863,-22.15914289300921,98.10303748001095,-23.286506927395436,104.62739836609487,0.0,148.1806974455373,-25.753597090366384,-13.086041635047138,7.855512400434122,-6.647742867902763,32.70101249333698,-7.7621689757984775,36.619589428133196,0.0,59.27227897821494,1.0,0.9999999999999999,1.0000000000000002,0.9869236152238928,0.9738048608137904,1.0057438645101193,0.9850120724348219,0.9949517842171468,0.9505217335722413,0.0,3.692093183176496,2.3221761401572545,-3.420039524381004,-5.761214945982485,-0.40673345881784756,-3.169362919254348,-0.8542433938575714,-7.382731040809283,102.21429095403425,43.934924145423274,-54.513147563929955,81.71317445932864,49.259974664669,-55.68305675349223,-126.18424709011882,70.22649411883364,-79.64525854856747
9,54.35621145144168,108.13013130194481,62.47637993959113,77.42670620544015,92.89749025214495,113.42682665218706,25.80890206848005,32.51412158825073,45.37073066087483,43.951807441104755,17.92165617950235,13.185542232331427,5.97388539316745,-53.9671334243749,-108.1301313019448,-62.47637993959114,-43.951807441104755,77.42670620544015,-17.92165617950235,92.89749025214496,0.0,113.42682665218706,2.834143653886713,1.7905794745568642,18.084600513276143,-13.185542232331427,25.80890206848005,-5.97388539316745,32.51412158825073,0.0,45.37073066087483,1.0,0.9999999999999999,1.0,1.0021147039847838,0.9942503395298635,1.0112605190324757,0.9950665495394332,1.0033975848081125,0.9776880894257058,0.0,4.13509204590631,2.3062954004733416,-1.777569962813659,-3.717889855836488,0.23153490432774967,-1.9345489617816514,0.2731546541072521,-4.666860520893574,53.9671334243749,37.09939078707164,-40.56123149974321,62.47637993958501,39.187500227454606,-53.90638691767528,-108.13013130192948,53.97283016523229,-60.39803507766977
10,56.21426539029996,110.08581180222447,77.63464139550464,86.45312633108169,90.63939475930387,115.9421728121825,28.817708777027228,31.723788165756353,46.376869124873004,37.09412163019691,15.351200899699421,11.128236489059072,5.117066966566473,-56.118283241488676,-110.08581180222447,-77.63464139550464,-37.09412163019691,86.45312633108169,-15.351200899699421,90.63939475930387,0.0,115.9421728121825,-3.615208443583242,0.20779850448275283,15.254668172134586,-11.128236489059072,28.817708777027228,-5.1170669665664725,31.72378816575635,0.0,46.376869124873,1.0,1.0000000000000002,0.9999999999999999,0.9984410175623,0.9875788701861644,1.009964393409098,0.9944601501374395,1.0024937430358651,0.97349289468936,0.0,4.903399910054769,3.822135052382011,-1.8552522740245858,-3.7271457038293763,1.2403700207860309,-1.0598083915006236,0.9679547021195961,-4.579092922133033,56.118283241488676,36.06225858407201,-50.61817523721725,77.6346413954918,41.34285158426902,-49.51126034117486,-110.0858118021938,60.36220571935188,-56.76533970816663
11,61.421259676496724,128.76512535057108,66.4889103783413,91.65508879420094,105.17574199805563,132.67100300170443,30.551696264733643,36.811509699319465,53.06840120068178,46.81317369827387,29.53343755938723,14.043952109482161,9.84447918646241,-61.87811911739528,-128.76512535057108,-66.48891037834133,-46.81317369827387,91.65508879420094,-29.53343755938723,105.17574199805563,0.0,132.67100300170443,-9.003521180532516,-7.541977082128369,14.177730895776563,-14.043952109482161,30.551696264733643,-9.84447918646241,36.811509699319465,0.0,53.06840120068178,1.0,0.9999999999999999,0.9999999999999998,0.9954522470486576,0.9833722461636165,1.009060653525372,0.9884813784950467,0.9985346709878737,0.9636494152821268,0.0,5.5245863009435,3.007196855220809,-2.0518925968055535,-4.195832530836282,0.7943051094549053,-1.641730194605055,0.9017442117628557,-5.306609662709347,61.87811911739528,40.95946842476004,-50.990132411356804,66.48891037834127,43.98327336838831,-61.44962396387077,-128.76512535057105,66.9846630902954,-67.17127615205888
12,84.8109732125067,115.70340024695784,82.42659954374984,100.92610452289071,114.92734659428876,152.3049321399556,33.64203484096357,40.22457130800107,60.92197285598225,59.81615648309226,29.281536994248448,17.944846944927676,9.760512331416148,-85.49103081058013,-115.70340024695784,-82.42659954374986,-59.81615648309226,100.92610452289071,-29.281536994248448,114.92734659428876,0.0,152.30493213995564,-16.21235484908175,-13.323742394768146,8.36801174697706,-17.944846944927676,33.64203484096357,-9.760512331416148,40.22457130800106,0.0,60.92197285598225,1.0,0.9999999999999999,0.9999999999999999,0.9918847856693535,0.9765727595482312,1.0060638337496075,0.9823903909725855,0.9943058239759637,0.9529069821961297,0.0,2.3254251376709334,2.067221970465864,-2.8456599583600255,-5.564455080625039,-0.6846554239401144,-4.110615557136595,-1.845307955820696,-7.45590565510091,85.49103081058013,51.454897983553145,-49.94027265442958,82.42659954374984,60.74326642287584,-54.656865974746296,-115.70340024695781,60.77668702279558,-92.80990712121378
13,61.69883840247155,101.89727476612165,74.05652369219295,86.03021622383443,95.5112803959762,116.28186064916375,28.676738741278143,33.42894813859167,46.5127442596655,38.391857670367145,25.03805680230875,11.517557301110143,8.346018934102915,-61.56789999987879,-101.89727476612165,-74.05652369219294,-38.391857670367145,86.03021622383443,-25.03805680230875,95.5112803959762,0.0,116.28186064916373,-2.6055183688124544,0.3369750935557363,17.285710333066504,-11.517557301110143,28.676738741278143,-8.346018934102915,33.42894813859167,0.0,46.5127442596655,1.0,0.9999999999999998,1.0000000000000002,0.9991287841788532,0.9887004155114617,1.0110612088598736,0.9936838599803953,1.002236071955236,0.9741556164981573,0.0,3.6397699496785236,3.2826573996290622,-2.0340855612853055,-3.9701211969759895,0.8226321519208902,-1.912781308895414,-0.003470949869077848,-5.036656284585118,61.56789999987879,37.21036170214063,-49.06001342636444,74.05652369217826,49.07426598510342,-46.736354098750866,-101.8972747660936,54.970267754904455,-62.29943027669921
14,61.81623724187314,122.59998741725799,82.85458978158005,87.22361443748285,95.13680988039809,135.84670073744388,29.074538145827617,33.29788345813933,54.33868029497756,30.74385969253817,23.85783188961849,9.22315790776145,7.95261062987283,-62.50035157157778,-122.59998741725799,-82.85458978158002,-30.74385969253817,87.22361443748285,-23.857831889618495,95.13680988039809,0.0,135.84670073744388,-14.465296592696632,-6.5203233098845885,13.728592866004647,-9.22315790776145,29.074538145827617,-7.952610629872829,33.29788345813934,0.0,54.33868029497755,1.0,0.9999999999999999,0.9999999999999999,0.9923212258690356,0.9822945133836071,1.0092135579379453,0.9909638539299225,0.9988681557414641,0.9599162936206413,0.0,6.041844259737167,4.985205998513046,-2.079077158778333,-3.5706106084833418,2.2276685630790665,-0.37099317198232923,1.6422585925187014,-5.190635633989748,62.50035157157778,28.66430916355645,-58.707117952745456,82.85458978158006,46.61194119957337,-48.80093311230521,-122.59998741725798,73.59133802667607,-64.0531201778548
15,54.735451338578216,119.41648822984929,74.08837867627213,85.62283015893192,98.99380589322891,127.46223118048628,28.540943386310637,34.647832062630116,50.98489247219452,46.46417868051116,20.778764983955636,13.939253604153349,6.926254994651878,-54.92539406328087,-119.4164882298493,-74.08837867627213,-46.46417868051116,85.62283015893192,-20.778764983955636,98.99380589322891,0.0,127.46223118048627,-5.26824431729483,-4.110120660705661,14.549593474036328,-13.939253604153349,28.540943386310637,-6.926254994651878,34.647832062630116,0.0,50.98489247219452,1.0,0.9999999999999999,1.0,0.9974673389469205,0.9870790505892495,1.0094601270451387,0.9910412057313358,1.0002196642798005,0.9677272830993917,0.0,5.259857743390445,3.6351795504830937,-1.81757548383579,-3.7035141648157723,1.1701896082403656,-1.2859532733777503,0.9805314122408788,-4.9378955049155335,54.92539406328087,36.17320459087012,-49.677748537186794,74.08837867624156,44.201451310061785,-55.04386185909036,-119.41648822974055,64.10819950950506,-64.7048796119035
16,74.80773775579867,163.19991464289035,103.49917534792083,124.99968141036706,119.98415869707662,152.447196082029,41.66656047012235,41.99445554397681,60.9788784328116,43.47801681190296,17.129653344981428,13.043405043570887,5.709884448327142,-77.01491544275953,-163.19991464289035,-103.49917534792084,-43.47801681190296,124.99968141036706,-17.12965334498142,119.98415869707662,0.0,152.447196082029,-33.44234226289814,-25.302275413499615,-4.174377348112614,-13.043405043570887,41.66656047012235,-5.709884448327141,41.99445554397681,0.0,60.9788784328116,1.0,0.9999999999999999,1.0000000000000002,0.981739954783735,0.9566069009964744,0.9993958668876893,0.9754616571910266,0.9894575407683441,0.941550179107847,0.0,8.437007236462286,5.442056020593629,-2.5898307898936146,-5.378969090719543,1.9627988640151826,-0.6206278282292854,2.5200609324792858,-5.895739964113982,77.01491544275953,53.040932576415585,-72.51357784330985,103.49917534792081,45.8708622672847,-74.40836007493004,-163.19991464289038,88.29101449043057,-66.81149296482879
17,85.21309999245418,136.25489617795608,106.20270885770896,107.38756018066728,128.6713474936614,137.80644590951678,35.79585339355576,45.034971622781484,55.12257836380672,30.523597761115333,20.164762419446383,9.1570793283346,6.721587473148794,-85.88485931718299,-136.25489617795608,-106.20270885770896,-30.523597761115333,107.38756018066726,-20.164762419446383,128.6713474936614,0.0,137.8064459095168,-24.4390649220893,-18.772183699416303,-0.00312187226001015,-9.1570793283346,35.79585339355576,-6.721587473148794,45.034971622781484,0.0,55.122578363806724,1.0,0.9999999999999998,0.9999999999999998,0.9871634137769234,0.9686433823396488,1.0019328869393462,0.9760351694597434,0.9919297015034273,0.953377976384718,0.0,5.094819877933529,4.514709708408674,-2.8724641387043386,-5.263500045238183,0.9535055213096841,-2.606402888430332,0.16979054589046694,-6.336036489334168,85.88485931718299,45.64211329552887,-62.13543920927102,106.2027088577089,62.62648778093036,-66.55825534553522,-136.25489617795606,69.28828550721775,-70.14114124786373
18,78.99615967136052,132.3724828459576,94.46940313310058,99.57691042306232,117.45129262322207,140.13548772531013,33.192303474354105,41.107952418127724,56.054195090124054,32.76540439710661,22.754536887769,9.829621319131983,7.584845629256333,-79.63065169543111,-132.3724828459576,-94.46940313310057,-32.76540439710661,99.57691042306232,-22.754536887769,117.45129262322209,0.0,140.1354877253101,-20.86304854014179,-14.887776023649906,5.407855324010086,-9.829621319131983,33.192303474354105,-7.584845629256332,41.107952418127724,0.0,56.054195090124054,1.0,0.9999999999999999,1.0,0.989047008121207,0.9740006808963052,1.0046953148485074,0.9811627032332956,0.9941436399638081,0.9545767913451666,0.0,5.229732844789125,4.254446994214537,-2.65805672636401,-4.7879159651665955,1.0958294414381156,-2.092527782526659,0.45604743374048456,-6.1564411167647854,79.63065169543111,40.6496279250946,-59.22976058008809,94.46940313310056,56.551594184732814,-61.316171622202056,-132.37248284595756,70.71702133540157,-71.10384806249762
19,54.68028013438932,101.15710612119857,77.77052700331643,91.77215771720567,113.92802146219037,127.40609952540291,30.590719239068555,39.874807511766626,50.962439810161165,64.03098607279081,38.67110365896885,19.20929582183724,12.89036788632295,-55.112076903437284,-101.15710612119857,-77.77052700331643,-64.03098607279081,91.77215771720567,-38.67110365896885,113.92802146219037,0.0,127.40609952540291,-1.476084697265378,-4.892838833726046,16.07806194686441,-19.20929582183724,30.590719239068555,-12.89036788632295,39.874807511766626,0.0,50.96243981016116,1.0,0.9999999999999999,1.0,0.9996539352022732,0.9867660841042833,1.0104500009386217,0.987255223850828,0.9989446805963226,0.9696402764665677,0.0,2.8594585075897947,3.478419505872146,-1.8197646825917764,-3.997749610703774,0.8933762616567896,-2.7754663445354986,-0.7692156446764272,-5.52700531157135,55.112076903437284,42.04297963282212,-50.038238502127484,77.77052700326608,65.40052540292628,-49.06194569470281,-101.15710612109669,51.87754199991334,-76.42329878522777
20,66.31454614116952,138.5841010588727,86.29454247170048,95.10271587006018,116.52391420958392,130.41525934455348,31.70090529002006,40.78336997335437,52.166103737821395,33.43950069286404,21.402654078368155,10.031850207859211,7.134218026122718,-66.78668331519813,-138.5841010588727,-86.29454247170051,-33.43950069286404,95.10271587006018,-21.40265407836815,116.52391420958392,0.0,130.41525934455348,-15.421140778335712,-12.784570963706983,7.502565946071343,-10.031850207859211,31.70090529002006,-7.134218026122717,40.78336997335437,0.0,52.16610373782139,1.0,0.9999999999999998,0.9999999999999999,0.9918637103606851,0.9780483106446143,1.0056686929749974,0.9828012989236778,0.995783762302095,0.9605796379412204,0.0,6.422374213194107,4.287241519302745,-2.222756725764758,-4.2320605892462035,1.404990292969164,-1.3656854219881747,1.4323784429951845,-5.192947050457899,66.78668331519813,38.527320703319056,-56.84415403913121,86.29454247170047,49.53564763395916,-67.31558563315244,-138.58410105887268,70.86389845478327,-61.21578823706147
21,90.2791371735072,123.28474115623857,93.1626030792472,105.30421779278147,113.00559119827102,141.54339268703325,35.10140593092716,39.551956919394854,56.6173570748133,40.9269568674821,16.406243669763374,12.278087060244628,5.468747889921124,-90.61347670147487,-123.28474115623857,-93.16260307924719,-40.9269568674821,105.30421779278146,-16.40624366976337,113.00559119827102,0.0,141.54339268703322,-19.992193590493798,-13.368576972949938,4.01164285793368,-12.278087060244628,35.10140593092716,-5.468747889921126,39.551956919394854,0.0,56.61735707481329,1.0,0.9999999999999999,0.9999999999999996,0.9898614786434561,0.9725181656988039,1.0038364401675128,0.9821016964816828,0.9946337265426377,0.9553610685073602,0.0,3.426691511829431,2.709343619253366,-3.0224904118400624,-5.747808750986233,-0.4082049162914951,-3.4712954448578714,-1.0163886685626202,-6.9373251130750795,90.61347670147487,51.65555452786099,-54.13001543022146,93.16260307924722,54.22688630302774,-59.158661911117264,-123.28474115623855,63.81073355411279,-79.11989770820637
22,51.86686575347998,87.74034306044246,58.276722426790165,80.76199520334552,93.7324348148633,114.70767326759152,26.92066506778184,32.80635218520215,45.88306930703661,61.3994599237276,32.632513839179914,18.419837977118277,10.87750461305997,-51.740959156064584,-87.74034306044246,-58.27672242679017,-61.3994599237276,80.76199520334552,-32.632513839179914,93.7324348148633,0.0,114.7076732675915,7.7461182725678555,4.055576588449469,22.32216904870478,-18.419837977118277,26.92066506778184,-10.87750461305997,32.80635218520215,0.0,45.883069307036614,1.0,1.0,1.0,1.004903797399705,0.9959244999154268,1.0136562151947741,0.9962496191443285,1.0040334011082315,0.980012170682606,0.0,2.033489875878617,1.8899106330536142,-1.6994906862720418,-3.8583204335491446,-0.040754124595599704,-2.8588037548484944,-1.0974157359723506,-5.10937147931882,51.740959156064584,41.51596721280814,-39.537607357162436,58.276722426781326,50.756972317801846,-43.29258324860259,-87.74034306043056,44.285103519687894,-71.06381501525274
23,78.03286767650225,117.98856678838379,72.22456355647192,96.96705065259721,117.11167331416283,150.15112207616326,32.3223502175324,40.989085659956984,60.060448830465305,58.081226383714366,41.58137637889725,17.42436791511431,13.860458792965748,-78.85488178224459,-117.98856678838378,-72.22456355647194,-58.081226383714366,96.96705065259721,-41.58137637889725,117.11167331416283,0.0,150.15112207616326,-14.126722716183394,-12.501623403514486,12.610065393669686,-17.42436791511431,32.3223502175324,-13.860458792965748,40.989085659956984,0.0,60.060448830465305,1.0,0.9999999999999999,1.0,0.9929024322118251,0.9794736976395485,1.0082781798474818,0.9832208693385014,0.9949231278386799,0.9545726564101646,0.0,2.9481875677931675,2.277382489964913,-2.6219156210374486,-5.078746315799642,-0.128378207899046,-3.6071847926597376,-1.302424745096785,-7.042631624206531,78.85488178224459,46.58094353978929,-50.768371022314454,72.2245635564719,61.98665333693959,-55.61955963301198,-117.98856678838376,62.09092596233196,-89.38469843563675
24,47.356002120410956,57.95792752682332,50.48571592033341,79.88858515738495,90.85677467711172,104.99468808739829,26.629528385794984,31.799871136989097,41.99787523495932,91.23771163968924,30.839343969533513,27.371313491906772,10.279781323177836,-47.342494820187724,-57.957927526823326,-50.485715920333405,-91.23771163968924,79.88858515738495,-30.839343969533516,90.85677467711172,0.0,104.99468808739829,20.928247022846108,8.34523360354001,24.261548219056465,-27.371313491906772,26.629528385794984,-10.279781323177836,31.799871136989097,0.0,41.99787523495931,1.0,1.0,0.9999999999999999,1.0124219817422977,1.002184098743766,1.0146486660442418,0.9983427639208442,1.0058682334451539,0.9901135788717076,0.0,-1.5081882168800833,-0.2580808252262403,-1.5434309897061649,-4.3650367705476105,-1.92891994424696,-5.014630935553875,-3.5719916055064207,-5.507810813113868,47.342494820187724,54.74943982892581,-25.637318275029926,50.48571592032882,55.432188597007276,-35.79458738864465,-57.957927526820846,22.05123557568207,-83.10793215808931
25,72.35943859766556,86.06385076935315,67.98992955321161,89.58170397502813,97.42364657032822,116.86501720846232,29.860567991676042,34.098276299614874,46.74600688338493,43.04169627813144,37.52050802201422,12.91250888343943,12.506836007338073,-72.27306217977407,-86.06385076935315,-67.9899295532116,-43.04169627813144,89.58170397502813,-37.52050802201422,97.42364657032823,0.0,116.86501720846232,-1.407622788253775,1.3279889934272546,20.046790515862085,-12.91250888343943,29.860567991676042,-12.506836007338073,34.098276299614874,0.0,46.74600688338493,1.0,0.9999999999999998,1.0000000000000002,1.000056035030302,0.9887715992856931,1.0125315961359989,0.9938445331469767,1.0022744280866773,0.9751791850029448,0.0,1.3758804091431087,2.1558104156092073,-2.3857379614304066,-4.6320635156539955,-0.09930301683226005,-3.3272066611041025,-1.7005385047290447,-5.860899034277555,72.27306217977407,43.0764473137345,-46.82514776239791,67.98992955319322,57.81003779639326,-40.02277232610287,-86.0638507693292,45.89975772566894,-71.66419029287455
26,82.86074669898912,98.02966336306088,91.79635168666891,103.30218303961549,111.84096269627571,135.49526579842748,34.43406101320516,39.144336943696494,54.19810631937099,61.3551126589553,20.336192983593296,18.40653379768659,6.778730994531099,-83.03631223423825,-98.02966336306089,-91.79635168666891,-61.3551126589553,103.30218303961549,-20.336192983593296,111.84096269627572,0.0,135.49526579842748,-9.532027062223278,-8.270333924832983,7.589373701432862,-18.40653379768659,34.43406101320516,-6.778730994531099,39.144336943696494,0.0,54.198106319371,1.0,0.9999999999999999,0.9999999999999999,0.9956590053979955,0.9783381845243223,1.005886760823075,0.984424369421512,0.9967159247614051,0.9633040718388437,0.0,0.919887155598316,2.0441811671068177,-2.7534025725730094,-5.6903503369345145,-1.0213363342281818,-4.612056298884086,-2.604329899922181,-7.059510021830556,83.03631223423825,56.0561883463237,-47.80124802369263,91.79635168666894,63.396677074286224,-48.946571121167096,-98.02966336306088,48.86384823696252,-87.45308136095639
27,54.97803158897408,83.98413796931482,55.87536675253865,78.81425052411159,84.35544383661649,103.98607435035947,26.271416841370527,29.52440534281577,41.594429740143795,40.310030519821446,34.68022500743471,12.093009155946433,11.560075002478236,-54.70275220104261,-83.98413796931482,-55.87536675253867,-40.310030519821446,78.81425052411159,-34.68022500743471,84.35544383661649,0.0,103.98607435035947,6.4374379236451205,7.829641921940663,25.263266356841825,-12.093009155946433,26.271416841370527,-11.560075002478236,29.524405342815772,0.0,41.594429740143795,1.0,1.0,0.9999999999999999,1.0042024103914144,0.9965425330398421,1.0153323674802062,1.0003455650005473,1.0062634884331374,0.9839046168496904,0.0,2.5095668348223485,2.3872874044664645,-1.7980605827231684,-3.652930533012278,0.5392629745372433,-2.030284025953625,-0.480530695386354,-4.618943313986375,54.70275220104261,35.64154248852147,-43.38778567718184,55.87536675253246,46.428416943365555,-38.18889253676883,-83.98413796931023,45.67049669288182,-58.988102885903146
28,59.615847784105966,86.03678578234026,72.5816281415592,85.54417914361767,99.6355313704348,125.00723986382535,28.51472638120589,34.87243597965218,50.00289594553014,68.89173105827905,26.053845970931167,20.667519317483713,8.684615323643722,-59.58048917725949,-86.03678578234025,-72.58162814155918,-68.89173105827905,85.54417914361767,-26.053845970931167,99.6355313704348,0.0,125.00723986382533,3.9786818654702074,-0.002806333680098305,17.354335507452618,-20.667519317483713,28.51472638120589,-8.684615323643722,34.87243597965218,0.0,50.00289594553014,1.0,1.0,1.0000000000000002,1.0028790771809666,0.9918986565471495,1.0110646590503622,0.9922360891336112,1.0014429722452076,0.9740970480737127,0.0,1.0997522390419119,1.9555175819821797,-1.9610352743080295,-4.343140093967877,-0.45547680852886724,-3.6952848845495105,-1.978254160553483,-5.929259170822624,59.58048917725949,45.76271398317362,-40.13878620975851,72.58162814154038,57.85789353415137,-42.189000585890355,-86.03678578230489,43.689778649844065,-81.95694860505418
29,65.32966038299709,78.26024110676458,56.737734191258575,83.34225310818468,95.71107628981925,125.30412905156632,27.78075103606156,33.498876701436735,50.12165162062653,77.2749217460912,29.502215968292415,23.182476523827358,9.834071989430804,-65.28287379020959,-78.26024110676458,-56.73773419125857,-77.2749217460912,83.34225310818468,-29.502215968292415,95.71107628981925,0.0,125.30412905156632,7.9440110789712435,1.9581124680773883,19.954151859121453,-23.182476523827358,27.78075103606156,-9.834071989430804,33.498876701436735,0.0,50.12165162062654,1.0,1.0,1.0000000000000002,1.0052792741312944,0.9950737850901596,1.0122393222971269,0.9942119767015555,1.0024178698122328,0.9763306084166387,0.0,-0.4207063671869179,0.0026222892620525445,-2.143675173541766,-4.877220467272146,-1.879670399301055,-4.914429654391423,-3.217545699872927,-6.466468753680968,65.28287379020959,52.356804790880346,-31.447815716724843,56.73773419124582,54.4009986739246,-41.673662161244835,-78.26024110673985,36.43433907412323,-89.32423577493682
30,69.9607313431924,88.74179543010223,87.76017111252483,92.61766446720468,99.75214093992831,125.65759789013082,30.872554822401558,34.913249328974906,50.26303915605233,56.45231101196176,18.492410597399182,16.93569330358853,6.164136865799727,-69.8653724278658,-88.74179543010223,-87.76017111252483,-56.45231101196176,92.61766446720468,-18.492410597399182,99.75214093992831,0.0,125.65759789013082,-2.8685175591588177,-2.082979661897923,12.733927117077883,-16.93569330358853,30.872554822401558,-6.164136865799727,34.913249328974906,0.0,50.26303915605232,1.0,0.9999999999999999,1.0,0.9991584723660357,0.9857139267546137,1.0087738244564155,0.9904862821947674,1.0002370637250722,0.9706464450175853,0.0,1.3279633661141488,2.7178619054404547,-2.3082891302695745,-4.734072312854434,-0.20435335823662024,-3.5270372644150068,-1.8507453091831616,-6.156796742548322,69.8653724278658,46.59469079783485,-46.40090379752563,87.76017111249466,58.98715067981028,-41.19165294289021,-88.74179543004601,47.39764201279431,-79.01488843489358
31,42.417928468535756,89.72650121425414,53.83981363353191,72.20506695731703,71.55694742590286,94.82286056333875,24.06835565243901,25.044931599066,37.9291442253355,28.62464916772066,26.526590568160053,8.587394750316196,8.84219685605335,-42.13116419377809,-89.72650121425414,-53.83981363353192,-28.62464916772066,72.20506695731703,-26.526590568160053,71.55694742590288,0.0,94.82286056333876,7.609275557173078,11.687890382876446,26.914685450385832,-8.587394750316196,24.06835565243901,-8.84219685605335,25.044931599066004,0.0,37.9291442253355,1.0,0.9999999999999999,1.0,1.004676071995197,0.9993238524825728,1.0162618650051025,1.0050707076221077,1.0088647512618603,0.9877724561031902,0.0,4.467028559938205,3.408424649621876,-1.3840913581270422,-2.783550200597584,1.6293754660229283,-0.24734577696635343,1.2805255120816281,-3.448055877401445,42.13116419377809,26.8750853336807,-45.45187151921813,53.83981363352819,34.105789714342386,-37.592194779451845,-89.7265012142517,52.015384942939306,-43.66593288584141
32,44.56282132370538,73.08951506438191,46.721206330671194,76.7567025931074,80.168924257677,102.43426930358683,25.5855675310358,28.05912349018695,40.973707721434735,54.967190807103684,42.273399239826745,16.490157242131104,14.091133079942248,-44.4831054487991,-73.08951506438191,-46.72120633067121,-54.967190807103684,76.7567025931074,-42.273399239826745,80.168924257677,0.0,102.43426930358683,12.731625565352715,10.812554631914736,29.442992660401103,-16.490157242131104,25.5855675310358,-14.091133079942248,28.05912349018695,0.0,40.973707721434735,1.0,0.9999999999999999,1.0,1.0076592242924192,1.0005851889548543,1.0176219647319846,1.0031126560448846,1.0077936845864053,0.9876621638888956,0.0,1.8074817395293956,2.077653447330859,-1.4570462586711073,-3.351285266469047,0.5359521714492232,-2.107636059720734,-0.7904930154924408,-4.434885204962545,44.4831054487991,36.520761423475335,-40.45967540807989,46.72120633066423,47.89709664734268,-32.54711137082825,-73.0895150643786,40.452469797594155,-62.508021286291424
33,74.53979473609857,114.6322498080423,67.92483602290831,82.40153676994137,91.35201875382316,116.8236323063908,27.46717892331379,31.973206563838104,46.72945292255633,22.622254122054112,14.383907674840644,6.786676236616233,4.794635891613548,-74.05965524056106,-114.6322498080423,-67.92483602290832,-22.622254122054112,82.40153676994137,-14.383907674840643,91.35201875382316,0.0,116.8236323063908,-6.703604633223222,-0.8536360443122817,14.949131284055568,-6.786676236616233,27.46717892331379,-4.794635891613549,31.973206563838104,0.0,46.72945292255633,1.0,1.0000000000000002,1.0000000000000002,0.9970517001218479,0.9882329532016652,1.0095451835142941,0.993847708771605,1.0020310713684433,0.9721347277732617,0.0,4.279494294447044,2.2040869018141205,-2.4521199432600236,-4.438264530175256,-0.055534457240854006,-2.079379696000199,0.1793512430975134,-5.276104709363138,74.05965524056106,37.71563638905471,-44.93093821165945,67.9248360228974,36.57156309788271,-54.953503720721265,-114.63224980800666,59.41766816392387,-58.56012775148886
34,57.99283894493689,92.10664283518243,69.54929850904728,97.75049629453008,108.60047204036279,125.86159276920608,32.583498764843355,38.01016521412697,50.34463710768244,60.414347359930524,55.16172067573963,18.124304207979158,18.387240225246543,-58.7828366433388,-92.10664283518243,-69.54929850904728,-60.414347359930524,97.75049629453008,-55.16172067573963,108.60047204036277,0.0,125.86159276920608,-2.6571635927118678,-2.4575422979193604,20.87375342521915,-18.124304207979158,32.583498764843355,-18.387240225246543,38.01016521412697,0.0,50.34463710768244,1.0,1.0,0.9999999999999999,0.9990434005100413,0.9848960952248393,1.0130521722980266,0.9902107909998854,1.0001221678920258,0.9702425027765682,0.0,2.3498120744385496,3.514440873068775,-1.9422023503735366,-4.160093594053819,1.2087641671631102,-2.6114388843593668,-0.949934996525507,-5.616645548783761,58.7828366433388,42.91168487753311,-55.16400105740888,69.54929850898672,68.32307174582257,-40.85258608348912,-92.10664283509556,51.10350715405409,-75.62819895445861
35,66.96615275453432,103.06960509087632,92.85109042595501,91.93192876150567,99.05450747034244,122.47920609082823,30.643976253835223,34.66907761461985,48.991682436331295,35.19218098962679,18.991871841201643,10.557654296888037,6.330623947067214,-67.02811144773185,-103.06960509087631,-92.85109042595502,-35.19218098962679,91.93192876150567,-18.991871841201643,99.05450747034244,0.0,122.47920609082823,-8.84125598282435,-3.2145320356542015,12.130994960395071,-10.557654296888037,30.643976253835227,-6.330623947067213,34.66907761461985,0.0,48.9916824363313,1.0,0.9999999999999999,0.9999999999999999,0.9956562658943695,0.98294037855323,1.0085775077419838,0.9904937517679421,1.0000678051613254,0.9685494645343957,0.0,3.719028893018066,4.420576017237998,-2.2222942568951853,-4.1306118487431025,1.3280820289879622,-1.778692479110069,0.025813805392443052,-5.373679303697606,67.02811144773185,36.81866930906072,-55.3554993454704,92.8510904259186,55.25046154144643,-44.181010361436506,-103.06960509080163,58.71489525528358,-64.90313905484564
36,74.43459055496689,123.91595275115536,66.72026975526059,93.16867617561849,95.25905283832459,123.83293276502802,31.05622539187283,33.3406684934136,49.53317310601121,29.810767138966355,21.014291488388853,8.943230141689906,7.00476382946295,-74.45139960613625,-123.91595275115537,-66.72026975526057,-29.810767138966355,93.16867617561849,-21.01429148838885,95.25905283832459,0.0,123.83293276502803,-10.757128284362352,-4.2661420508968035,13.616217998634966,-8.943230141689906,31.05622539187283,-7.00476382946295,33.3406684934136,0.0,49.533173106011205,1.0,0.9999999999999998,1.0,0.9947287157462049,0.9822744902358849,1.0087370982076003,0.9916208154528863,1.0003362147203247,0.9670779345554514,0.0,5.012149403646215,2.378892524690279,-2.4708589104852217,-4.745035812397249,0.1575841784063716,-1.860191602898524,0.5717840932391954,-5.399179598512466,74.45139960613625,43.308228279540884,-50.189507062444136,66.72026975523045,36.52578157151721,-58.91039436796745,-123.91595275104457,64.70431181972938,-60.50659102028335
37,65.78392094265021,94.66234445080448,78.2699067062834,88.30060514172453,111.46830036322008,137.14018473315886,29.43353504724151,39.013905127127025,54.85607389326355,81.43976630206927,20.026931338521493,24.431929890620783,6.675643779507164,-65.87880753784286,-94.6623444508045,-78.2699067062834,-81.43976630206927,88.30060514172453,-20.026931338521493,111.46830036322008,0.0,137.14018473315886,1.0720824556885873,-5.984893242571502,11.643569876034519,-24.431929890620783,29.43353504724151,-6.675643779507164,39.013905127127025,0.0,54.85607389326354,1.0,0.9999999999999999,0.9999999999999998,1.0013367734649687,0.9888511345073061,1.0078673147524682,0.9861680366354039,0.9980146542064734,0.9673923761062955,0.0,0.6181905789098134,1.2150186830904064,-2.171774256105994,-4.912562957335264,-1.393306417015032,-4.8524257502701955,-2.7803909346369164,-6.756030779990582,65.87880753784286,52.41377990028781,-36.35707536912232,78.26990670628338,61.41151603092919,-50.52950653556949,-94.6623444508045,43.90201400396639,-93.90136600700171
38,61.193993436323,101.33234883073443,72.82074351670875,85.1817248932056,83.45756803692949,120.03523660038974,28.393908297735198,29.21014881292532,48.014094640155896,40.35972437957632,16.195294853879837,12.107917313872896,5.398431617959945,-61.04774709599477,-101.33234883073445,-72.82074351670875,-40.35972437957632,85.1817248932056,-16.195294853879837,83.4575680369295,0.0,120.03523660038974,-2.7094231460059746,2.10211313551423,17.174696966189686,-12.107917313872896,28.393908297735198,-5.398431617959945,29.21014881292532,0.0,48.01409464015589,1.0,1.0000000000000002,0.9999999999999998,0.9990583826737259,0.9889887246867879,1.0109653889154009,0.9969378946366044,1.0033147067176622,0.9730189604802464,0.0,3.8350562623754887,3.1040018483723992,-2.017035757971191,-3.9794855938628633,0.6848222161301883,-1.557393977367093,0.21594098705412756,-5.067951888139106,61.04774709599477,37.62990000820194,-47.79662252231458,72.82074351669556,40.3084975040274,-43.35006732145767,-101.3323488307019,57.82077058628409,-63.30880608865766
39,73.47479900791316,127.39972733124294,68.5094941155717,95.94132624904952,105.63270213945931,133.47883698313387,31.980442083016506,36.97144574881076,53.391534793253555,36.1487940749755,33.21441254619508,10.84463822249265,11.071470848731693,-73.96603725233741,-127.39972733124294,-68.50949411557167,-36.1487940749755,95.94132624904952,-33.21441254619508,105.6327021394593,0.0,133.47883698313387,-13.85122075283357,-8.429790446065851,13.644982681590307,-10.84463822249265,31.980442083016506,-11.071470848731693,36.97144574881076,0.0,53.391534793253555,1.0,0.9999999999999999,1.0000000000000002,0.992936143518305,0.97984465295448,1.008795123720264,0.9878905575530921,0.9979131393938326,0.9613327589038861,0.0,5.0958874844640105,2.912595534977144,-2.4591753575641513,-4.670238746113787,0.6318189899053824,-1.9452168736726763,0.519315255067315,-5.745540470019002,73.96603725233741,42.11835681707603,-54.13762348103279,68.50949411557168,46.39444538183894,-59.5215696468291,-127.39972733124294,67.56699537689386,-67.43152060123664
40,65.87226098487105,102.58942123518707,57.228653232670005,79.4329641150988,94.62864254639764,114.56933939935753,26.477654705032933,33.120024891239176,45.827735759743014,41.89488031016185,24.14087206216267,12.568464093048556,8.046957354054223,-65.41397615659851,-102.58942123518709,-57.22865323267001,-41.89488031016185,79.4329641150988,-24.14087206216267,94.62864254639764,0.0,114.56933939935752,1.8889356157242219,1.7124721913889402,19.00076666833195,-12.568464093048556,26.477654705032933,-8.046957354054223,33.12002489123917,0.0,45.82773575974301,1.0,1.0,1.0000000000000002,1.0017968373110109,0.9936017804136793,1.0116904354467018,0.9947043779283882,1.0031215796130974,0.9772571087705213,0.0,2.887230336982505,1.3072096494445964,-2.155452474485427,-4.317203966737854,-0.5924058190678515,-2.9309434371909964,-0.7775489765628789,-5.311877301640286,65.41397615659851,41.196254100407906,-38.524922096426046,57.22865323266292,42.258205449341055,-52.59737971011522,-102.58942123517049,49.75268590972499,-65.62486690321474
41,45.241450879364784,95.56323846192105,72.59972176510283,72.87849957332486,86.88697788207723,102.4808881826662,24.292833191108286,30.41044225872703,40.99235527306649,39.798082756689226,11.970523038787881,11.939424827006768,3.990174346262627,-44.68834332199307,-95.56323846192103,-72.59972176510283,-39.798082756689226,72.87849957332486,-11.970523038787881,86.88697788207722,0.0,102.4808881826662,6.649302037080361,5.920924417029028,19.165639843818838,-11.939424827006768,24.292833191108286,-3.990174346262627,30.41044225872703,0.0,40.99235527306648,1.0,1.0000000000000002,1.0,1.0041599660601976,0.9974185791347423,1.0121255904010733,0.9979852376504641,1.0054760898189319,0.9838031312458655,0.0,3.974593183933866,3.4554145168170516,-1.4688723012376474,-3.0768877269827524,1.0463481196634763,-1.2741481882745438,0.569119738346589,-4.0003082123739135,44.68834332199307,30.932127092566258,-42.108406158837184,72.59972176509986,41.7641527335843,-45.33727198462383,-95.56323846191736,50.04896052236165,-53.23450396260029
42,53.02525917317906,81.67713894521832,77.68641376074875,83.33440474478218,82.4944340468863,116.4956699235243,27.778134914927392,28.8730519164102,46.598267969409726,43.9296182962509,28.91880176552453,13.17888548887527,9.639600588508177,-53.15249235554175,-81.67713894521832,-77.68641376074874,-43.9296182962509,83.33440474478218,-28.91880176552453,82.4944340468863,0.0,116.4956699235243,0.6314626714988663,4.937024782690969,21.631818415854696,-13.17888548887527,27.778134914927392,-9.639600588508177,28.873051916410198,0.0,46.59826796940972,1.0,1.0000000000000002,0.9999999999999999,1.0008321071393107,0.9915784429285208,1.0136989862249002,0.9988378920286659,1.0043837524013073,0.9762295740107807,0.0,2.787889620982662,4.257321916814128,-1.7529732015607722,-3.3846804037439604,1.6833583210451553,-1.3084457729726238,-0.1254468443645813,-4.884858441436367,53.15249235554175,31.5785068715592,-51.92884013147654,77.68641376073398,53.60606647343595,-29.232694768257932,-81.67713894520175,52.37031195626998,-65.02253023362896
43,69.29599198840629,85.49157706937945,79.3122776836152,92.12783435537422,98.9967476928697,127.30795941554798,30.709278118458073,34.6488616925044,50.923183766219196,62.530687046236004,25.01247839120947,18.7592061138708,8.337492797069823,-69.31146940141018,-85.49157706937946,-79.3122776836152,-62.530687046236004,92.12783435537422,-25.01247839120947,98.99674769286969,0.0,127.307959415548,-0.933980590316196,-1.302891768152051,15.250410815208056,-18.7592061138708,30.709278118458073,-8.337492797069823,34.6488616925044,0.0,50.92318376621919,1.0,1.0,0.9999999999999999,1.0002590775150761,0.9872101005852445,1.0100066622794523,0.9914019408937423,1.0006133380056423,0.9710763358098617,0.0,0.8397930051823164,2.119735562742452,-2.2874578321626013,-4.806434322239732,-0.5177483684169387,-3.8519477687251915,-2.2212279707964213,-6.31641110604688,69.31146940141018,48.3360576869971,-44.19548305215859,79.3122776835855,59.346793610491204,-40.081501073253236,-85.49157706932417,45.26641467621031,-82.73441677499234
44,50.819619842765235,92.2042843680305,70.27226356126823,86.73271047403449,101.6356429660614,125.38881134628491,28.91090349134483,35.57247503812149,50.155524538513966,64.90132188114201,38.48484193613312,19.470396564342604,12.828280645377706,-51.16018371504282,-92.2042843680305,-70.27226356126823,-64.90132188114201,86.73271047403449,-38.48484193613312,101.6356429660614,0.0,125.38881134628491,2.1330717630933123,-0.4146172181227712,20.09988496663709,-19.470396564342604,28.91090349134483,-12.828280645377706,35.572475038121496,0.0,50.15552453851396,1.0,1.0,0.9999999999999999,1.001662211995992,0.9908461023088154,1.0126161928669983,0.9924164248939527,1.0014003918859034,0.9727497280644308,0.0,2.5253315719984295,3.2234631741497157,-1.6858486705404336,-3.731001193042018,0.8928022252582054,-2.474304980650973,-0.7736963575121907,-5.356178128818076,51.16018371504282,39.45493323318302,-47.546070969886706,70.27226356124012,60.313016165380475,-41.77052985869159,-92.20428436798117,50.27913081965941,-75.94678071132088
45,46.14777122128578,74.36507455744085,64.48165971059507,91.31190901362999,100.72572596325124,124.08593084891892,30.437303004543327,35.25400408713793,49.63437233956757,94.71314953111411,38.95294553899032,28.413944859334233,12.98431517966344,-46.61254772123236,-74.36507455744085,-64.48165971059507,-94.71314953111411,91.31190901362999,-38.95294553899032,100.72572596325124,0.0,124.08593084891892,10.773095337227005,1.814577778570083,21.063100452036622,-28.413944859334233,30.437303004543327,-12.98431517966344,35.25400408713793,0.0,49.63437233956757,1.0,0.9999999999999998,0.9999999999999998,1.0065634461623336,0.9931444085247086,1.0130479276384208,0.9932401615886536,1.002212417038601,0.9775756733781139,0.0,0.16444686405828857,1.6732434724727872,-1.5284749124249803,-4.2384611910859045,-0.46436034970974077,-4.0179380766598065,-2.493630907015636,-5.770223992147102,46.61254772123236,52.51879995270479,-39.26234588393935,64.48165971057381,63.56202651139685,-37.655956015497594,-74.36507455741511,36.582172329067944,-87.95626244540455
46,83.38503857542798,160.06854658620682,78.03544316168797,109.920813247406,126.51199710907787,149.38661267880053,36.640271082468665,44.27919898817725,59.754645071520216,50.11826277485922,18.621067376447197,15.035478832457764,6.207022458815732,-84.33977541200643,-160.06854658620682,-78.03544316168797,-50.11826277485922,109.920813247406,-18.6210673764472,126.51199710907787,0.0,149.3866126788005,-23.37730245888315,-22.96784968090367,0.3648700795772015,-15.035478832457764,36.640271082468665,-6.207022458815732,44.27919898817724,0.0,59.754645071520216,1.0,1.0,1.0000000000000002,0.9877300495900101,0.9684635236400361,1.0012586048705134,0.9754741847886103,0.9907092516905608,0.9486232174899449,0.0,6.322282395157706,1.9604226728782064,-2.819126325489325,-5.879735699853692,-0.6572599119643017,-3.0278918976129585,0.5266170056950078,-6.5772858772088565,84.33977541200643,57.64332137233686,-52.879591839424876,78.03544316168797,42.60692267182566,-84.1749758301394,-160.06854658620682,75.25475228143515,-76.05579182877949
47,66.32140632693695,93.40647603643731,56.58636143247894,93.46450088816493,100.06040684082257,133.18862850812698,31.15483362938831,35.02114239428789,53.2754514032508,71.8118924857129,41.55395698077739,21.54356774571387,13.851318993592464,-66.71067874491033,-93.40647603643731,-56.586361432478924,-71.8118924857129,93.46450088816493,-41.55395698077739,100.06040684082257,0.0,133.18862850812698,0.14768416595438794,-1.58703178626007,19.83676252821857,-21.54356774571387,31.15483362938831,-13.851318993592464,35.02114239428789,0.0,53.2754514032508,1.0,1.0,0.9999999999999998,1.0008229848437689,0.9880128552525144,1.0121676593425526,0.9922089738724227,1.0007123998993255,0.9692750301039236,0.0,1.2924271058971826,1.039422328523756,-2.200340839859185,-4.897927271235338,-0.8379796805959926,-3.907578290026668,-2.051963543886828,-6.3900006171355574,66.71067874491033,51.61794768974048,-42.30405922082746,56.58636143247894,55.11800203322163,-45.3212951756434,-93.40647603643731,47.90508553516305,-86.0609421537643
48,66.88656368017277,107.00859653709374,102.5751676242067,96.8152798747738,117.58905788268692,137.1070458978297,32.27175995825793,41.15617025894042,54.84281835913188,49.76723274083447,29.0653671661194,14.930169822250342,9.6884557220398,-67.56516787352523,-107.00859653709374,-102.57516762420667,-49.76723274083447,96.8152798747738,-29.0653671661194,117.58905788268693,0.0,137.10704589782966,-12.82967276521731,-10.559913538435353,8.463156054588978,-14.930169822250342,32.27175995825793,-9.6884557220398,41.15617025894042,0.0,54.84281835913188,1.0,0.9999999999999998,1.0000000000000002,0.9933727407843737,0.978737998977004,1.006755438185909,0.9827712543128534,0.9956488596057802,0.9600619256194066,0.0,3.316551435098479,5.022481465889666,-2.2452613293338044,-4.228689497752494,1.5995605572418339,-2.4510195079904933,-0.5350581634289644,-6.090539657683964,67.56516787352523,38.305145418848184,-58.777995226357106,102.57516762420673,71.45591999685267,-46.77053525781591,-107.00859653709375,60.03431905521188,-78.28956536271279
49,96.68723381762403,123.33925259107062,118.65056509888333,114.02102717049597,127.12692474410315,149.962278274036,38.00700905683199,44.4944236604361,59.984911309614404,34.36703761066577,22.710794925834392,10.31011128319973,7.57026497527813,-97.7950770255886,-123.33925259107062,-118.65056509888336,-34.36703761066577,114.02102717049596,-22.710794925834392,127.12692474410315,0.0,149.96227827403598,-30.57887068180844,-20.390224860712976,-2.494576744182325,-10.31011128319973,38.00700905683199,-7.570264975278128,44.494423660436105,0.0,59.984911309614404,1.0,1.0,0.9999999999999999,0.9840002229467808,0.9633456304629647,1.000955946564743,0.9748411623184433,0.9902610950182597,0.9461800985296727,0.0,3.410456468747676,4.8477074187807645,-3.281741744531727,-5.807977167084192,0.8645729686361615,-3.325953616144526,-1.054259657179677,-7.459209571293458,97.7950770255886,48.04184572916144,-66.41988794995825,118.65056509888328,73.08543219647521,-54.72291308675164,-123.3392525910706,68.33251706393649,-83.24961495682373
50,47.41215409267183,96.97434037995174,63.08488041951213,75.1788759226453,86.14430952874906,106.36735557119071,25.059625307548433,30.15050833506217,42.54694222847629,38.23895029823781,24.82550079320121,11.471685089471343,8.27516693106707,-47.136294698608474,-96.97434037995174,-63.08488041951213,-38.23895029823781,75.1788759226453,-24.82550079320121,86.14430952874906,0.0,106.36735557119071,4.737846189179436,5.79509630559545,22.30479635809229,-11.471685089471343,25.059625307548433,-8.27516693106707,30.150508335062167,0.0,42.54694222847628,1.0,1.0,0.9999999999999998,1.003096503936671,0.9963643605046525,1.0137448771708222,0.9988209627974666,1.0054503643445727,0.9815790442608849,0.0,4.126527189361253,3.3103330096041708,-1.5509967275248635,-3.142150541762566,1.2204924120343839,-1.1220782824647753,0.6706188335233983,-4.1462329811027825,47.136294698608474,30.55567312166368,-44.78169903293338,63.08488041950679,42.339573269080056,-44.025946572977865,-96.97434037994515,52.78231336548769,-54.480626791841196
51,62.08632689543488,91.29947861923401,81.73811371921391,82.12102863366728,85.79088697587991,117.49319557423607,27.373676211222424,30.026810441557966,46.99727822969443,27.99694498602192,25.508761920281174,8.399083495806575,8.502920640093723,-62.10226936169589,-91.299478619234,-81.73811371921391,-27.99694498602192,82.12102863366728,-25.508761920281174,85.79088697587991,0.0,117.49319557423608,-4.903123018863198,2.53562680952615,19.15496752596823,-8.399083495806575,27.373676211222424,-8.502920640093723,30.026810441557963,0.0,46.99727822969443,1.0,1.0,1.0,0.9978171857509597,0.9893121998843253,1.0123585767613956,0.9968825434313114,1.003208919774351,0.9730317533537233,0.0,3.4785594450972614,4.467102582402151,-2.054445731382504,-3.5264075552160628,1.7552088884462178,-1.1606763717070763,0.21783560299477542,-5.014598916704878,62.10226936169589,28.36420184371138,-53.897407560900994,81.73811371919663,52.19109174219123,-33.92931317805547,-91.29947861920694,57.270080873180554,-61.297428850201165
52,78.05928022349435,137.14372114593093,93.14786558384196,109.25339878366395,119.45647427280674,155.69401270793313,36.41779959455465,41.80976599548236,62.277605083173256,64.25279517364399,16.028980905363376,19.275838552093195,5.342993635121125,-79.06153584966732,-137.1437211459309,-93.14786558384196,-64.25279517364399,109.25339878366395,-16.028980905363376,119.45647427280673,0.0,155.69401270793315,-20.55472072875955,-18.871807497553277,1.1985739939414088,-19.275838552093195,36.41779959455465,-5.342993635121125,41.809765995482365,0.0,62.277605083173256,1.0,0.9999999999999999,0.9999999999999999,0.989209268533664,0.9699785396214009,1.0021899550326718,0.9782876473100073,0.9919155161415837,0.9482044392938329,0.0,4.568563990822072,2.9667865352004097,-2.638613058236037,-5.554568375021185,-0.15539438517673482,-3.169854264629706,-0.38874376057966725,-6.968284019085576,79.06153584966732,55.24004407334988,-54.5677562307679,93.14786558384195,53.37023475816526,-66.46563638924378,-137.1437211459309,70.2784022526741,-87.11387442376497
53,68.48936336774791,114.68669322898621,71.42955963681338,86.60721498963889,98.32702710723768,130.05319092823814,28.869071663212964,34.414459487533186,52.02127637129526,40.460924255170056,23.41258160063285,12.138277276551017,7.8041938668776165,-68.5413185867892,-114.6866932289862,-71.4295596368134,-40.460924255170056,86.60721498963889,-23.41258160063285,98.32702710723768,0.0,130.05319092823814,-7.7432649613188005,-4.234885886272991,14.82117535353558,-12.138277276551017,28.869071663212964,-7.8041938668776165,34.414459487533186,0.0,52.021276371295265,1.0,0.9999999999999999,0.9999999999999999,0.9963223905993073,0.9860919778565947,1.0095533266014758,0.9910480572496382,0.999925648998893,0.9661055267391311,0.0,4.130715486604308,2.7707050624910954,-2.27097001257372,-4.305048913783661,0.39444775382664476,-2.1538883692564204,0.01996966370455738,-5.653932897425177,68.5413185867892,38.752244862780714,-48.11576355054263,71.42955963681337,45.79768407774725,-52.79747694253572,-114.68669322898619,61.6458125199877,-69.66737532419761
54,75.39717222193725,129.23248799879036,79.06574741018859,99.60042661157566,100.47385057803629,128.9775299083897,33.20014220385855,35.165847702312696,51.59101196335588,37.52683728428853,11.72019180461217,11.25805118528656,3.90673060153739,-75.51462857723413,-129.23248799879036,-79.06574741018858,-37.52683728428853,99.60042661157566,-11.72019180461217,100.47385057803629,0.0,128.97752990838967,-13.394078058761806,-7.971223580494325,8.135077357211685,-11.25805118528656,33.20014220385855,-3.90673060153739,35.165847702312696,0.0,51.59101196335589,1.0,0.9999999999999999,0.9999999999999999,0.9932378779582578,0.9777901636041281,1.0058348470707514,0.9879879648072544,0.9982908559958368,0.9633684217874335,0.0,5.150149295344502,2.6703011536823174,-2.5099313605322315,-5.047291105231326,0.030108263978105593,-2.0848379848981407,0.5093559116633644,-5.630406625426818,75.51462857723413,48.35539854341819,-51.66123614557568,79.06574741018858,38.03437063610715,-62.63265656669976,-129.2324879987903,66.25574907643741,-64.17689656060793
55,56.87525387665745,92.7941188413404,78.74532149712088,90.20962951653974,111.10763445728611,134.48666886209344,30.069876505513243,38.887672060050136,53.79466754483738,80.14741846408882,30.374324072768673,24.044225539226645,10.12477469092289,-57.22801097242121,-92.7941188413404,-78.7453214971209,-80.14741846408882,90.20962951653974,-30.374324072768673,111.10763445728611,0.0,134.48666886209344,1.378602107819006,-4.814875042252879,14.598376465307865,-24.044225539226645,30.069876505513243,-10.12477469092289,38.887672060050136,0.0,53.79466754483739,1.0,0.9999999999999999,0.9999999999999998,1.0013367872961212,0.9885371819140445,1.0096097354709415,0.9873490894397342,0.9986761415466641,0.9684845954318957,0.0,1.3405200149017256,2.42675513388871,-1.8864793978325913,-4.366163851438515,-0.19289203524678122,-3.8747212678272973,-1.9887026233803415,-6.209378452728259,57.22801097242121,47.682717095931416,-42.918766516310185,78.7453214971209,65.46544506185798,-46.17473243665818,-92.7941188413404,46.42587734585924,-88.79207881604931
56,60.32830496670404,118.82432519750833,65.9243947867242,99.97258777685138,109.67867393246101,131.80546523880975,33.324195925617126,38.38753587636135,52.7221860955239,45.29335229627672,54.447362629750366,13.588005688883017,18.149120876583453,-61.43957526051046,-118.82432519750833,-65.9243947867242,-45.29335229627672,99.97258777685138,-54.447362629750366,109.67867393246101,0.0,131.80546523880975,-11.267835900365071,-6.923834859384328,18.64692428184418,-13.588005688883017,33.324195925617126,-18.149120876583453,38.38753587636135,0.0,52.722186095523895,1.0,0.9999999999999998,0.9999999999999998,0.9941398150361602,0.9798270259661931,1.0116649665804132,0.9884927276208825,0.9984384073152709,0.963058484466746,0.0,5.109756936488112,4.096988497016441,-2.0400350020151006,-4.073581111050678,1.908545228280981,-1.3097211479980884,0.8440795723718496,-5.295484183954515,61.43957526051046,39.21288896996297,-61.037775884074854,65.92439478672424,57.81999027837544,-52.28504867967766,-118.82432519750834,66.29777751388,-66.96631039990008
57,79.41521856703228,133.30051976576434,72.55305234376964,103.52779697440643,119.90378117051021,151.9057048978578,34.509265658135476,41.96632340967857,60.76228195914312,72.75510453597235,21.22559499796553,21.826531360791705,7.075198332655177,-80.05451713239536,-133.30051976576436,-72.55305234376965,-72.75510453597235,103.52779697440643,-21.22559499796553,119.9037811705102,0.0,151.9057048978578,-13.426944139960824,-16.06652957203312,5.364115725900206,-21.826531360791705,34.509265658135476,-7.075198332655177,41.96632340967857,0.0,60.76228195914312,1.0,0.9999999999999999,0.9999999999999998,0.993336919302245,0.9761672336614611,1.0040439443635987,0.9799198730013978,0.9934579498744143,0.953684499453445,0.0,3.3865417045470925,0.8035705360566453,-2.6606667352695634,-5.862872662827701,-1.6233362092526353,-4.387615497303292,-1.4240153272856497,-7.173430403898761,80.05451713239536,60.53795876600638,-43.63519609850856,72.55305234376962,49.35618449118638,-70.87929919271225,-133.3005197657643,61.97048701884028,-91.25513306165543
58,89.38619871656486,130.66317642608823,77.54519149680206,94.92823170735785,114.78665953130631,151.13296067774806,31.642743902452615,40.175330835957205,60.453184271099225,47.54424206106048,19.790287413423567,14.263272618318144,6.596762471141188,-89.72542851196813,-130.66317642608823,-77.54519149680209,-47.54424206106048,94.92823170735785,-19.790287413423567,114.78665953130631,0.0,151.13296067774803,-18.18325025620925,-15.099171936602659,6.42750004507775,-14.263272618318144,31.642743902452615,-6.596762471141188,40.175330835957205,0.0,60.45318427109922,1.0,0.9999999999999998,0.9999999999999999,0.9908751708921059,0.9777766010241931,1.004794578505659,0.9816950227231734,0.9939236287919783,0.9521765851864635,0.0,3.4900953673896242,1.489199654858943,-2.989777155125001,-5.607866663838677,-1.1028659588595393,-3.9252743571468685,-1.2228532535102414,-7.307989948147685,89.72542851196813,49.232960088368024,-46.12141893193528,77.54519149680208,50.34220977091731,-64.78250777485334,-130.6631764260882,65.5055303027351,-87.10097867177521
59,64.04827506367639,127.92973451689049,91.48293462958712,104.46274163652225,106.00292655021673,149.25262366077857,34.82091387884075,37.10102429257585,59.70104946431143,46.509166857787065,33.63559494458305,13.95275005733612,11.211864981527683,-65.65570791472325,-127.92973451689048,-91.48293462958713,-46.509166857787065,104.46274163652225,-33.63559494458305,106.00292655021673,0.0,149.25262366077857,-21.13973725390565,-12.984801218528048,9.653742216357102,-13.95275005733612,34.82091387884075,-11.211864981527683,37.10102429257585,0.0,59.701049464311424,1.0,1.0,0.9999999999999999,0.9885471496428349,0.9721962715873887,1.007084958395351,0.9853335502772637,0.99510192202093,0.9507118638836233,0.0,6.042034186655743,5.568759699082656,-2.1924323678453215,-4.148273543964303,2.5173568666522663,-0.6444935432102921,1.4333706904991805,-5.824000913801567,65.65570791472325,37.72338655119413,-67.00876167725076,91.48293462958713,56.256810341178436,-50.14973880894412,-127.92973451689056,77.5560509494964,-73.73078844272305
60,56.824420525491476,94.52032630038892,62.55721722073417,89.04561736646959,99.91801802671165,110.75621993977644,29.68187245548986,34.971306309349075,44.30248797591058,53.53879452796679,35.21257151721667,16.061638358390038,11.737523839072221,-56.74188879900319,-94.52032630038892,-62.557217220734174,-53.53879452796679,89.04561736646959,-35.21257151721667,99.91801802671165,0.0,110.75621993977644,3.8925596841327206,2.1398876519972987,20.262342077345238,-16.061638358390038,29.68187245548986,-11.737523839072221,34.971306309349075,0.0,44.30248797591058,1.0,0.9999999999999998,1.0,1.0027748779056924,0.9909193996993969,1.0125375539736394,0.9938444995301551,1.0030785253427092,0.9794310103901492,0.0,2.589015889793575,2.231509734500551,-1.8677656345023221,-4.180290365255405,0.1566848276641374,-2.7459604881303235,-0.7873095947551648,-5.000131319030839,56.74188879900319,44.60844757511117,-44.778809680773165,62.557217220722954,52.19441397345964,-48.062225780400276,-94.5203263003749,46.25593696810122,-65.19719542938411
61,79.80873261946947,118.99862247209475,85.88089724336065,95.55619957095126,111.77982439810039,136.02639994815175,31.85206652365042,39.12293853933513,54.410559979260704,39.82885357187199,22.749563612288384,11.948656071561595,7.583187870762794,-80.01213715469042,-118.99862247209474,-85.88089724336066,-39.82885357187199,95.55619957095126,-22.749563612288384,111.77982439810037,0.0,136.02639994815178,-14.353818901571913,-10.184697506505188,8.884265981949795,-11.948656071561595,31.85206652365042,-7.583187870762794,39.12293853933513,0.0,54.410559979260704,1.0,0.9999999999999999,0.9999999999999999,0.9928024818042077,0.9791503871877811,1.0064651961336324,0.9845785109627422,0.9964141505670663,0.9601997372719661,0.0,3.6609257774337354,3.021621769983612,-2.660689734830967,-4.963364281030596,0.1554698695060152,-2.9634571342065765,-0.6197151037408432,-6.356973309500086,80.01213715469042,43.8370408589981,-52.06026298445179,85.88089724336064,55.466810224924544,-56.70744138356594,-118.99862247209468,62.00309992652395,-75.31739732213384
62,72.49311094316795,128.1320705148986,80.37202394254071,93.85797022677959,114.71537440072903,121.71245188299844,31.285990075593194,40.15038104025516,48.684980753199376,33.99386912938063,19.14834816399696,10.198160738814188,6.38278272133232,-72.399621355243,-128.1320705148986,-80.37202394254072,-33.99386912938063,93.85797022677959,-19.148348163996957,114.71537440072902,0.0,121.71245188299844,-10.449182994842886,-9.002867727757462,8.901984176511348,-10.198160738814188,31.285990075593194,-6.382782721332319,40.150381040255155,0.0,48.68498075319937,1.0,1.0,1.0,0.9948556871571195,0.9812178597085036,1.006319313217028,0.9845856120058007,0.9975927475664736,0.9671589040987358,0.0,4.87575199198229,2.9011795434881518,-2.4024180887150948,-4.710156694735356,0.2186283222448042,-2.486391674180673,0.2713337736839932,-5.398019476988503,72.399621355243,44.10341150408504,-50.09821109826288,80.37202394249499,48.405204512921586,-66.61977727833226,-128.13207051475808,61.117039923307956,-61.826370601912046
63,56.98030220304854,108.7306160213864,69.60565175761585,78.56916245928988,89.78531546900108,111.57320539766773,26.189720819763295,31.424860414150373,44.629282159067095,34.589774077552164,13.24849625603538,10.37693222326565,4.41616541867846,-56.547421465661046,-108.7306160213864,-69.60565175761585,-34.589774077552164,78.56916245928988,-13.24849625603538,89.78531546900108,0.0,111.57320539766772,0.01975767579665444,1.9225899827044373,16.787448023051297,-10.37693222326565,26.189720819763295,-4.41616541867846,31.424860414150373,0.0,44.629282159067095,1.0,1.0,1.0000000000000002,1.0005416790506538,0.9923829035874013,1.01066087276324,0.9955546456753901,1.0035052494174177,0.9770813126555002,0.0,4.5237064439102515,2.936645864593245,-1.865518129315024,-3.6809445590350247,0.6236371516243822,-1.4843959473153556,0.6407068276362947,-4.545474957492261,56.547421465661046,34.74421190548288,-44.03146853069066,69.60565175760985,38.054431788627355,-51.914548824867126,-108.73061602137189,56.583620243834844,-56.02590805288012
64,72.21831445751532,130.5910650141737,90.88080289488335,105.9799005185277,113.90166557272838,136.91684179185583,35.326633506175895,39.86558295045493,54.76673671674234,40.346365835133135,26.789558729105718,12.10390975053994,8.929852909701905,-73.08578479998714,-130.5910650141737,-90.88080289488335,-40.346365835133135,105.9799005185277,-26.78955872910572,113.90166557272838,0.0,136.91684179185583,-18.758663690362027,-12.945234426077377,7.016286916914396,-12.10390975053994,35.326633506175895,-8.929852909701905,39.86558295045493,0.0,54.76673671674234,1.0,1.0,0.9999999999999999,0.9900903793819255,0.9725470590805387,1.0055228543536339,0.983006313145133,0.9952615970485071,0.9569041351959059,0.0,5.492580981806739,4.398175985338185,-2.43687994094824,-4.764362693306708,1.3621624035890953,-1.6964304279537195,0.7885858253076653,-5.779227958352147,73.08578479998714,44.62955750922227,-61.718681570231006,90.88080289488333,54.38020801354852,-59.905300398404414,-130.59106501417372,70.36391191031139,-68.21222323171457
65,68.77410266361947,125.75533131886239,92.04512857020431,101.95791307618036,103.3996942807848,145.7366329229774,33.985971025393454,36.18989299827468,58.294653169190966,50.579116091349825,17.870676300916507,15.173734827404946,5.956892100305502,-69.64055393487614,-125.75533131886239,-92.04512857020433,-50.579116091349825,101.95791307618036,-17.870676300916507,103.39969428078481,0.0,145.73663292297744,-17.278068060218175,-11.463313160465077,7.151098497062321,-15.173734827404946,33.985971025393454,-5.956892100305502,36.189892998274686,0.0,58.294653169190966,1.0,0.9999999999999997,1.0,0.9908601115756597,0.9747895093448317,1.0056381078604506,0.9858327617838646,0.9959416102029718,0.9544320080516471,0.0,5.1526324943383335,4.275059108276688,-2.3201372879982802,-4.603829864644497,1.200465029921284,-1.6037895607863517,0.6262942474714228,-6.046594639823725,69.64055393487614,43.694994598163596,-58.61105873980454,92.04512857020431,49.894122402722125,-53.82514056909645,-125.7553313188624,71.67316156179653,-75.79757567686302
66,58.87504326706093,118.37181098620243,76.38562206950259,91.98316260880502,98.81203464093858,120.77894354556696,30.661054202935006,34.5842121243285,48.31157741822679,31.955323752720552,29.464684037666903,9.586597125816166,9.821561345888966,-59.2835785174398,-118.37181098620243,-76.3856220695026,-31.955323752720552,91.98316260880502,-29.464684037666903,98.81203464093858,0.0,120.77894354556696,-9.216146917766537,-3.4780424161816654,15.654674041135422,-9.586597125816166,30.661054202935006,-9.821561345888966,34.5842121243285,0.0,48.31157741822679,1.0,1.0,1.0,0.9952774587231555,0.983101310089732,1.0101658616249916,0.9915850583340149,1.0005651228734205,0.9684826359437223,0.0,5.670634422993617,4.441066147984617,-1.9661678894202668,-3.760791458507548,1.9013720675109136,-0.7116836080969409,1.4302804968699967,-4.6716791741874735,59.2835785174398,34.6540913652466,-57.544289286288766,76.38562206946763,46.969748938277895,-52.12277502462298,-118.37181098611472,66.01178946699166,-56.19343539261409
67,64.14150810044795,105.00772713720525,79.57289017617903,89.4597640674647,92.22339426785355,125.89663514533804,29.819921355821567,32.27818799374874,50.358654058135215,43.02036143999922,19.24830885917273,12.906108431999765,6.416102953057576,-64.19247915189356,-105.00772713720525,-79.57289017617902,-43.02036143999922,89.4597640674647,-19.24830885917273,92.22339426785356,0.0,125.89663514533802,-6.074952358449991,-1.5722606336549916,14.766792016640807,-12.906108431999765,29.819921355821567,-6.416102953057576,32.27818799374874,0.0,50.358654058135215,1.0,0.9999999999999999,0.9999999999999999,0.9971865622613693,0.9855871860239419,1.0097306030487612,0.9931994845972593,1.001170771821341,0.9687863436427279,0.0,3.801477044156433,3.4574052598145726,-2.1249680932014647,-4.15713468169052,0.8105246826429624,-1.8185836901967023,0.042866919799342346,-5.404610252465483,64.19247915189356,38.99746522978936,-50.72852966474774,79.57289017615025,47.05947170314448,-45.439355186497615,-105.00772713712905,59.388386643164964,-67.67326097102635
68,59.15273489031701,81.79198276224453,70.00951772579764,85.02678997453734,98.51729389677452,111.72495344533378,28.342263324845778,34.48105286387108,44.68998137813352,66.85757426915252,20.350276956975023,20.057272280745757,6.783425652325008,-58.78483651780829,-81.79198276224452,-70.00951772579765,-66.85757426915252,85.02678997453734,-20.350276956975023,98.51729389677452,0.0,111.7249534453338,8.588801669026225,2.783890083715505,17.297560963286287,-20.057272280745757,28.342263324845778,-6.783425652325008,34.48105286387107,0.0,44.689981378133524,1.0,1.0,1.0,1.0055174179852777,0.9940190528520292,1.010969131803933,0.9934379648829913,1.003043440367409,0.9814730163389211,0.0,0.6776926722293696,1.2831917680332843,-1.929758423015171,-4.503546752738067,-1.042535090953782,-4.065219986743742,-2.2436454809949584,-5.557197631208446,58.78483651780829,49.61715755351,-35.826965582123805,70.00951772579081,54.0260453731904,-44.84954901116114,-81.79198276223602,36.76465296611779,-75.4064806974626
69,73.8397090709456,96.64463711797852,80.57080284864237,91.06094126209517,101.92844096084758,127.83244399154928,30.353647087365054,35.67495433629665,51.13297759661972,51.77936447296073,21.43031027559118,15.533809341888219,7.143436758530393,-73.71932641257378,-96.64463711797852,-80.57080284864239,-51.77936447296073,91.06094126209517,-21.43031027559118,101.92844096084758,0.0,127.8324439915493,-4.60761843302771,-3.3000191611447462,13.241124713602233,-15.533809341888219,30.353647087365054,-7.143436758530393,35.67495433629665,0.0,51.13297759661972,1.0,1.0000000000000002,0.9999999999999998,0.9982495263503246,0.9857437690203585,1.008864714913185,0.9898016289896787,0.9997638421722503,0.9689199913571859,0.0,1.7621068084827225,2.2289941319098445,-2.437914191860022,-4.855755350039152,-0.45340664729662683,-3.597105138181449,-1.7016512621346334,-6.26836590894363,73.71932641257378,46.22726584018397,-45.20433367750913,80.57080284860822,55.97593395993591,-46.34163810483792,-96.64463711789773,50.11183205886232,-78.5640425080373
70,80.29338383526934,119.9515957371289,72.60586982834118,98.77127373820579,108.9966260780433,119.69465807920608,32.92375791273526,38.14881912731516,47.87786323168243,36.67204658045513,21.681568087084674,11.00161397413654,7.227189362361558,-80.10264627815025,-119.95159573712891,-72.60586982834121,-36.67204658045513,98.77127373820579,-21.68156808708467,108.9966260780433,0.0,119.69465807920605,-9.307549773630626,-6.335382425550051,10.594043686980626,-11.00161397413654,32.92375791273526,-7.227189362361557,38.14881912731516,0.0,47.87786323168243,1.0,1.0,1.0000000000000002,0.995708422864327,0.9804762530847982,1.0071072487152686,0.9869792552832056,0.9988578044580665,0.9692912024465972,0.0,3.6682729695529837,1.7095737169895278,-2.6559221524982686,-5.360833795082742,-0.7117091633169289,-3.2606186028432864,-0.6361368235040543,-5.798867438554786,80.10264627815025,51.581900368546684,-47.65695027279895,72.60586982830637,45.7065322670693,-63.56408127321849,-119.95159573703559,56.030255096572546,-64.70115245903801
71,55.991322025272666,93.63739818371336,63.31887367078622,79.48705282070573,96.55889377300666,114.50781721035274,26.495684273568575,33.79561282055233,45.8031268841411,31.858276523068756,48.668279823977876,9.557482956920627,16.222759941325958,-56.24367106031109,-93.63739818371336,-63.31887367078622,-31.858276523068756,79.48705282070573,-48.668279823977876,96.55889377300664,0.0,114.50781721035275,-1.3383168041812041,2.4251653775820046,24.872936051306283,-9.557482956920627,26.495684273568575,-16.222759941325958,33.795612820552336,0.0,45.80312688414111,1.0,1.0,1.0,0.9997541583158134,0.9926843175039387,1.0152538096787576,0.9957670660696907,1.0032241720786845,0.9755758876131041,0.0,3.564859983435875,3.967137077067551,-1.8569558998722582,-3.2564479182293797,1.8726603893357563,-1.3561079505122924,0.2205954302846732,-4.78034299924089,56.24367106031109,26.906764328399447,-52.70498880400743,63.31887367076571,58.18213551727617,-38.791353411325225,-93.63739818369015,54.71472417744222,-60.76881481084051
72,60.274383112193085,128.03181166984788,67.14834903769734,109.55035675394387,118.5620375865249,133.69439998351177,36.516785584647955,41.49671315528371,53.47775999340471,87.62055697142121,22.235024882144018,26.28616709142636,7.411674960714672,-60.840488709701575,-128.0318116698479,-67.14834903769736,-87.62055697142121,109.55035675394387,-22.235024882144018,118.5620375865249,0.0,133.6943999835118,-3.0760453840839546,-10.712036654271458,7.689984637822988,-26.28616709142636,36.516785584647955,-7.411674960714672,41.49671315528371,0.0,53.47775999340471,1.0,1.0,0.9999999999999999,0.9988431435675197,0.9782098531401389,1.0052767318038944,0.9826052783870323,0.9965229345460155,0.9657895737648821,0.0,3.717820172502936,0.8656361740120648,-2.01061841266017,-5.5333764499072435,-1.3776305726048943,-3.9273196086536513,-0.8879373219302301,-5.913045463837846,60.840488709701575,67.46384102275525,-42.886342677379574,67.14834903769733,45.74017400874137,-73.10714532794634,-128.03181166984785,54.447857734393146,-80.23735169022883
73,67.74135009429962,106.30491893654415,68.88743783913982,83.67837955115067,101.78302793499063,108.78173340071527,27.89279318371689,35.624059777246714,43.51269336028611,31.335876095207585,23.305177153638994,9.400762828562275,7.768392384546331,-67.24553855690958,-106.30491893654415,-68.8874378391398,-31.335876095207585,83.67837955115067,-23.305177153638994,101.78302793499064,0.0,108.78173340071527,-1.423512050495674,-0.10896293886224839,16.408154310977125,-9.400762828562275,27.89279318371689,-7.768392384546331,35.624059777246714,0.0,43.51269336028611,1.0,0.9999999999999999,1.0000000000000002,0.9999305301069641,0.9901023061868035,1.0104218856729716,0.9919853426232901,1.0021367925000513,0.9774853441440238,0.0,3.4504046123296535,2.3119518234888656,-2.2199716689818967,-4.292664841173658,0.02228054734713486,-2.5995606194608967,-0.35103133724181096,-5.034174615380749,67.24553855690958,39.670065339667644,-44.2786796295823,68.88743783913132,47.13393680122423,-54.93074320005691,-106.30491893652864,51.10995622519522,-58.520725097807095
74,50.916339143520794,87.06369420676104,49.30931361596365,71.3296192658354,80.48650705539839,103.58989135230048,23.776539755278467,28.170277469389436,41.435956540920195,38.85390993970327,31.83126720638307,11.65617298191098,10.61042240212769,-50.54462890373971,-87.06369420676104,-49.309313615963646,-38.85390993970327,71.3296192658354,-31.83126720638307,80.48650705539839,0.0,103.58989135230048,8.42117373019505,9.05781275522844,26.521813616596603,-11.65617298191098,23.776539755278467,-10.61042240212769,28.170277469389436,0.0,41.4359565409202,1.0,0.9999999999999999,1.0,1.0052722657623319,1.0002396305143941,1.0159527786726719,1.0019882083319647,1.0071322086975099,0.9850036131792098,0.0,2.9766720028627507,2.138217835414474,-1.6595760389261018,-3.3260527074608,0.5084180653901119,-1.7412093202790717,-0.12049611045580867,-4.386367735210184,50.54462890373971,31.800243214723892,-39.69949219197889,49.309313615959056,40.82616199891168,-39.864117455243715,-87.0636942067571,47.06473171687089,-57.236092012347996
75,81.68671796724652,123.14952731110485,100.02479872531434,89.84221562859658,109.95264706346305,158.88137951942204,29.947405209532192,38.48342647221207,63.55255180776882,42.27058729137403,15.725508373482512,12.681176187412207,5.241836124494171,-82.43455851760007,-123.14952731110486,-100.02479872531433,-42.27058729137403,89.84221562859658,-15.725508373482512,109.95264706346306,0.0,158.881379519422,-22.22202520169185,-15.584202185834442,5.065403900233719,-12.681176187412207,29.947405209532192,-5.241836124494171,38.48342647221207,0.0,63.552551807768815,1.0,1.0,1.0,0.9883413547037527,0.977271489046955,1.0046796144553658,0.9822727827214665,0.9932465757948242,0.9467681003595121,0.0,4.009286996995216,4.1746405521687056,-2.7536876068397906,-4.612609006674611,0.8300187012656552,-2.5431246033895274,-0.4351211746775449,-7.167325821414967,82.43455851760007,35.15542461576864,-54.90803906354594,100.02479872531437,59.61100600633858,-50.794612584687705,-123.14952731110483,72.1219000629715,-88.55610742674321
76,70.37065357882221,105.55755601088744,67.80605007554131,86.44060499782192,96.83975448252384,132.0112876857379,28.813534999273973,33.89391406888334,52.80451507429516,46.3099256219782,28.59005997878045,13.89297768659346,9.530019992926816,-70.44883873336504,-105.55755601088744,-67.8060500755413,-46.3099256219782,86.44060499782192,-28.59005997878045,96.83975448252384,0.0,132.0112876857379,-5.949625988987236,-2.898413282764068,16.86414209341558,-13.89297768659346,28.813534999273973,-9.530019992926816,33.89391406888334,0.0,52.80451507429517,1.0,1.0000000000000002,0.9999999999999999,0.9973988130487256,0.9874038323334694,1.010663769169307,0.992100185211531,1.0003663149234279,0.9666178590427714,0.0,3.034617496861655,2.2876436550587567,-2.3316855905030267,-4.45861714704203,0.034473756499802846,-2.711607010040637,-0.7467443128051431,-6.011933231666129,70.44883873336504,40.48514134784786,-46.23841881296266,67.8060500755413,49.30198263615154,-47.84357305773591,-105.55755601088742,57.51420630947563,-75.60143134782902
77,80.01403930932987,101.59515848017254,72.9638721681975,83.77345920234096,102.51348018126245,126.66459247548629,27.924486400780317,35.87971806344186,50.66583699019452,25.56660663059616,36.30309799186873,7.669981989178847,12.101032663956243,-79.98686098703871,-101.59515848017253,-72.9638721681975,-25.56660663059616,83.77345920234096,-36.30309799186873,102.51348018126245,0.0,126.66459247548627,-9.840315676365663,-3.4226198964955756,17.643305252178777,-7.669981989178847,27.924486400780317,-12.101032663956243,35.87971806344186,0.0,50.66583699019452,1.0,1.0,0.9999999999999997,0.995398790332848,0.9869489781527614,1.0112432915141192,0.9907468635071874,0.9998790760646309,0.9669934278547936,0.0,2.695800938782029,2.8862096223527463,-2.6529059293422583,-4.431647405950562,0.46293880038979945,-2.781763445477225,-0.9451977373506202,-6.126568590474041,79.98686098703871,33.776618143444,-50.19458598216956,72.96387216815774,58.06354120391478,-44.86950535622429,-101.59515848007389,56.547584282495826,-71.18384980123649
78,50.73196780857136,101.83549421757824,72.34151606665235,84.01872815397857,92.79218001589817,117.19411976813873,28.006242717992855,32.47726300556436,46.87764790725549,51.440607767285094,20.739868222458995,15.432182330185528,6.913289407486332,-50.6397067016542,-101.83549421757823,-72.34151606665236,-51.440607767285094,84.01872815397857,-20.739868222458995,92.79218001589817,0.0,117.19411976813873,1.592977652049285,1.4132999436745308,17.61223074473537,-15.432182330185528,28.006242717992855,-6.913289407486332,32.47726300556436,0.0,46.87764790725549,1.0,0.9999999999999999,0.9999999999999998,1.001342474813967,0.9911175738729329,1.0112097434362088,0.9947571316157646,1.0029049651822042,0.9756548816023379,0.0,3.8975618132798364,3.2893260718128117,-1.6692258286236088,-3.637723602718189,0.8866573158383257,-1.6674469241146332,0.25896447423028046,-4.725557134743287,50.6397067016542,37.93383504367542,-46.33269859335466,72.341516066641,45.89616689250816,-47.1581317902873,-101.83549421755491,54.484265935003734,-63.67697401419576
79,56.07106939044448,86.13427718440028,50.746859104316194,82.41536066656728,84.02642616319984,104.60336964441773,27.47178688885576,29.409249157119945,41.84134785776709,62.43567555182956,18.303442741212525,18.73070266554887,6.101147580404175,-55.58002374565698,-86.13427718440028,-50.7468591043162,-62.43567555182956,82.41536066656728,-18.303442741212525,84.02642616319984,0.0,104.60336964441771,11.77593678149924,7.560528252643792,20.83914637493058,-18.73070266554887,27.47178688885576,-6.101147580404175,29.409249157119945,0.0,41.84134785776708,1.0,0.9999999999999999,0.9999999999999999,1.0072918095744192,0.9969040972434433,1.01264847530051,0.9992502110856949,1.00616652714764,0.9861854332858506,0.0,1.543156143909862,0.26446021699979216,-1.8213008194189533,-4.469152405832185,-1.4183422625512567,-3.4533743931612055,-1.5238611398144253,-4.999316248384536,55.58002374565698,50.999564532833254,-31.85320568850473,50.746859104313636,36.79846940074906,-47.39612675464586,-86.13427718439691,38.54604231091745,-66.53819789402823
80,81.00408992650608,118.00993006771269,95.78664619974354,102.85666297699959,109.38754701769089,134.79912656775994,34.285554325666524,38.28564145619181,53.91965062710398,33.70630451616242,22.579294195802053,10.111891354848725,7.526431398600684,-81.48455891040986,-118.00993006771269,-95.78664619974353,-33.70630451616242,102.85666297699959,-22.57929419580205,109.38754701769088,0.0,134.7991265677599,-18.505163264864905,-10.447570467490209,7.190881386569856,-10.111891354848725,34.285554325666524,-7.526431398600685,38.28564145619181,0.0,53.91965062710397,1.0,0.9999999999999999,0.9999999999999999,0.9904537191688253,0.9741706514198777,1.0057813658491321,0.9846767838942523,0.9962043727450133,0.9586786074404772,0.0,4.092234407647196,4.111865646565498,-2.716119801477192,-4.9935895083563135,0.9126219077618998,-2.32031509724561,-0.15367109171735918,-6.206062437560702,81.48455891040986,43.581309557849,-59.62289761483976,95.78664619974357,57.281363389335645,-52.521752970642744,-118.00993006771269,65.23987741585483,-70.99092530627004
81,59.21758292625957,110.66912842166052,89.81908673626553,83.26448779019286,89.79827927778149,119.29215592524085,27.754829263397617,31.42939774722352,47.716862370096344,17.749603248661533,18.461155172243714,5.32488097459846,6.153718390747905,-59.47295945155785,-110.66912842166053,-89.81908673626555,-17.749603248661533,83.26448779019286,-18.461155172243714,89.79827927778149,0.0,119.29215592524082,-10.898657604098617,-1.4086294121028118,14.85477435692627,-5.32488097459846,27.754829263397617,-6.153718390747905,31.429397747223522,0.0,47.71686237009635,1.0,0.9999999999999998,0.9999999999999999,0.9943126558922317,0.9852672128815587,1.0100771788088143,0.994073928983062,1.001510972953743,0.9685095425953747,0.0,5.712683876429369,5.650915331152189,-1.97436594521892,-3.2097779797289347,2.6639439411890127,0.009832259901468117,1.7524641417328082,-4.518258935320617,59.47295945155785,23.991569801784205,-59.37726566798639,89.81908673623923,47.48438493303364,-42.592307079484506,-110.66912842159716,67.91895817944197,-52.880978981322286
82,79.82291079090564,133.64109930022033,106.00511310880718,108.09551012728119,119.6701333585847,144.34215755682663,36.031836709093724,41.884546675504644,57.73686302273066,29.68822913342121,27.33168295051438,8.906468740026362,9.110560983504794,-81.12250591050385,-133.64109930022033,-106.00511310880717,-29.68822913342121,108.09551012728119,-27.331682950514377,119.67013335858469,0.0,144.34215755682663,-27.22318637788817,-17.66119793599927,2.882886287491715,-8.906468740026362,36.031836709093724,-9.110560983504794,41.88454667550464,0.0,57.73686302273066,1.0,0.9999999999999998,1.0000000000000002,0.9854278973301203,0.9672982804849468,1.0036136539543496,0.9791466717126405,0.992482687966833,0.9494546057074819,0.0,5.760387078890702,5.649788358788668,-2.717843849603733,-4.7857913331498185,2.1011790236089003,-1.45624324729533,0.9327596831403971,-6.202601529726778,81.12250591050385,39.74291097537834,-68.65757268260857,106.00511310880725,62.7141513198323,-57.46256613862493,-133.64109930022028,75.87659911069116,-70.41881520363765
83,86.4425889160446,107.35992035424265,101.09342582894266,98.97061607514699,103.12657240604891,147.94711012326678,32.990205358382326,36.094300342117116,59.17884404930672,41.514388055515866,17.678210321303677,12.454316416654759,5.892736773767892,-86.97686716494442,-107.35992035424263,-101.09342582894266,-41.514388055515866,98.97061607514699,-17.67821032130368,103.12657240604891,0.0,147.9471101232668,-19.79813420456867,-10.651685296762025,6.5967093844076885,-12.454316416654759,32.990205358382326,-5.892736773767892,36.094300342117116,0.0,59.17884404930672,1.0,0.9999999999999999,0.9999999999999999,0.9898648754414155,0.9752962982804791,1.0056121284992579,0.9855867993169815,0.9956064063605303,0.9533613898895001,0.0,2.673009422888848,3.855888431811743,-2.9010722656909698,-5.135005901756176,0.4786309200998634,-2.9571193355581924,-1.1914297373281701,-7.127828507250095,86.97686716494442,42.49646052917065,-56.80037719895112,101.09342582894267,60.64741704611183,-42.937012147482434,-107.35992035424265,64.25598693337807,-85.11207648568224
84,57.235713671143145,117.17170141832993,80.94321933612237,77.49323562065943,88.49913176387727,134.84920447370052,25.83107854021981,30.974696117357045,53.93968178948021,29.069568743983474,19.92327501326835,8.720870623195042,6.641091671089449,-57.72714781367931,-117.17170141832993,-80.94321933612235,-29.069568743983474,77.49323562065943,-19.92327501326835,88.49913176387727,0.0,134.84920447370052,-11.32059280368162,-3.747102572403662,15.928811450474086,-8.720870623195042,25.831078540219806,-6.641091671089448,30.97469611735705,0.0,53.93968178948022,1.0,0.9999999999999998,0.9999999999999999,0.9940356202302433,0.9875119490595368,1.0104481972940333,0.9938317082982145,1.000342230532737,0.9620983792692426,0.0,5.910521034277178,5.049071487706455,-1.9169213429906466,-3.0859085736438603,2.3584890834297347,-0.11271280565109867,1.7122983936126732,-5.012217538945657,57.72714781367931,22.34818006385527,-55.23268006498143,80.94321933612235,44.41218720013283,-44.33458485528645,-117.1717014183299,72.66716227467614,-63.928339634068436
85,58.362721968816,96.02461810518173,60.2996928487471,81.71734442685461,90.22819148018604,124.8040036622708,27.239114808951534,31.579867018065112,49.92160146490832,61.93765993777673,23.06908798743455,18.58129798133302,7.689695995811516,-58.22646698754987,-96.02461810518174,-60.2996928487471,-61.93765993777673,81.71734442685461,-23.06908798743455,90.22819148018604,0.0,124.80400366227082,3.6926841728291038,1.7885021396565435,19.153223897271687,-18.58129798133302,27.239114808951534,-7.689695995811516,31.57986701806511,0.0,49.92160146490831,1.0,0.9999999999999999,0.9999999999999998,1.0026880489608416,0.9934718273367402,1.0118409746067507,0.9955968495121054,1.0029151129467389,0.9742595683834883,0.0,2.367301873253991,1.514358615520791,-1.9168173485740525,-4.19759775854471,-0.48693771879131326,-2.9497472940586555,-1.0633812066935935,-5.577939063766201,58.22646698754987,43.61563941203489,-38.424735085228484,60.29969284873468,44.36045110575289,-46.11318110585174,-96.02461810514814,49.7277681128455,-75.89381856247662
86,53.72695050569328,101.08566259789129,68.0779908553951,86.2782328262326,98.4998950995101,112.53819896917976,28.75941094207753,34.47496328482853,45.015279587671905,52.903275548956294,24.579193329505568,15.870982664686888,8.193064443168522,-53.531536081163914,-101.08566259789129,-68.07799085539511,-52.903275548956294,86.2782328262326,-24.579193329505568,98.4998950995101,0.0,112.53819896917976,3.24040932632397,1.2556103970730987,17.73749312527633,-15.870982664686888,28.75941094207753,-8.193064443168522,34.47496328482853,0.0,45.0152795876719,1.0,1.0,0.9999999999999999,1.0023408507057778,0.9911238416140402,1.0111814319119174,0.9934155062908584,1.0027769725342242,0.9781916419318593,0.0,3.3607320844224917,2.585059137408217,-1.7628197636066871,-3.9673188976734046,0.324006773102257,-2.334577693001182,-0.2514995948255456,-4.808376455035893,53.531536081163914,42.49206923359112,-44.096199288049384,68.07799085538564,47.788993718694584,-50.997136298433105,-101.08566259787517,49.861444245439614,-63.4850172831287
87,54.146358298287296,88.14616104405565,75.64215801940976,78.69583846054475,91.56127501172134,107.95322755511017,26.231946153514915,32.04644625410246,43.18129102204407,48.81903942434261,14.445404068367527,14.645711827302783,4.815134689455842,-53.61452398626167,-88.14616104405565,-75.64215801940978,-48.81903942434261,78.69583846054475,-14.445404068367527,91.56127501172134,0.0,107.95322755511019,6.1041475562367395,4.253650422714372,17.72390162164055,-14.645711827302783,26.231946153514915,-4.815134689455842,32.04644625410246,0.0,43.181291022044064,1.0,1.0000000000000002,0.9999999999999999,1.0039910537330725,0.995110137669306,1.0113580509702533,0.9958288289889209,1.0041708956820674,0.9817056913078517,0.0,2.4021668067893147,2.73722333983143,-1.762650604244942,-3.747425561953525,0.22523069768817264,-2.4947096488324205,-0.7428033368464467,-4.8184516623796,53.61452398626167,38.21733291867831,-40.72664724614129,75.64215801940506,48.70704444802458,-43.14420403148338,-88.14616104404966,44.83952917114978,-63.76577686642355
88,90.3560577547769,116.08704684891671,84.98622635358595,116.4484819520624,123.09878091317974,144.96308574247746,38.816160650687465,43.08457331961291,57.98523429699099,67.76338327494283,29.3143278615029,20.329014982482846,9.771442620500967,-91.10814018851036,-116.08704684891671,-84.98622635358598,-67.76338327494283,116.4484819520624,-29.3143278615029,123.09878091317974,0.0,144.9630857424775,-16.373586112746352,-14.685603170455522,4.6298089170365415,-20.329014982482846,38.816160650687465,-9.771442620500967,43.0845733196129,0.0,57.98523429699098,1.0,1.0,0.9999999999999997,0.9919579360285068,0.9700576350354261,1.0039490668781255,0.9791188942108912,0.9934743995272673,0.9557362270048185,0.0,1.62782832124146,1.2726851496703167,-3.0325769766364887,-6.536602315694747,-1.570698031814158,-5.103466988903067,-2.5602668594160587,-7.577535854584719,91.10814018851036,66.38387540498265,-50.856532375613185,84.98622635358596,62.35946380495083,-61.242061195689246,-116.08704684891671,54.50178991042561,-91.49455966415512
89,74.41258157326055,129.75524210273616,70.73425102335679,90.91000531735614,103.72720256271276,131.25969482598862,30.30333510578538,36.30452089694946,52.50387793039545,30.45846071975928,24.30640418622099,9.137538215927783,8.10213472874033,-74.62076610272679,-129.75524210273613,-70.73425102335676,-30.45846071975928,90.91000531735614,-24.306404186220995,103.72720256271275,0.0,131.25969482598862,-13.489665704525123,-8.172454588464689,12.317802483625655,-9.137538215927783,30.30333510578538,-8.10213472874033,36.30452089694946,0.0,52.503877930395454,1.0,0.9999999999999999,1.0,0.9931604570034736,0.9816746100913001,1.008070777456593,0.9881718435856689,0.9981919899999301,0.9623417337998915,0.0,5.328382197661881,2.834158646467035,-2.4803962225340066,-4.569837876464097,0.47758271905295113,-1.8785593776099057,0.6683125500207597,-5.633297881745968,74.62076610272679,39.703334498506585,-51.484087517594446,70.73425102335678,42.48331647160282,-61.48417543672449,-129.75524210273616,67.93970228155344,-64.85121855443813
90,78.09113962120294,121.81868168632955,84.77969429923827,104.91811226594452,103.32041192392553,134.36937106640502,34.97270408864817,36.16214417337393,53.74774842656201,36.50649747736082,25.316145098672585,10.951949243208245,8.438715032890862,-78.68973784731972,-121.81868168632954,-84.77969429923826,-36.50649747736082,104.91811226594453,-25.316145098672585,103.32041192392555,0.0,134.36937106640502,-17.41575973877775,-8.927021499144928,9.58786566925096,-10.951949243208245,34.97270408864817,-8.438715032890862,36.16214417337393,0.0,53.747748426562005,1.0,0.9999999999999998,0.9999999999999999,0.9910055787667885,0.9742408270488333,1.0068449423304329,0.9872076475363022,0.9973310113206868,0.9594689254703724,0.0,4.649078059893425,3.633535315091436,-2.621432285381026,-5.034271630114157,0.8052325884084784,-1.9675429551552055,0.2708340651983884,-5.97750978621072,78.68973784731972,46.1149118134965,-59.190279522733874,84.77969429923824,49.46415771742881,-54.169631813550346,-121.81868168632955,67.38950492203644,-68.50030760760626
91,55.33309265172855,101.7755939082022,55.49175434713019,88.83046991200865,85.11071793782212,106.84614089087798,29.610156637336217,29.78875127823774,42.73845635635119,41.124982879295075,29.977530483547454,12.337494863788523,9.992510161182484,-55.241416184835025,-101.77559390820218,-55.49175434713018,-41.124982879295075,88.83046991200865,-29.977530483547454,85.11071793782212,0.0,106.84614089087798,2.0313570698374406,5.131445931747862,21.699102150932106,-12.337494863788523,29.610156637336217,-9.992510161182484,29.788751278237743,0.0,42.73845635635119,1.0,0.9999999999999999,1.0,1.0016755685828815,0.9903733711229759,1.0132376164235997,0.9987020203506439,1.005221763125071,0.9802978662625865,0.0,4.1135641489228005,2.4237401819231734,-1.8203542168531999,-3.993660015708534,0.5846120835615483,-1.4731310786647378,0.4855023340754565,-4.407205371796969,55.241416184835025,41.87867562925098,-47.25378407481069,55.49175434712311,37.32750891635009,-47.958362446107245,-101.77559390819222,53.6206609798357,-54.15212052126792
92,64.64111309955416,118.43152505429889,68.11627636689546,91.20353222236268,110.73911663248806,121.75840194649886,30.401177407454227,38.75869082137082,48.703360778599546,53.65546088846328,22.301507438123814,16.096638266538985,7.433835812707938,-64.50527808523381,-118.43152505429887,-68.11627636689548,-53.65546088846328,91.20353222236268,-22.301507438123814,110.73911663248808,0.0,121.75840194649888,-2.409745453133837,-5.4628486046931926,12.570694770898228,-16.096638266538985,30.401177407454227,-7.433835812707938,38.75869082137082,0.0,48.70336077859955,1.0,1.0000000000000002,1.0000000000000002,0.9993029554793168,0.9862685456813569,1.0081569404557813,0.9873249835106932,0.9993307825792036,0.971383133529625,0.0,3.7606134864493637,1.7487019365873584,-2.1308030498554764,-4.683142856752744,-0.5204132184394414,-3.1318300489755564,-0.4871332611437427,-5.453072911122127,64.50527808523381,48.850938549993444,-42.765381327336584,68.11627636687173,46.91841574224117,-64.10962869742133,-118.43152505422574,53.958694685281564,-68.75794820247283
93,67.31817296672367,149.80205839080054,83.1117680655778,91.88054008089281,119.36217007921466,136.76419783514143,30.626846693630938,41.77675952772513,54.705679134056574,25.95010081075426,25.942221998467723,7.785030243226278,8.647407332822574,-68.13658565991338,-149.80205839080054,-83.11176806557782,-25.95010081075426,91.88054008089281,-25.942221998467723,119.36217007921465,0.0,136.76419783514146,-19.979267678031192,-16.40242636539955,7.538466042783739,-7.785030243226278,30.626846693630938,-8.647407332822574,41.77675952772513,0.0,54.70567913405657,1.0,1.0,0.9999999999999998,0.989270751819898,0.9772189039390906,1.005597646876007,0.9811428692771457,0.9941669588937566,0.9552591303848783,0.0,7.544820525006384,4.650310867178368,-2.2736536152742572,-3.9989048497751223,1.87425338411092,-0.8316654482833419,2.14094712049878,-5.218150225486473,68.13658565991338,32.992285648258274,-59.08669008397456,83.11176806557776,48.541463526365824,-71.1439260682001,-149.80205839080054,78.20621063390603,-60.595825955011485
94,66.84071855813997,96.65528777930764,74.01106879770063,85.58234466262951,93.32522878113511,131.30186111197904,28.5274482208765,32.663830073397286,52.52074444479162,54.600980165206906,21.358577070566742,16.38029404956207,7.1195256901889135,-66.81082157423077,-96.65528777930763,-74.01106879770063,-54.600980165206906,85.58234466262951,-21.358577070566742,93.32522878113511,0.0,131.30186111197904,-2.8125858967716795,-1.308513114866173,16.057746689060934,-16.38029404956207,28.5274482208765,-7.1195256901889135,32.663830073397286,0.0,52.520744444791625,1.0,1.0,0.9999999999999998,0.9991213487127363,0.98887249357762,1.0103411420324115,0.9931002354702666,1.001006664191471,0.9685670473491552,0.0,2.2813470524326473,2.3437441941509247,-2.207400469914779,-4.398503822280893,-0.11652344808399513,-2.941901487305735,-1.1784869864808953,-6.04289629630261,66.81082157423077,41.832115565621976,-44.05122347931384,74.01106879767106,50.54427602423595,-43.09705831786546,-96.65528777922351,53.395854814708876,-78.86043572998143
95,60.72940866345881,123.30189271566357,73.37134171121113,91.5263231843512,121.02501318872667,122.49764799862398,30.50877439478373,42.358754616054334,48.99905919944959,60.97666620003277,20.19972287556593,18.29299986000983,6.733240958521976,-60.623088726944594,-123.30189271566357,-73.37134171121113,-60.97666620003277,91.5263231843512,-20.19972287556593,121.02501318872666,0.0,122.49764799862399,-1.5119266189685732,-8.475184650630979,9.778723679943482,-18.29299986000983,30.50877439478373,-6.733240958521976,42.358754616054334,0.0,48.99905919944958,1.0,0.9999999999999999,1.0,0.9997391402080167,0.9859455394411946,1.0066489571915236,0.9833471099876605,0.9976837617819933,0.9708941610725477,0.0,3.8931095839227985,1.8783571139769506,-2.00163471232206,-4.630240049764705,-0.5695830374447076,-3.437084522168404,-0.5369778822286981,-5.413618903398285,60.623088726944594,50.393641096111246,-41.572501187499036,73.37134171117668,51.30477898544534,-70.06928552796728,-123.30189271555615,52.79298865555117,-70.62274914627776
96,40.72527339973035,65.80919097222623,62.9978182926733,83.25554809732861,86.55835841370677,115.14032330342809,27.751849365776202,30.295425444797367,46.05612932137124,69.17697585717237,48.569955423694736,20.75309275715171,16.189985141231578,-41.20793950367632,-65.80919097222622,-62.99781829267329,-69.17697585717237,83.25554809732861,-48.569955423694736,86.55835841370677,0.0,115.14032330342809,9.716917552087125,7.118663694366603,27.880822913594614,-20.75309275715171,27.751849365776202,-16.189985141231578,30.295425444797367,0.0,46.05612932137124,1.0,0.9999999999999999,1.0,1.0058770311201446,0.9965321260334244,1.0170084091724358,0.999795163009274,1.0052909344149428,0.9811291398177092,0.0,1.2045531777690663,3.482820030110711,-1.352139301505176,-3.1975369985854134,1.4025647446557128,-2.1020741399430074,-1.1403163148166553,-4.900291063946302,41.20793950367632,35.8546814296245,-47.61976867362248,62.99781829265493,63.057180305637104,-23.97469793597802,-65.80919097221648,41.78381337590632,-73.9301059336377
