mile888/hybrid_gp/hybrid/IEEE39/datasets/dataset_pandapower_AC.csv
,Pg0,Pg1,Pg2,Pg3,Pg4,Pg5,Pg6,Pg7,Pg8,Pg9,Load_P1,Load_P2,Load_P3,Load_P4,Load_P5,Load_P6,Load_P7,Load_P8,Load_P9,Load_P10,Load_P11,Load_P12,Load_P13,Load_P14,Load_P15,Load_P16,Load_P17,Load_P18,Load_P19,Load_P20,Load_P21,Load_Q1,Load_Q2,Load_Q3,Load_Q4,Load_Q5,Load_Q6,Load_Q7,Load_Q8,Load_Q9,Load_Q10,Load_Q11,Load_Q12,Load_Q13,Load_Q14,Load_Q15,Load_Q16,Load_Q17,Load_Q18,Load_Q19,Load_Q20,Load_Q21,RS_P1,RS_P2,RS_P3,RS_P4,RS_P5,RS_P6,RS_Q1,RS_Q2,RS_Q3,RS_Q4,RS_Q5,RS_Q6,Q29,Q30,Q31,Q32,Q33,Q34,Q35,Q36,Q37,Q38,U0,U1,U2,U3,U4,U5,U6,U7,U8,U9,U10,U11,U12,U13,U14,U15,U16,U17,U18,U19,U20,U21,U22,U23,U24,U25,U26,U27,U28,P_0_1,P_0_38,P_1_2,P_1_24,P_2_3,P_2_17,P_3_4,P_3_13,P_4_5,P_4_7,P_5_6,P_5_10,P_6_7,P_7_8,P_8_38,P_9_10,P_9_12,P_12_13,P_13_14,P_14_15,P_15_16,P_15_18,P_15_20,P_15_23,P_16_17,P_16_26,P_20_21,P_21_22,P_22_23,P_22_35,P_24_25,P_25_26,P_25_27,P_25_28,P_27_28
0,543.683861226211,480.78096192136167,422.5891810709843,515.1937024395401,465.72643396583186,398.12698485576493,407.4921844974846,438.3533815660078,470.09028059201347,474.44098321989696,90.91419199025471,278.2575467376877,484.89080627993974,191.94172517389083,434.7179630867239,5.701385310226054,7.723471284133689,280.39355208952645,294.9157082934726,144.0225879223896,619.3007184368762,248.6162100573474,237.84208127972803,292.7664893820259,207.29472675462364,122.7027633224358,244.95168423284665,195.56445763028583,269.75038947770213,7.756971133198176,1067.4870764649609,41.17220579886535,2.073969292454815,178.4398167110178,68.96109886487096,147.0712495806809,-58.41727102477772,79.67942239200056,134.06316709280483,28.953730631851567,27.346060997922077,93.80584411617389,104.3462195496166,81.29874778288887,-87.46944368445492,43.67996028043855,15.00681278044179,65.8144204967257,26.20183995434898,25.595363234392195,3.878485566599088,241.73167492413063,201.9392441347546,186.74343198033407,171.9920001190885,155.919661569748,253.88937984316175,180.24992646768195,67.31308137825152,62.247810660111355,57.33066670636283,51.97322052324933,84.6297932810539,60.083308822560646,-97.2452414628637,-125.24937371181983,-87.82826241011855,-26.192746788013153,-121.63056227750081,-63.966173255146714,-14.113977551817356,44.59444539575327,119.36279708027718,132.57688833538276,1.0363298430297094,1.0623660338639713,1.0505118619181515,1.0265982464592591,1.025230262367578,1.0268944575945167,1.0176734543593675,1.016540464529914,1.041670536575256,1.03796401244161,1.0341933122852365,1.0392243409910267,1.0378205344537956,1.03729664815812,1.0497998223269072,1.0606940120880932,1.0597221958646685,1.0551385520524386,1.0620339053158103,0.998820882493652,1.0573768886845043,1.0681490052108402,1.0631878873098433,1.069653164915156,1.0657496900313406,1.0734464907855368,1.0628086684265488,1.0714684249950166,1.069576151544002,-446.0720070657227,355.1578150754681,353.5441688749486,-123.38373342708437,135.60387253505723,-61.800088809393706,-51.92977023724,-297.71971318244806,-453.478557281855,401.52674567607954,474.81428986366257,-396.79660524132765,281.55185372894346,246.8005488762981,239.61776048435146,300.3798264994708,122.20935457151312,203.0982227229251,-95.66861799936768,-204.26678991534342,288.1851033714092,-355.725130152914,-235.82424616283757,-196.24146653363925,206.14695518480363,81.5210447550846,-484.84933130340534,67.50424780745627,236.38181976623744,-406.7573786390396,105.40592875008922,163.89012464740478,-67.20971734227055,-114.32315000662109,-262.9477085960851
1,536.4843865635814,547.951192876495,477.0593159531558,470.6714299065415,569.1170913838492,440.8808917340374,548.1904096081483,603.7765807372199,650.4512608470388,598.7864054937348,108.21219581614848,366.0118926688345,599.7228070152255,243.26021850129325,596.7462465777267,7.403969222026088,10.074933156403837,373.2540032792265,377.338547102066,188.27144378025605,748.8808653823027,268.52257058136433,280.7260516849798,340.86760846763826,238.4516311607175,157.474964092292,305.8989264953717,223.9751708941663,312.7233993962458,10.007058454593428,1209.3090802467605,49.00593294132953,2.7280389515689527,220.697992981603,87.39888089866824,201.88771483836499,-75.86220772106729,103.93834909302905,178.46207031788018,37.045699305157235,35.74774248992204,113.43342519761349,112.70107889363831,95.95726857595673,-101.8405492570196,50.245165137436906,19.259527982510534,82.18992509039347,30.00832386737374,29.672872817492102,5.003529227296714,273.8471649109512,374.97488542133186,216.51617562852863,209.97787960382243,328.9955854382653,202.53811827978132,237.57186151228507,124.99162847377728,72.17205854284288,69.99262653460747,109.66519514608844,67.51270609326043,79.19062050409502,-155.70593043971178,-196.95745585860067,-165.71154618022905,-70.37238940134876,-163.1121655765769,-102.19394135903394,-59.12566932515051,6.61798995393724,71.8558917015464,65.2857401482654,1.0268743671807525,1.0530939624792246,1.032642662256651,1.0040946423690458,1.005053967734901,1.0078393843664353,0.9954709035465003,0.9940555425551566,1.0360129146581452,1.022229387960151,1.0169630102131726,1.0187128596592576,1.020678860731685,1.0175808715128374,1.0301606843734472,1.045032625322228,1.0426688049618216,1.0371098664713212,1.0551504018464766,0.9921586894221264,1.0448966023516157,1.0631459894776978,1.055219278862281,1.0541569049629007,1.0603581356809337,1.059098974331055,1.044895721490213,1.0613534266920956,1.0630543867275208,-535.0560845150598,426.84388869891166,602.3398869555871,-224.0144870666024,277.78588982523877,-45.866380154472985,11.228431822912395,-334.30875366039254,-468.75200683665526,479.9789023020869,558.5654683799576,-488.7898389193762,313.38685332929407,194.35139801552407,185.73298361675685,374.96171100905485,102.09760494409997,192.07807032877145,-143.4859479785987,-307.15527080506746,221.12134547204326,-284.79969145617525,-400.0040726177911,-221.75435194541478,234.54135254778606,-13.734384211651273,-669.7075771035713,96.84668631729754,362.8817918131055,-546.8467193345604,135.4780533134596,320.9999735146373,-145.00934488682893,-198.5111629200157,-369.7967236744354
2,474.37616037083075,519.3129419251061,435.2212414034694,543.4650981555394,471.3672144224211,584.7939551243903,444.9985750937553,616.1191465080962,425.73037703953577,596.9259057007035,99.07756834489999,343.35226179484977,500.97257102538526,254.06159518799387,540.5227729011411,7.090722544665068,9.230938874048453,323.00173082882134,334.1077385424068,153.55541996599604,678.6262265573115,275.6227425558996,257.55914975351664,342.49719778370695,222.98428348754643,143.9647352638173,295.6691538354082,216.10867369535183,275.57542043688153,9.070741322715506,1167.8608154174076,44.86914468078462,2.559147292880868,184.35790613734179,91.2796150376026,182.86651665582667,-72.65263407302977,95.23125684833107,154.4352025525302,32.801458829543286,29.156092398606845,102.79191372853394,115.68107808003086,88.03840027938388,-102.3274194285735,46.98597402059014,17.60719783802082,79.44135627962036,28.954365990251024,26.14807340300569,4.535370661357753,264.4612353753188,236.03527786392377,111.58994503176903,336.65591334046655,277.56355381138474,183.96865820332636,236.35146902442085,78.67842595464126,37.19664834392301,112.21863778015552,92.52118460379491,61.32288606777545,78.78382300814027,-140.68717323241017,-160.22064999585135,-136.12871376871175,-50.3056253918312,-138.77965052820866,-98.27258282138416,-35.50008069705734,17.340381353739417,120.23112979761072,99.53953642843192,1.0307227480422174,1.0552845726297795,1.0401957443850118,1.0148201008657485,1.0131540637645982,1.0152221603286602,1.003557787256317,1.0025984812312048,1.039184128092549,1.0277516944885168,1.0227975138292258,1.019012059268557,1.0269130528124695,1.0268263292376572,1.0436260815017138,1.0529615157704242,1.0508914815113004,1.045510877447069,1.0584715287083268,0.9957756634456963,1.04957913505297,1.06504556058309,1.0585464606380761,1.0611131850841002,1.0631329191909793,1.0676468712281237,1.0541183383796455,1.0695642533168828,1.0696082191330403,-491.2641981549134,392.1866298100132,476.8325814771114,-220.72285076371887,238.79350920563235,-108.04138204316695,69.81157071484414,-332.8340051081009,-388.19245215916396,457.96551457796653,528.9607454060722,-446.8298922104024,273.2042552186577,188.6732009877872,180.50921345343588,381.89478520679194,53.32645619667786,88.67062309478094,-245.1263889513674,-232.54648179552902,370.1795860092527,-330.10562514408645,-410.2212873071078,-197.00560816436106,262.1767920717976,107.13762591784791,-687.0852492653836,171.8276923686911,358.20942497500414,-444.11775796478895,166.71918374997594,189.19806384854857,-57.65081633950434,-109.60082915793825,-273.8849659611554
3,407.0820099090961,420.99754328476854,311.53826732279174,328.2201347035845,360.2842620710159,431.2590467529767,431.58499596203364,412.46746873685044,423.00387522827293,473.2218909129911,87.9463742780108,263.4735640306275,424.843290888001,209.95399186732448,442.28180366968985,5.84019060980917,7.004859576928605,270.3122656553418,291.0541617747411,140.34287800017563,578.2638541791832,238.02313057860766,214.25242586590738,255.88798619333826,198.09009059192522,121.96024662797817,262.13016323224167,172.4568067663623,224.34370153896663,8.9126502361957,956.5424548727368,39.828173597213905,1.9637781169984656,156.34233104678435,75.43257192838006,149.63020407675714,-59.8394914789678,72.26584323208878,129.2430520164603,28.574618314055126,26.647381898767527,87.58996614772921,99.90021903846672,73.23537465961925,-76.45130371686905,41.740411946155675,14.916001386155603,70.42999047699021,23.105863430833008,21.286933232445158,4.45632511809785,216.60834575922482,338.28378521615525,276.1933425090014,145.02927596280057,136.56536156945998,215.48688797360592,297.0935469900219,112.76126173871842,92.06444750300047,48.34309198760019,45.52178718981999,71.82896265786863,99.03118233000728,-61.508932896383996,-84.84375939925651,-50.21212929224984,-9.494188401305166,-106.09316333876691,-62.74242966874664,-13.168478546737163,64.04459941877474,160.76999392238196,177.01554202369056,1.0400249180751602,1.0678728791736574,1.0555725590323,1.034189606478539,1.0318636428555297,1.0332872798984838,1.0239100714355698,1.0229741964346373,1.0462284178015517,1.0442678147677524,1.0410507546639751,1.0538776693786942,1.0447986524820996,1.0439351975168296,1.053214674560851,1.0631163002324309,1.0629128139702264,1.0591567378330142,1.0642644084408897,1.0011719585074443,1.0589526488922276,1.0685705767916331,1.06393739721998,1.0705633226984028,1.0698426554943936,1.0764629213267447,1.0650893913091233,1.0771000547875749,1.075926044576373,-417.2672429916024,329.3208687135916,459.9177161063761,-123.53774241428222,197.76859781621832,-3.778587067949721,17.121738181206144,-244.7636501720235,-357.97626716119254,375.0934591569097,441.3689906975311,-403.1382116172169,230.27984712213453,161.80278981427585,155.27612098764635,260.23117057801227,51.307096744778804,175.69644529561063,-69.79651416191454,-195.18433887467427,122.97624715521093,-107.74228501296133,-277.9548588125793,-223.89358792118625,144.2669011323504,-21.384592476060075,-516.5454913190556,49.370284857315255,265.85360419562437,-430.76095243406616,88.54484744551576,284.5450172249579,-138.5571328461123,-179.6468559386968,-311.7348391204634
4,439.04100338050716,463.6267176247136,499.77600413537897,512.1155737367848,496.5250895673134,516.9002307889109,473.68392993482587,499.5888113483091,358.42199421269385,504.99616606128353,98.10698154592647,311.2002004720446,434.21196000183414,204.50402708635693,477.9841068103853,6.747542218642791,7.736793887821542,291.8988789183755,315.1237361049494,140.94093763190014,701.3719747083251,266.83656034848275,217.3448866294416,266.9724019987045,211.47942005364362,129.44609884702126,275.84023380714984,180.25037477029574,265.8908886277252,8.972985838322922,1062.559593024412,44.42959615092162,2.319504599791637,159.79000128067497,73.47450074958931,161.70879935385832,-69.13635565563229,79.81686543121873,139.56415148284827,30.937679866838494,26.760937525044334,106.23722558081982,111.99344686158948,74.2924339751546,-79.76297946947686,44.5617349398749,15.831537269060155,74.11365712612034,24.15005021194254,25.229153100831773,4.486492919161461,240.61584986965852,173.76324545288108,124.10006124340129,213.86038954305405,245.74015197224543,204.35530494172,189.89941756029037,57.92108181762703,41.36668708113376,71.28679651435135,81.91338399074847,68.11843498057333,63.29980585343012,-111.11827763216732,-124.10410807086623,-112.20338724586279,-44.78966674306753,-140.49445850717711,-85.98431658355639,-31.08157976878033,33.49151540188154,125.49919415233018,132.63789762917037,1.035001333601393,1.0596837736493674,1.0469566443743556,1.0240949677757805,1.0219936888424506,1.0236352324444231,1.0138368521566943,1.012699178207763,1.0421381737739637,1.0343131309151112,1.0302558250055154,1.0306189732375661,1.0338343538490407,1.0335968412975733,1.0452027740648395,1.0550521375094315,1.054529506371504,1.0505245357929476,1.0591863224478275,0.9956308910793223,1.0516190478907654,1.0660726949619237,1.0603500545574511,1.0626370285406206,1.0642695945493246,1.0711033893518942,1.0583456643564069,1.072152671917799,1.070358567935306,-441.56500066575376,343.4580191198278,334.783445529985,-145.33404440143946,135.573741216332,-113.3413425556301,22.336621297993318,-321.32547086170723,-400.58242386557305,422.913420047867,486.3807608029087,-457.9807251724028,280.4782386427233,223.7000139576918,215.659463983836,388.5001779175722,111.27582621780735,156.00234079510733,-166.3351055175983,-244.86513627757878,422.3596502326642,-301.45779201879,-396.7311013531985,-284.71128259490007,254.82969191178515,166.40568552889317,-664.7248035697781,94.70573932265977,349.9836890009417,-472.6879364142032,139.78433413139118,110.00347486531518,-28.412911796294374,-71.83599526437425,-208.69354958107985
5,670.1935910890594,747.7472093679434,639.1227999842278,556.1154987707225,708.304174382613,684.4842632604405,588.0596217620159,582.4559371900316,600.6989227974198,704.3938237443499,123.08729737806644,345.9416809181784,569.0646093985424,269.6804378607924,623.3201952998681,7.718502689395303,10.290045586135092,379.6406087227603,397.65242826535973,181.28318879864074,857.2664630154384,341.5667796676651,287.2111880810338,368.92439919744595,263.6253797837317,172.2194058176784,308.8824632027355,246.195842825505,342.00301903934354,10.968214317923286,1343.7696899670163,55.742403115886646,2.578447311191392,209.4157762586636,96.8911752793266,210.87805840987875,-79.08496601749648,106.15756290502793,181.5156660455698,39.04004082969945,34.42085863265331,129.85065542733844,143.35831993350908,98.17400610769884,-110.22303825665755,55.54963359728632,21.062805028061387,82.99155150109085,32.98546243681524,32.4510801134333,5.484107158961643,304.29567254687873,185.43462931445933,190.10577295058354,221.3043781413655,111.5839680859224,155.14255614843435,160.9025703945446,61.811543104819776,63.368590983527845,73.76812604712183,37.19465602864079,51.71418538281145,53.63419013151486,-209.36181504484767,-249.0733595399543,-219.17400494524009,-110.12746050953649,-206.37865511991106,-204.8908889391646,-101.82469257006483,-29.743486380174545,44.33655783394488,32.23820889891613,1.0239507925896192,1.047518641291145,1.0268388629753114,0.9971301991060519,0.9964238330979617,0.9992825489103603,0.9856026739434471,0.9842707469860699,1.0313399488481094,1.0148873301628765,1.0089554854148977,1.0083071659060447,1.0128856525308234,1.0096859635082107,1.0210807214309416,1.0350486525477771,1.0342836427007336,1.029818377488568,1.0494070282640349,0.9860142296009295,1.0313475188990735,1.0513727602927527,1.045597490951862,1.0436236332912052,1.0514712662277643,1.052752769206632,1.0378857952670524,1.0564941144031967,1.0584460623345842,-529.9042297807266,406.8169324026605,508.69643366455506,-114.84990412791987,172.2828562825636,-12.756414339599448,-47.298492736096705,-350.0755959796351,-569.4558624044474,522.1387733726369,620.2290410997389,-528.6466054534989,348.14232364353774,244.20545055286124,234.65950394157454,431.06437134650014,208.05842863772568,287.09528494358545,-64.72727084730407,-223.17691145873613,308.1731919739862,-397.5641432126599,-367.1859740741928,-164.82464206587153,194.30444547402521,113.24736687489022,-709.785390908141,82.45171950222115,381.670466608607,-586.4853279558195,201.06969961323117,196.39100295511233,-54.79195722811081,-113.92838450106989,-301.1045633595154
6,356.5085790787077,335.3902388982086,303.7329892015964,314.4703888812858,332.4045351299053,323.1246835147979,405.8669376487146,289.95730803811995,405.0099146101787,398.6956626745982,72.87137018250552,250.07244999211915,364.7998014724111,187.72394150786243,403.21096454951413,5.4369945975320775,6.758604260473724,250.82972852066442,266.80625894141383,118.09046689405815,535.6301489349745,219.58457871299984,211.77273357683922,247.7517068832926,179.00470897285672,118.96359365587992,220.2928972388843,148.87375965527576,223.72385177304773,7.042667777741881,876.6104684685329,33.001173791667455,1.8638940372083415,134.2463269418473,67.44572748785477,136.41198532460572,-55.708283107020975,69.7253428982049,119.92796394894268,26.194049130114486,22.422240549504714,81.13221373573877,92.1614107737043,72.3877707499014,-74.02043867349182,37.718849390709096,14.549504260071645,59.18901687379277,19.946193041192288,21.228118563298004,3.5213338888709407,198.5078053597221,253.097388066818,257.11650580970496,286.0918220449177,307.0740516838401,187.296183926948,189.8129294506882,84.36579602227266,85.70550193656831,95.36394068163924,102.35801722794669,62.43206130898267,63.27097648356273,-32.88268000931231,-54.305387012820006,-21.91706277736847,15.19785698001536,-89.61848008327851,-1.9322133114385451,13.236282940752801,77.6537546574112,154.1671841817286,206.29405540449415,1.0446092966141924,1.071976448484935,1.0636593901129543,1.043818729487825,1.039322541787123,1.0402190884518314,1.0316900388055619,1.0306817390706202,1.048342847955843,1.0502998023240295,1.0473564634815,1.059772071364142,1.0517036421776191,1.0530684810277993,1.0666754168882544,1.072087618478005,1.0716239728394004,1.0678805088568466,1.0680381102998342,1.0040752392067327,1.0678032267893793,1.0763117929787298,1.070128601923656,1.0784351530838638,1.071556432947957,1.0821929360607387,1.0737833265067476,1.0787881047669263,1.0748683142669715,-368.95337886612265,296.08200868361723,278.57746025885024,-63.41499215073972,112.503005121308,-84.8941030388251,25.714154817501807,-278.25642253181474,-336.921190921236,362.62144939908137,419.82791343757486,-411.2294228403275,231.09424004844155,189.3025651792404,183.0220719689179,275.85703648926454,27.87595271233339,141.00131260365242,-138.01155733404835,-103.10398149376189,278.00604051987364,-109.0353009715362,-319.9077022445102,-219.07805789202345,203.32000985664334,74.21425726491314,-540.2289601333623,87.92022713933783,281.22424257192546,-405.13808061025986,46.58051420995223,146.4301702835551,-91.60332748074421,-127.31397520992233,-240.7968765448469
7,484.2879687458091,521.205386651412,493.9781407835164,501.86535842580116,435.2441309474393,399.99154665588827,588.1601170254969,441.63191718146754,497.4239062753239,593.8405349837118,91.03680452962381,291.47314696101586,487.8430232165308,228.42306300263402,490.1984480136005,5.876442579455414,7.816524030257098,309.06805355693444,310.76608769400093,145.9123024004282,638.7392241150368,248.93923540236023,246.12871917206684,325.9753352601289,202.41160447074452,123.14594367463775,287.24729799469986,205.5085344846086,262.5094306951492,8.349792609877435,1068.1643878430957,41.22773319886652,2.172470660579,179.52623254368334,82.06816634825175,165.841084136402,-60.21093473718932,80.6394038291471,147.7731631069093,30.509862104912553,27.704867544385102,96.75020600565998,104.48179588055265,84.13127128063377,-97.39120515548893,42.65101665633545,15.061014694020445,77.178544479003,27.53415316395727,24.908302242326325,4.174896304938717,241.88505159490393,234.82280305164372,139.42650197375494,162.06132782773545,169.31444475421694,232.5123477190595,132.39976747047052,78.27426768388123,46.47550065791831,54.02044260924515,56.43814825140564,77.50411590635316,44.133255823490174,-102.49897238059506,-136.00758683715824,-117.5871568212155,-39.37056164732212,-128.18350462586108,-89.95474893399,-50.825557965518556,34.61835272121459,94.13585933481988,147.91655223717157,1.0378237336503155,1.062036254211289,1.0467643583743056,1.0213297804630783,1.0199390885717665,1.021747955595016,1.0114404818901854,1.0105265786712212,1.0411204302094867,1.0330170121985633,1.0288634221038602,1.0301387228379957,1.0323746172708215,1.0315784115300575,1.0427689878691173,1.05513381351936,1.0542727784691193,1.0503193289018173,1.0599761795000562,0.997480139826865,1.0520863012056099,1.0645376249937961,1.0585438363924513,1.0638047117290308,1.0634989898261995,1.068424099403641,1.056355426770667,1.0670936272486748,1.0657282763194873,-409.5616127094878,318.5248081798642,430.29398170863027,-89.27909446401503,178.38775653595903,-41.7794482575441,-14.798291101710706,-295.19702137137756,-418.2063809219047,403.4052992440533,481.79202594494524,-430.226893442834,251.98503125130824,163.65909018491396,156.9945677069477,355.8250063842585,138.15313439925865,193.3976793511529,-102.80942011114733,-250.027200959165,293.6481668792413,-293.2453270566824,-329.971978287457,-231.84314080077613,187.94591280334802,105.15952349457626,-579.7116617921683,-12.845900016857936,327.62025071991246,-586.6197098947463,148.1415706085229,182.69517269412736,-54.397492613293,-103.94460398334569,-260.0202566090134
8,569.3087195264193,546.6859882174537,698.9851586639531,549.1800494748502,648.2264928319969,702.3565581729702,588.3285385441932,685.6013716518235,667.7795704401968,606.3096328536334,101.73753539438636,350.9908674284836,548.0421631555665,244.61885737992975,586.3308532322092,7.7053962671679415,9.653095740742181,365.05853065104156,390.21883348885154,185.05383102223982,792.0478702924536,308.64544328022583,278.7367234859484,339.4527137581698,223.11783010586524,155.56755436636362,345.73301355189443,232.9871966509572,321.54648547694984,10.44409936936861,1240.9458664466822,46.07376090606431,2.6160809994669587,201.6795160412485,87.88701462751968,198.3640396184064,-78.95067559898229,99.58645078374116,174.54360996752925,38.310238059847734,35.13680335865313,119.97195682370987,129.5409707198028,95.27728002792419,-101.41782309949208,47.014114200878744,19.026247656317853,92.89267801839158,31.215760327992328,30.510054530264377,5.222049684684305,281.0112922207161,163.09462695524925,100.54800256827444,86.42409308121957,167.07814659464253,154.7361090887971,157.8479051329923,54.36487565174975,33.51600085609148,28.808031027073188,55.692715531547506,51.578703029599026,52.6159683776641,-208.64455787776316,-230.78755224495663,-236.85687571083554,-114.35910634793231,-194.79581839602577,-209.06992420282506,-105.89897138620313,-23.40706726647818,33.85455502431137,40.58759083666348,1.0247640651439152,1.0437585843267265,1.0237390221258316,0.9959875248423882,0.9972139200239066,1.000033758973352,0.9877991544493817,0.9865772111568877,1.0324661677902887,1.0129498666772336,1.0075124473972885,1.0009276404333793,1.0102662345188451,1.0066462880202167,1.0137079284754786,1.0308408744670463,1.0303273647733455,1.0260660851511716,1.0487297366741508,0.9873147415538198,1.0294738858696177,1.0510215379969987,1.0445722002106592,1.03927056850575,1.0556385040532585,1.0513385772469839,1.034049422589569,1.0551874010511115,1.0572581021785037,-511.688099240216,409.9505638458303,480.92354687976524,-291.63360613421787,186.04079534826377,-59.01954846710889,-23.90052540809443,-338.7250697784593,-516.9519444904744,493.0462944032209,578.6244760338809,-525.3393673192769,331.92370153248345,236.18893345535,226.77195277464,471.1048553303991,227.88030333355337,261.387910759268,-78.8908200014089,-357.64744099255137,321.80265113218195,-396.55995810877135,-447.7135629774972,-226.70034935011068,244.513945082281,76.60505344085196,-757.8868136191711,107.16578901122915,415.0932823727566,-586.7491058216543,162.08612697989344,270.26729556341036,-104.36744093114338,-160.13579285507686,-337.7788077729849
9,497.17952277124255,423.22874247724667,416.05748838796336,531.8535411087024,477.04971091170665,532.0228711457446,512.2041770961804,525.1553169342295,580.5604137871975,502.62687811043685,88.43565295300033,277.01554886835254,433.9211973574439,217.1943322095149,506.0192297464958,5.898194985913727,7.559777211483638,271.4486316887571,326.06641764468714,145.63370269311662,653.458603091975,275.31087941745807,242.67378004233828,289.57733263410995,202.68979437260813,132.28355299497224,260.9441964670663,180.5715949006671,247.5781596328287,8.285355966387415,1018.494769658379,40.049752669289084,2.064712165478404,159.68300062753934,78.03389181180177,171.19347887592176,-60.43381324028526,77.99066759795548,129.78637702618698,32.01199176268509,27.651968865781637,98.97975899775503,115.55018661681633,82.95031026901745,-86.51662368394342,42.70963524279957,16.178564035356317,70.11134104364238,24.193087472128216,23.491543189146707,4.142677983193708,230.6374025494518,174.78653252039567,80.7299999776259,202.55297535093567,169.9024105656089,125.68012298899885,82.44943934933859,58.26217750679855,26.909999992541962,67.51765845031188,56.63413685520297,41.89337432966628,27.48314644977953,-121.74391672300516,-140.6831498881499,-114.32111646548123,-50.70155963482699,-136.88279461036313,-112.8800677300568,-49.312731502710676,33.69205662807258,75.00618456595953,129.92352969253727,1.0351568070650443,1.0572828533684249,1.0442273572562533,1.021492408899702,1.019385558240924,1.021130523181586,1.0107645330100672,1.0096100761564328,1.0404532682327654,1.0321002092244043,1.0278378871177825,1.0252499391864398,1.0313613712187373,1.0311733387382047,1.042628226962143,1.0518664608849733,1.0516882806889751,1.0476850093184855,1.0583618043979188,0.9961512395204817,1.0482457260830673,1.062470328545212,1.056702280552324,1.0583366604469608,1.0648239999411275,1.0672915861749246,1.0552140977350581,1.0652226729197511,1.0631134661371717,-430.63112087135363,342.1954679183536,377.48904689145024,-216.17061335416238,190.70866072222222,-91.94669347607525,38.596670769019084,-282.36982131813517,-383.20253152449953,421.78617147085527,486.4256610661584,-381.26048641397745,267.8193837995521,181.89990789578704,175.06737105963938,334.0253095776519,82.03217881031313,106.4463566727975,-176.65372648045224,-246.10049800845997,301.4093438168867,-349.28242729878997,-350.3921451432538,-174.45151830747508,238.03486340168763,62.79768582516189,-626.6139434140083,72.4371353086326,340.7504932896321,-511.0338520388957,101.32767475674407,198.7484229968375,-93.31547420018151,-136.68643415800406,-274.2242622563058
10,547.5707005313307,577.2630179603865,504.6632918067814,581.9574920212917,465.24625108283124,422.7474552403192,573.4321416637227,497.4214480467106,515.1073650592828,530.8155347507893,93.1112550456237,309.31007420675894,458.95343745651513,211.91490494725247,492.95655404233986,6.02899298623349,8.20623705470964,308.8558699843025,304.9643767991297,137.7366381909773,646.6810066004813,275.5036162125692,249.86737646283254,304.09262093422194,195.48420231022837,138.46256290128125,260.9185960525743,189.3871506673442,253.43166413607392,8.6013213796594,1051.458079648308,42.1671872235304,2.3054167021621783,168.89486498399756,76.13709159781526,166.7741905055119,-61.773989674330835,84.65988989618387,147.67171283624464,29.94027164319723,26.152526238793158,97.95315247036702,115.6310797972462,85.40921231820458,-90.853336520205,41.191314058226695,16.934270282890513,70.10446264046035,25.374200769022817,24.046955080283556,4.3006606898297,238.1019202102147,181.3969864069054,92.36719641371769,71.30877042625296,168.35734637462411,74.10265530487125,147.02546002426578,60.46566213563513,30.78906547123923,23.76959014208432,56.119115458208036,24.700885101623747,49.00848667475526,-137.91012816555826,-157.982006700012,-138.7920625756767,-68.81565037680241,-143.1672794425965,-122.19230728943103,-67.63317775731423,23.569448653312293,90.70966416639271,122.56105369574789,1.0343302558469962,1.0567127463871788,1.0409617836137852,1.0169076801865744,1.0163064419331513,1.0182151433632782,1.008278786932924,1.0072466561082043,1.039611866707112,1.0286762462645034,1.0245187975311574,1.0209082922491888,1.0272280722020406,1.025602070913634,1.0319035704923154,1.0457783077504383,1.0471584959934823,1.0438178770835473,1.0558342176193016,0.994951332706452,1.044340449231903,1.0602133425917104,1.0538168728682948,1.0520241233784546,1.0619388032082044,1.06512662526202,1.0518635657052533,1.066164456100662,1.0652589403605945,-437.14830806011366,344.03705301448974,467.5501664546786,-152.30011514362042,178.70892941342754,-23.09701100895178,-26.11915692114894,-254.65267928657073,-435.0395797455575,408.91482301351476,484.001965284514,-383.73843377887215,270.6858629820054,185.03099913591333,178.02041341864134,335.2177649172727,169.44552688950833,203.44755388468568,-52.07827962247898,-289.68266377697614,200.3084983247296,-393.51957719453304,-302.61645732907186,-99.65294509254687,161.01448848298207,39.03131919631448,-578.798815749696,9.818255949433526,331.88273731591556,-571.9585498263427,146.53804194548152,222.60338663130986,-84.86653851354893,-130.28423262554873,-274.5284749452541
11,459.4918944030584,505.5289035702799,367.7770585391759,485.5179821853712,357.7690928335251,484.3217097382089,414.83552727268676,510.86575613622546,450.3803594512961,544.3055909605823,96.04016964969155,327.92153990814114,466.7964772228957,245.9008847914541,518.8652871876238,6.898892156088631,9.46739351727133,295.6677261745533,291.0415401869504,146.6801361427836,638.686637864417,267.0915793754844,248.28555681710156,309.38586157206396,225.89006244741992,132.63265481284998,279.3307290875207,190.05263113041804,255.49503900600385,9.546951880479366,1099.062226985143,43.493601419225065,2.4441357011786917,171.7811036180256,88.34762327836674,175.53948221711565,-70.68711039930812,97.67064824383084,141.3661315772083,28.573379173369293,27.850658761288027,96.7422407353455,112.1004803948201,84.86851760293655,-92.43479078724658,47.59826315856348,16.221259941139927,75.05149482600646,25.463362229123973,24.242739150834225,4.773475940239683,248.88184487888205,133.17427971217364,435.6786888056412,209.83539542241417,261.95423963985354,192.9021355696868,285.7935939463812,44.39142657072455,145.2262296018804,69.94513180747138,87.31807987995117,64.30071185656226,95.26453131546039,-126.86089854696,-126.61749482001761,-83.41217622502069,-31.168842099235235,-121.73703730320983,-69.21697926512206,-19.58755615410041,34.17137834277639,141.1934132754286,127.79531691170519,1.0341852692747362,1.0575100046928394,1.0464525267436449,1.0241738862387022,1.02171953122454,1.0237056070521056,1.0120616880802755,1.010901138865538,1.0417529776195296,1.03793416789158,1.0337059336045307,1.0516277447758566,1.0382624810641778,1.036177542804528,1.048208477322276,1.058165722597252,1.0565520959079622,1.0515690478122177,1.0611735148547918,0.9983558948840129,1.0547289181690038,1.068111462231532,1.0619437627005988,1.0661053055756526,1.0646465286742097,1.0713760372171242,1.0590962989290083,1.0732418289669132,1.0729293718999529,-443.1542000752122,347.1140304255204,385.94469918700736,-196.83116255678277,128.368897364019,-72.11131644833048,-5.218118708820212,-333.5312740434194,-456.9407413594897,451.7193743611309,534.0182838524202,-538.6010633415922,286.4190295424699,217.34328216195556,209.19444607630257,316.10432335009784,51.672735189079056,251.66458051717706,-83.2792225416538,-169.26959478251734,262.8648466516806,-200.54583211499823,-335.95689785124154,-186.9799238010816,219.1704915799926,43.262373076553,-603.875560538552,139.76415998750588,305.4297278590398,-414.07321586736674,83.8776087563808,236.8387471603453,-120.21113486469625,-165.6057250609035,-310.80864445495814
12,737.769200839218,669.2761608334188,651.6938863115207,569.1292650584697,717.568601601286,690.3959722615143,694.7363060098813,709.7146324253594,537.8218513580872,571.4876068710026,124.78085009175776,361.09117395967564,589.4547175557315,268.70013633744713,649.3263819646304,7.919856471277692,9.462579123272576,365.92453401369977,394.6844560491795,196.2971908500086,791.4607684645804,316.4809922937942,325.00812694772145,362.2625587760875,274.8273198844155,162.76984684049447,330.0206864156152,226.32952377671157,324.0244652119418,10.585552172793488,1205.2393518838987,56.50936038991488,2.6913627872770856,216.91933606050918,96.53897113920256,219.67632002864698,-81.14806784416834,97.62098040421886,174.9576678253002,38.748656323369296,37.27161851582442,119.8830281644879,132.82961355396472,111.09368702940299,-108.23268930380839,57.91004240421612,19.907103570420187,88.67103852092153,30.323761438044855,30.745178533337686,5.292776086396744,272.9255778722597,95.39533046830542,202.60939756968833,107.43445885660138,170.73215523641883,124.71670274145701,102.49233134566141,31.798443489435137,67.53646585656277,35.81148628553379,56.91071841213961,41.57223424715234,34.1641104485538,-237.87066011491834,-286.9941914512003,-244.28457229899993,-130.84007810870946,-210.52006947050427,-234.76810623435563,-141.51904470686782,-55.361178643217045,30.578891861103102,13.683439369105827,1.0220604869752354,1.0408547655722085,1.0193545920521985,0.989291331935193,0.9897987481335173,0.9930519149105803,0.97886779581633,0.9773784144565291,1.028448172457795,1.009858562689154,1.0036718222411642,1.0055379107203353,1.0072058474776435,1.00188881764458,1.0094404250968088,1.0259375802275792,1.0256052353453424,1.0213001174564467,1.0463119599526949,0.9854026651797673,1.024583711592675,1.0472927230980082,1.0393258772664031,1.033846975917327,1.0490136243759856,1.0482620925451966,1.030857787354341,1.0543063902462293,1.055977577214647,-512.867064639301,388.08621454754376,444.38158990102266,-201.47097294892666,133.11649995786956,-52.378247302900434,-84.5659494141698,-372.2301308739934,-622.8779710057281,538.2535376706553,643.091944248999,-530.0419724130501,371.77235951594247,257.69391379904874,247.6967449834071,426.83909203207514,224.854794279447,311.49136830596063,-62.77434342509007,-321.35044348329336,431.1838296978967,-484.2819316586035,-462.9188709847976,-201.1083472369306,249.1267845902442,180.8173184081464,-781.0489237515022,75.37886856493299,442.8169784910039,-692.514478763451,227.6163578578937,150.07352066304438,-16.19784546324883,-70.5402307218897,-242.5431299377196
13,520.0035329239311,462.83994191401393,380.25978464307855,441.33974308282393,525.3672525730062,537.5594105031358,521.5871903000291,458.2400378415657,445.94975816665834,463.3963971126032,89.72012698466439,307.79699582305204,475.77272582558385,223.3053735657924,483.1706798056119,6.046656753756515,8.181305997629496,319.5780593282998,308.9786576535153,136.86242020764277,643.0624658227606,266.21027470491236,235.4594594435208,270.65070024851633,208.12619454994245,115.973662211351,267.0103708029723,192.49881085824993,274.57629971785536,7.915856227883092,1043.1626891189685,40.63145095002219,2.2941390993022512,175.08436310381487,80.22947553262003,163.46349052427405,-61.95497535387444,84.40268790051532,152.79825961634333,30.334378851697704,25.986535482463818,97.40504997021226,111.73058974841211,80.48432431887622,-80.86193960762543,43.855162423023586,14.18382919131631,71.74122062499791,25.791102814017954,26.05327147234677,3.957928113941546,236.2234350359983,172.85544580884738,289.1812461190969,211.3475191563466,213.19015400218157,167.93855437170154,113.90739065979697,57.61848193628246,96.39374870636563,70.44917305211553,71.06338466739385,55.97951812390051,37.969130219932325,-110.50791218244697,-137.19704049380067,-94.68805131207787,-43.54070835845641,-136.74898847160625,-104.82948229005956,-46.7251374764013,32.51237464461883,95.41533187289065,124.82775934777987,1.0357270328131472,1.059780568447766,1.046103986218699,1.0224092644273721,1.020953255555741,1.0229178730577655,1.0122162099624836,1.0110490917710067,1.040052086822262,1.0357026377420415,1.0316650943292103,1.0427539002367054,1.0354138664255959,1.0330792709551275,1.0423529562206686,1.0526501545171318,1.0526606187180574,1.0490939592128754,1.0591709987793163,0.9965152611152643,1.0491408400344417,1.0636463530073186,1.0576161294186683,1.0595139827007942,1.0632908957486493,1.06903495544395,1.0566022231217402,1.0678250422541447,1.065779506459929,-438.29509991331486,348.57497292865037,312.7471841755023,-121.62023581398321,118.32651403712268,-114.57435705050096,-22.46991339238117,-335.28738455436155,-458.52806404169667,436.05297972704835,514.171437095561,-461.1568570138601,289.296247904876,240.3556677326846,232.84443398015074,311.23641289468816,69.0233717483877,197.6637013248421,-138.83749516837793,-247.40909594928124,420.5718457389437,-318.10747559381804,-402.05785342911975,-257.3655321229256,251.97605248719933,167.47410944734543,-669.4622932041053,78.01672398982068,362.87957567966185,-520.375090157027,126.17119443556439,100.08308063347755,-21.9282456810487,-68.43174942118775,-214.44602360809984
14,480.09551323742176,468.75261729119546,430.4509057632966,548.7263181054225,577.6948536292753,551.7781274630477,603.4296743419783,505.25230958880815,630.7470694154388,646.5702553478566,88.41608142577905,312.06670943188306,470.7957145947897,222.42986150037072,536.41669240772,7.0640284383470835,8.333097533132332,315.35288374577067,322.3894705678547,162.74769245897542,615.8137298101677,250.02674111763054,234.35171141446565,309.73197964234856,199.6349484654902,129.9010083216825,260.36858811887316,220.1084345077047,269.10402578515385,8.684554921124391,1107.7344091358855,40.040889334215514,2.325963051666209,173.2528229708826,79.91492029953439,181.47737141609838,-72.37912215291011,85.96864981426089,150.77809754094662,31.651002733561416,30.901460593476347,93.27766789771657,104.93823076104931,80.1056759016719,-92.53820000980083,42.065935569514004,15.887173679630234,69.95668470809582,29.490256273847816,25.534032781730648,4.342277460562196,250.8456542427277,164.40249079433406,118.7515260820278,80.60535355477381,80.60799055259254,90.2554245271922,120.16292722979841,54.800830264778014,39.5838420273426,26.868451184924602,26.869330184197512,30.085141509064066,40.054309076599466,-142.00061687255055,-157.31520830939854,-138.4517947712584,-78.01538232895473,-153.59338672112756,-158.9558629540942,-83.9050780064216,23.49532844210671,60.12710351612543,133.89312827793196,1.03473881182295,1.0543138326548231,1.0375693151948278,1.0137225560459864,1.0139314322174475,1.0160903031964923,1.0055439892615745,1.0044363505927973,1.0406486399444712,1.027153617420259,1.0228836397563277,1.020914258363506,1.0254986771713783,1.0227702399117122,1.0278273688581299,1.041791678602267,1.0430192998942782,1.0394925358409421,1.0542695345842363,0.9939469553947123,1.0406841042410144,1.056248294550554,1.050642205420562,1.0482718803663835,1.0620733575680699,1.0622580634096572,1.048413689041605,1.0612164396364838,1.0610934827039566,-413.3679915213605,324.9519100955812,424.7175633941854,-210.5274339990376,213.35831178236594,-102.91681110736788,28.571012594647897,-286.6975972726472,-390.81619016719753,419.38075856798815,487.7680200125337,-405.8557412069085,263.9029316920146,145.18945930607168,137.39164118387234,340.2325872933134,90.21831846998415,133.27450708960274,-154.23552613346686,-389.39367242837903,311.90887408497076,-501.585637738068,-373.9826115444967,-149.51693128255718,266.2331028016206,45.040471211140044,-625.0518058469429,4.425794632462762,371.8428478681962,-601.7891479877583,90.45053656326357,216.03073584115853,-101.40529099600353,-154.31000026564624,-321.9127889687099
15,650.0990025560767,451.09147630321854,536.7296989373958,453.2707415455303,605.1230778929921,449.0456553464796,429.19870513796013,448.35204273508515,484.59789257758456,548.6013907041792,96.14597179896323,306.33945901306754,461.5725271452693,231.4475181783692,483.20541134110874,6.628036021385286,8.085896418879688,330.79268197542416,302.7158006281673,145.43036427826175,656.0358720485896,263.6836059589945,240.94149442717412,295.13362944791544,213.10968655295218,147.30901840884786,260.6699777930079,190.94846584836506,270.16408689291234,9.128510827234882,1020.913629741666,43.541515917153426,2.2832754709048513,169.8586899894591,83.15479695031229,163.4752406950954,-67.91187677296308,83.41839212912224,158.16025106949968,29.719514772917336,27.61336030599907,99.37013944265401,110.67012658862909,82.35818354965225,-88.17667088495725,44.90525538080064,18.01621088453535,70.03766307249856,25.583386686479983,25.634617063207553,4.564255413617441,231.18515166251495,178.86044559773663,179.87053396841043,99.33008705125414,212.66164688246872,113.40560263210374,143.6433216249918,59.620148532578874,59.95684465613681,33.11002901708471,70.88721562748957,37.80186754403458,47.881107208330604,-105.65564818375474,-168.57260646774012,-130.207163223899,-54.061825293558115,-149.9761995972799,-95.30664581815881,-35.65151986332626,29.3417848670249,96.0307081877952,149.19839268610133,1.0383338131782864,1.0604773773026082,1.0450841497322354,1.0195426327722374,1.01771463892573,1.0195257101631687,1.009182858840716,1.0083690529745197,1.040594673201688,1.0312983433289773,1.0271601557786272,1.0306078604825215,1.0303512145046498,1.0285388270060971,1.0358032054116562,1.0498411404432437,1.0507830615932856,1.0475361840809378,1.0575931652406065,0.9948693995557566,1.04892330024443,1.0641729642130402,1.0581556122051277,1.0569468857396134,1.062391441481728,1.0671718446040417,1.0548340906403282,1.067365550758133,1.065981154578419,-373.7641902429511,277.6182184439873,346.99868702906576,-95.34622687626212,61.40795202195951,-22.226265685800286,-117.5548374356499,-282.83138076923285,-529.0658780457371,411.400691010038,510.0007231640109,-406.22162611707654,277.00218299890804,203.55654189316581,195.78792081095736,317.4361809776848,219.2935179597086,300.3524453321524,16.12221853931387,-215.3665233182529,275.59196853848454,-395.18708629985423,-291.28283531904896,-107.74026205842732,167.84834234337993,107.25566100222106,-555.5886751555618,103.844973539118,291.2057515080448,-428.37888906841204,137.99637235902205,153.92445823956794,-58.93190769509471,-104.86512551222035,-250.0127064704216
16,711.8250455967692,765.1414438958477,719.4133863262754,670.5962511914743,597.1168988342607,662.3931408809613,589.1000954563934,775.4547999758123,813.4220919940559,829.6607477864563,122.60492489363901,447.2210823793133,583.0243999945324,280.5229630337652,668.3540458059283,7.927254196265508,10.436876683497028,389.52453919448334,400.8218923211538,197.49381915546465,874.4916813549349,359.6104034898762,313.58489749156297,431.7718246219654,267.6120026390667,173.2385408899559,378.5500091671872,268.4531251000273,383.892428386056,10.513869879002751,1298.1846995650044,55.52395164240619,3.333324837609789,214.5529791979879,100.78669330554439,226.11364844698645,-81.22386607250505,107.67235031040312,186.24142030236234,39.351207057669505,37.49882642192367,132.45976938170338,150.93137372750277,107.18901950620699,-128.9998776090253,56.38967198466048,21.187447446973025,101.7100558438528,35.967506081362885,36.42577186449702,5.256934939501376,293.9729845029448,101.62700877958699,133.89804127205514,98.10209866004338,237.86170735917258,102.00466304091599,121.56728009746023,33.87566959319566,44.632680424018375,32.70069955334779,79.28723578639085,34.00155434697199,40.52242669915341,-272.54608992280066,-288.6631849918631,-271.0996947455186,-145.0065479815944,-210.545249399034,-218.54599845570192,-117.54777031518302,-74.23689688802756,-32.84903592157343,43.71347827525392,1.0235311470809783,1.0368399901246574,1.0140150067689744,0.9861076177201598,0.987812695700055,0.9910715345938458,0.977258281980442,0.9761145350351977,1.03027464946783,1.0062694916839212,1.0001601067963322,0.9942850136196586,1.0030696444260419,0.9983963245735947,1.0062909347297804,1.0243574407651161,1.02192104565663,1.01703973513254,1.0447748316322754,0.9839241710079286,1.023728977489214,1.0491968066405373,1.0416410803434824,1.0335237017964125,1.0467871007679812,1.0397395444689752,1.0225742962294235,1.0442852846475346,1.0482022940690405,-455.6840820761905,333.07915718255134,658.8034333828684,-254.7299268921563,165.5787483686562,40.55018105962314,-102.74836691274173,-315.2427540346676,-596.4021430186629,493.56662313316093,605.8115109353944,-494.6225738053734,322.94925473987115,145.6729607592436,136.68657082726847,428.9776209247291,290.4357654015466,345.2106142526958,28.042031996318286,-263.42143458297153,193.85334263968696,-383.5134236694502,-396.739224021682,-78.70387003106426,157.14982677878623,36.45144487839501,-757.5609926552872,138.22719388246134,412.01286560519424,-587.505142932703,244.89135509514742,343.7664126102141,-104.78001388243321,-169.08657809980355,-373.66998165884075
17,783.7698488234925,711.0199500753378,564.3702394028085,639.915800417715,577.0851022363177,727.2797742855452,659.1625271303336,683.629262851936,673.0476105121354,619.5830477269299,124.84066348939378,384.2088264241652,639.7353259295855,300.8336104401804,639.1831495400867,7.165935187294874,10.433395310740625,387.3180135883393,410.58099529080044,198.81256504978282,870.1815170064398,324.22070368790986,316.87698013793096,408.5999318270211,295.16910225451124,156.8766635755844,329.44698157648116,235.45811325604436,385.79139794509206,10.41226575010242,1447.0317403815227,56.53644801466398,2.863668271484461,235.4225999420875,108.08393189467559,216.24472070647374,-73.42327438059056,107.63643462428783,185.18642524692473,40.30931959845852,37.74922121198408,131.80690625244603,136.0780325697432,108.31431321078368,-122.0768428854548,62.196346546486296,19.186354538021114,88.51689362642111,31.5468151741108,36.60595627768245,5.20613287505121,327.67928903567093,312.0352061097029,193.98506697030493,201.5885194555841,200.4116568227622,259.02242210704304,134.36230206034728,104.01173536990098,64.66168899010164,67.19617315186136,66.8038856075874,86.34080736901434,44.787434020115754,-233.33117108570525,-315.6147638018185,-243.86241309780928,-125.00318789250639,-199.70074610392146,-218.1899081986396,-122.36814629989294,-49.77461601990922,17.82592311574308,-66.59786593228773,1.0144035073506663,1.0425149936499465,1.0189215084450853,0.9856514349293873,0.9852000981283261,0.9885808970305789,0.9729944576811762,0.9716236684303664,1.0231192596676826,1.0074603506016908,1.0004441125986285,0.9999306685532344,1.0050068460588681,1.000674819257962,1.014366313072866,1.0311007306230153,1.0287819796507944,1.0230509066338092,1.0476110651058357,0.9856702727399784,1.028048518379295,1.0500843124907262,1.0428281316725339,1.0417293800236314,1.049524793788499,1.0488000753580624,1.032542404199052,1.0529839161980037,1.054800325732873,-645.2395390939715,520.3988756045776,551.2695705662849,-187.77820374416666,229.85110186364903,-66.64711020163575,-32.12582292980096,-378.70277337753197,-613.0205645424622,580.8859890203793,686.4048502389295,-508.4286911672038,382.5501737218348,320.77563638986817,310.63709010773636,407.5881035227229,156.7821358800848,236.46603389618798,-143.9770334207502,-330.12249224567057,379.1407752498154,-338.1610502618221,-490.530672500304,-292.28836693594366,265.9995750846511,112.19469002749457,-816.5967306632422,106.00769156807563,446.21632524486176,-657.175914078808,195.423200695443,218.14610610378404,-62.10792269245037,-118.60485103816087,-297.71713441874
18,695.0979204302357,630.0453955364358,635.3341443748709,528.8804899193025,478.67065845060415,496.4508320575853,532.9360852197749,703.6064948852306,500.7267462966832,619.3000199531226,109.55999291709598,356.2640572914007,559.1677542631763,274.60112215309323,575.1599429950282,7.287045361716126,8.765316270035354,375.21816405123406,360.58426475642483,170.5333131813902,803.8447072730754,324.3169951988522,274.7113111377999,332.9356687585403,247.73639612869763,160.7778980684971,299.99164135757854,232.60079896690155,304.2623503335548,10.849075801328603,1197.6715344726656,49.61630826778322,2.655384277948328,205.77373356884888,98.65908580350656,194.58476232360533,-74.66418786004523,90.42764733447964,179.4011846869963,35.400825992804016,32.379743009124724,121.75883066048053,136.11844689002922,93.9013208980116,-99.47073447679008,52.20159775568986,19.663483936434897,80.60273637899353,31.163990541196522,28.870043118069223,5.424537900664301,271.2118511034116,237.9648676537675,184.6176709291935,117.83626741862852,143.70554513811726,249.1470896644434,282.5768421681678,79.32162255125583,61.5392236430645,39.2787558062095,47.90184837937242,83.0490298881478,94.19228072272259,-182.85503417877732,-232.32776279518208,-195.97500486113154,-83.0332718421572,-168.0019075185328,-143.51668607137663,-68.80163235907412,-16.7668644058092,102.23220034318342,67.88594464099413,1.0278307359736902,1.0497562107072789,1.031166400662212,1.0028649000535526,1.0024106374111224,1.0050150681350052,0.9922503315829331,0.9913423660380032,1.0344571125580244,1.0197728904703207,1.0144296746899415,1.0167714744851835,1.0180671271318162,1.0150094559055034,1.025517070418258,1.0427088160571634,1.0414094094517774,1.0360879005376864,1.053419142215638,0.9905747341769467,1.040019180689932,1.0578643833570291,1.0523205723839035,1.0528762133166776,1.0576904230373594,1.0596318661088395,1.0448415405545075,1.0648418096554857,1.0670023725408326,-490.96000960580363,381.4000166887075,594.1285031796282,-225.1019760358853,173.7404522028969,59.837042522221836,-95.45771667240315,-290.5428544928712,-571.8970636463542,476.36605194639566,585.1163554627688,-470.9663617041587,308.40064602444386,207.3657027687055,198.7200620358211,379.5699101960142,255.76423417885565,337.5607898390558,45.31634252334918,-212.1498660328453,108.48673149128457,-198.0656685983491,-270.20761762569447,-213.56728092811963,110.85374987654554,-2.4431240831142897,-595.0744621068503,42.4197363156571,299.3402432224319,-531.659816393151,224.2218790288368,303.6766476138994,-93.01956533161827,-148.66403530794526,-325.9518041625491
19,607.5174557532946,590.0693348298901,493.65330440948713,577.5836922934536,495.3880353840903,453.10467725423985,489.2539693817092,540.6464022169408,491.87906525954224,496.7815303983754,102.68688650209909,328.3403864993359,531.8930905561825,266.36371417860113,525.381290188042,6.625117175320952,8.032076250845023,335.1114247920208,341.0221237021944,168.93104270774057,660.9715080626071,283.8299181755364,271.3663785013713,311.2541599917321,247.26856258572852,143.78918897032642,309.5631053974086,203.387482457402,296.99592043810634,9.654508243886932,1072.5543902290783,46.50369245279487,2.447257539125485,195.73665732467518,95.69953802823993,177.74393840461346,-67.88196982713467,82.86315475666613,160.22514997868495,33.48028752456194,32.075514438178594,100.11774313301254,119.12569558462295,92.75796210592328,-92.99297975125631,52.10301854484994,17.585728147449995,83.17442867439271,27.249973377787846,28.180565290247127,4.827254121943466,242.87916445404855,170.46542939287554,177.66456128011194,119.1835416119688,266.0203496099333,237.6025425082711,263.2339617875725,56.82180979762518,59.221520426703975,39.7278472039896,88.67344986997776,79.20084750275703,87.74465392919083,-157.81934686399353,-189.52080112800678,-149.47766612212882,-66.12987039769058,-145.31867116441322,-101.936894600924,-47.56309759991689,8.305989723211269,111.08403485432586,89.79423908634897,1.0306796107171052,1.0534327098268566,1.0370945990386662,1.010582764891608,1.0100570594046034,1.0123990921314798,1.0004166525020521,0.9996084169131645,1.0367295554685816,1.0261126357900086,1.02125601899957,1.0248078607310478,1.0248801912788976,1.0221981524445156,1.0321647275425265,1.047317612920775,1.0459594841631756,1.0411071506489005,1.056221011794015,0.9947571003488282,1.0461232976388666,1.063282089496061,1.056544495895901,1.0568518347062392,1.0592956047238835,1.0635675120270416,1.0491218860728702,1.0676217058295099,1.068352309304617,-472.911122077586,370.22423557548694,446.2345598702795,-166.00221075076865,181.09843316366073,-65.62946315698221,-33.694386190518756,-317.67392684001214,-491.8758254254031,458.1722321647339,552.6417972551117,-444.88419574133155,284.4202299329907,215.19999033260243,207.24429987666286,352.0348691914425,141.61843521804337,216.21647077761077,-102.68267253782133,-318.8162999254379,316.40943990432197,-404.69180695623345,-334.2807514233741,-238.28068660354342,234.97684726581815,80.79353335925991,-618.9351451497483,97.35470312166379,314.0988028701708,-488.18597923212633,123.70806816706235,229.59807087227873,-100.76057129357268,-149.37145491236373,-304.5341729194333
20,603.9679602878969,669.4513278781656,521.8530165822363,625.1374475804977,511.58625961672715,480.10314723533384,607.634935915798,460.9309878753792,466.05743679365935,511.1974442736306,94.49051006425572,340.25638344621535,530.0774812845339,272.43291142200724,553.7066921022049,6.7815934859167815,8.795321115662286,382.186346353223,345.555315091579,168.04193303958863,741.2577640287165,287.1564491463485,252.07607512259983,311.5994381314126,231.48284557041998,153.77666529030395,289.0185322341941,235.27488147498488,340.7232198831425,10.46673847939218,1164.013568755767,42.79180886106662,2.536072423201605,195.06851311270844,97.8800879360505,187.32682342001797,-69.48525017877809,90.73719322136944,182.73284685013473,33.9253394451611,31.906696146757337,112.27874955140851,120.52186734244553,86.1641856782705,-93.09613802889257,48.776742459481355,18.807218057087535,77.65444549352902,31.522265673347494,32.32964590778319,5.23336923969609,263.59002915665013,97.44609562350094,185.0553658999183,300.4897940961966,233.77512881905548,236.93481920176367,254.48451519612345,32.48203187450031,61.685121966639436,100.16326469873219,77.92504293968516,78.97827306725455,84.82817173204114,-172.74187958502844,-202.02683479020945,-163.61445951153678,-77.77900318156367,-159.24930520002124,-121.04665774817624,-70.3332723075954,3.2828671740639948,103.28980849370475,64.83031063186058,1.0294692490435726,1.0522932562009477,1.0357610971140494,1.0081909310657111,1.006489219973966,1.0089141708313636,0.9959760490044471,0.9949211626200772,1.03395629107291,1.0237170198899364,1.0183358504987556,1.0209996396183427,1.0226068630020066,1.0205041177041028,1.0340327328490788,1.0462651891065793,1.0446165668214618,1.0396729669692588,1.0547146068146445,0.9923721143549177,1.0436895708767233,1.0608493726738593,1.0542230750305053,1.0552071464241237,1.0565893259917682,1.0627189700701811,1.0487939719221093,1.0659540651141894,1.0670582816592278,-497.4323389558813,402.94182889162556,364.12448893338467,-102.86722508378577,149.13254949706476,-126.92180075647143,-7.550564100041543,-373.8593322446472,-507.4906249888384,499.93809591106543,591.4259383878151,-502.1131627090139,316.84788155759753,260.64765311125643,252.00208213524064,402.95577658572637,118.89723999651201,193.27603363221692,-182.03787638556776,-264.3425750875863,475.13040349117745,-387.57222852292136,-398.74012724113305,-299.3994886326504,295.70428920064666,177.98204517668248,-687.0795051246824,23.306099058252514,377.1808083981233,-605.9811518205348,124.64056532403951,111.6860060453622,-42.36375394053269,-98.92955016577052,-277.70731856681783
21,723.3281384299435,667.0223533119419,655.5310128054822,603.8108137549715,719.0831035284333,640.2505329816074,543.7472303393993,571.0973347012682,700.6967271728435,538.9812310059242,109.25067307849304,376.7550903252848,574.0893957731816,264.2070722215576,585.0581516944994,7.3602564197257285,9.606892247631158,354.7340298023593,379.4041373737291,175.53600147950658,769.995972214773,292.724991587627,290.29894753260544,357.87390793090725,259.7292110961088,164.55560356050233,317.3820476317528,222.20118510746266,309.2468245034249,10.336814350075558,1263.971119579784,49.476226947432295,2.8081124744741723,211.26489764453083,94.92469660654764,197.9334666460701,-75.41431962365131,99.10979106583143,169.60720799925306,37.24849129839346,33.32962053408353,116.63174285017885,122.85902931597484,99.22945842932695,-106.9214980921246,54.728655195251505,20.125505471428344,85.27524767330014,29.770644218281408,29.34299675182409,5.168407175037779,286.22534410774097,78.45817190432268,215.055831557584,159.62700787741545,87.06800097183422,105.83062981460264,139.4531144861278,26.15272396810756,71.68527718586134,53.20900262580515,29.022666990611405,35.276876604867546,46.484371495375925,-225.66811936664902,-266.18615319029607,-225.22459843451378,-116.52989457284184,-201.41743308234095,-197.7099075505896,-95.42921387263573,-26.463722775883753,25.226483498323205,5.054011778672589,1.0225982267479505,1.0429520236990983,1.0240307842274687,0.995049925200414,0.9948722150689097,0.9978466382019905,0.9842968389869409,0.9829689639255802,1.028445342658378,1.0140794084687217,1.0081398387347646,1.010786686574416,1.011972788717679,1.007853287454297,1.0183052814056706,1.0330501345707144,1.0319367130751442,1.0272825435726616,1.048680175184254,0.9870542381021634,1.0326742958744526,1.0518283208328512,1.0458645705329797,1.0411598953864105,1.0519608900904842,1.0508718574472313,1.0354310869215217,1.0543445905144793,1.0561707427271576,-535.842241908514,426.5915688300206,406.4484877531925,-206.51038286710343,108.94442110966398,-81.36185473817133,-91.67819927378261,-373.83566050940925,-622.2974370582532,530.5508538499014,635.1643836838604,-535.4793463763671,368.4336370394965,311.03425250606364,301.0019982618817,426.41066511119715,229.12034769428388,322.1513729996833,-53.764300224799456,-248.95657021579822,340.0846592469809,-540.9255965643326,-336.9118996836132,-91.3002702512684,257.4162807080712,81.9092213318094,-630.4945869616428,93.79384956294496,345.82796053733387,-542.4001844026726,100.01303208927096,236.37743831015848,-124.05501045335235,-177.15493335385997,-346.8572753807356
22,452.59996663704845,415.2440437029268,494.14166795695644,442.4992995381454,391.9200167135712,530.2029596824399,553.6269047946171,555.834126140397,447.883465034145,583.0753340210216,86.29553517717098,288.9484717275251,489.372847868403,219.14643259715038,485.037783011993,5.964799009914759,8.063360271290328,302.2947980491691,310.0281059634053,138.28055668292498,646.5458128515421,254.21627866899172,223.90357904503927,295.99002379055116,196.38440944201133,128.02515610371438,256.1285799742202,201.1552535590846,238.0137701150232,7.806282906117464,1003.1869993323129,39.0805599880221,2.1536532054225472,180.08920801557232,78.73524524448517,164.09515800750566,-61.11624831697276,83.18589728880997,144.534700317259,30.437409795191464,26.2558019018212,97.93267459368946,106.69661330997828,76.53431429175889,-88.4325346516164,41.38100056099525,15.657752904770824,68.81746543791326,26.950898049663767,22.584022631725304,3.903141453058732,227.1709690517013,127.27204153840091,157.17457788869936,184.36348712288807,213.37763134633119,80.61389608468355,196.81309755529273,42.42401384613363,52.391525962899784,61.454495707629356,71.12587711544373,26.871298694894513,65.60436585176424,-122.68027666820234,-131.93804613108279,-118.41643687407907,-46.40523524797874,-130.96198256290535,-109.42252717633619,-54.30560244594608,33.21825495332189,118.57891715429241,155.75805231369304,1.0377571817368467,1.0570189228434048,1.0438489625867122,1.0202604989292843,1.020010971879696,1.0219149755471604,1.0120307230114998,1.0111174183441913,1.041807220996391,1.0328413557806915,1.0288415889235911,1.0306981067095955,1.0320117927375574,1.0305606943537646,1.0405430395491069,1.0511239562163814,1.0517847336051394,1.0477479604219684,1.0587365393501145,0.9967993998597079,1.0482696078246507,1.062934338144289,1.0566038005756642,1.0566344717419707,1.0653676351923238,1.0698147199246504,1.0567557537157877,1.0702156495321924,1.0693965601213091,-369.93453402636277,283.63899884919226,393.04831117070484,-224.9168452347186,161.97957915346217,-59.73202332240428,-27.38388715979315,-300.46190584987085,-413.9720629660891,386.58230475903093,464.33471297492065,-436.71264459482103,243.90415767526653,144.03831877156452,137.42152740515917,353.79362952232975,140.34803843462416,204.51035720513676,-97.02415618070658,-215.14009316369442,252.9076164611081,-184.0200534368737,-421.65210589740957,-172.86294479921284,198.3123186771864,54.186070903729366,-677.1803181630391,63.048641831536926,391.35976430063863,-552.2591557256203,129.16206831293715,202.56741604529861,-76.79487279690726,-125.12361306265271,-278.1737031413061
23,642.3091133492234,532.1651355778806,544.7020121710544,680.4248490100459,559.0865581816727,630.2256283731971,676.0602303989978,535.9302203725781,728.7540947071107,757.1522838627558,107.88460471107267,346.9265590015145,545.7504170598,273.8070922085127,563.4125242440024,7.807858347960489,9.080347600824298,371.55916806911404,380.1339067606482,174.83924023537918,804.8846630472127,313.36905367414425,285.42387228727034,355.8230698091536,258.1701327701129,150.13127577108352,294.4919725379522,238.73577512182513,307.39061910199786,10.253936435138032,1188.1786844235394,48.85757713349807,2.5857880174025922,200.83615347800642,98.37380558389678,190.6104440258445,-80.00051784217978,93.67767747626476,177.65172723304516,37.32013735066546,33.197324095325165,121.9163533733278,131.52350792892915,97.5630690727397,-106.3087719909396,54.400135119416646,18.36137905113971,79.12506735450319,31.985958220205703,29.166870031194858,5.126968217569016,269.0622020886638,128.92276037307064,151.33626245289938,77.92301933770824,114.08734707748454,171.10585430761793,111.9324064766151,42.97425345769021,50.44542081763312,25.97433977923608,38.02911569249484,57.03528476920597,37.310802158871695,-174.95755524666694,-219.48795200816235,-188.20271594517817,-118.98339788903161,-187.47664790078534,-204.84091584591386,-119.35593215923086,-8.399881427066248,18.662178524684123,111.89431353279713,1.0322280090827527,1.0494528823850509,1.0294055940282323,1.0019650154567092,1.0031456827300749,1.0057696769128597,0.9937175981572259,0.9930664929108917,1.036963644437352,1.018968868658709,1.0139681152791364,1.012631278927734,1.016600994997565,1.0123046158179023,1.0168609360491878,1.0335105776433715,1.0342170627035248,1.0307772996445965,1.0488124353284085,0.9876959749790822,1.0309411315717736,1.0507176722562956,1.0442167503776958,1.0420449419161604,1.0553438493927427,1.0533180229902206,1.038460063399312,1.0539407240653558,1.0553871241378308,-396.92169785791725,289.0370931468441,433.7085021093866,-174.7318040068027,157.2279899180388,-72.82125557581337,-73.24112200303016,-315.77728103296914,-517.3916167481574,444.1075997169095,548.5562186357236,-435.01403125816336,272.89320410486573,151.68010067640924,142.9700506794538,357.6841550520959,187.01785711895667,249.77250030409238,-67.37136535108026,-361.0913017340794,308.51335405743583,-425.0497076125001,-405.9237914247453,-220.07086955975626,248.12257930950054,59.761713082367415,-720.5490552957448,19.81779523212616,408.342328548247,-673.9771127262849,99.12137220635286,235.5811941527963,-114.78952946787703,-172.0839488223665,-354.0414767637457
24,527.0879568608885,446.0652486172975,481.27663176667227,395.1389446248738,455.8882642408748,411.10230686820836,392.68655946574864,537.8960215253937,445.41643701006967,436.34082363075834,84.18946921500199,285.82360467419954,434.23585470954606,212.4231391950872,473.00568472489084,5.459723780544711,7.330334221464675,299.6151180336359,272.4541053211489,150.92409680326267,561.0727070405774,226.86413977764036,197.7409120542471,290.02099402262445,194.69537381388685,113.06615197978293,296.1646849137698,160.5673915771282,244.4973723653504,8.703072826415289,1011.9650728506821,38.12678831253164,2.130362270863599,159.79879453311295,76.31969072877385,160.0245285870033,-55.9411698129658,75.62361213234367,143.25347830983216,26.748533744295166,28.656474076568863,84.9860129782051,95.21670100156439,67.59143902945175,-86.64917579029805,41.02509662506901,13.828234414793597,79.57449719213389,21.5129126579065,23.199221575407144,4.351536413207644,229.15875743901316,244.40193388421105,166.03140414526072,100.83372477650626,115.34331672742456,195.21746610559765,219.037929090582,81.46731129473702,55.34380138175357,33.61124159216875,38.447772242474855,65.07248870186588,73.012643030194,-105.12077142888127,-132.61754980079166,-103.68290042791739,-24.075937269696226,-115.26154873005129,-73.93946816903724,-15.158428179793987,43.072367088566466,131.8221437353555,126.98823088992236,1.0357964435788771,1.0605052426290162,1.0479449137528802,1.0250773871541254,1.0226975754081502,1.0243647520207324,1.0142557148172753,1.0131216379358177,1.0405524069011471,1.0357415177424782,1.0317909808253163,1.036165311307841,1.0353879830992616,1.034612147787651,1.0441496305002926,1.057455486968405,1.0565139816090396,1.0521245252090765,1.0620653188322597,0.999908231009908,1.0557815004385214,1.0668538852363103,1.0626265984675605,1.0657005245583746,1.0672520134788213,1.0718650422916445,1.058769328135768,1.0731850738075313,1.0714562979396527,-450.5411672538234,366.35169803882167,439.5311143766179,-206.23399687207765,155.0506328336195,-3.622314193334523,-23.304018635964034,-256.296881864218,-439.06230640860065,415.75093737765303,490.3803918413243,-412.2049858244476,276.53491354037016,217.62648807976024,210.9555956873421,326.3835305242974,154.8931012423745,225.92278426696072,-31.32737068835071,-230.15606614332512,178.1483029185621,-285.66041805147876,-245.12404938175308,-150.53767826801655,154.7195735833076,23.230041857430585,-472.4250807533748,52.40561878794892,246.64409435754536,-392.003981786331,132.18700563857968,273.9248173992039,-108.4982219332368,-146.8153056331218,-269.5094549249329
25,478.76951226217983,496.60619556455293,464.2718883227013,457.32517113059873,441.14320151818134,501.9509259884825,427.2420089973365,530.3727834838944,430.18510302855475,575.1927648587583,93.47960472882893,320.5034297773229,486.88480366525107,227.77648568142737,550.7305837778595,6.07698089484004,8.44386172229393,309.7427926128255,311.9879546407667,148.3677778582529,626.6570980969021,228.7839671419006,237.68959800392818,281.0436424197625,202.71816673625614,130.9899343775711,242.51582307183207,186.12504343001063,286.2673930256092,8.068301537035945,1019.3620720788969,42.3340013218672,2.3888454393340837,179.1736077488124,81.8358631190757,186.31996378385054,-62.26568116866871,87.11135188298546,148.0957727180072,30.629820470810834,28.17109706169359,94.92011927056016,96.02246796101667,81.24662622679728,-83.96702472813384,42.71561370513969,16.02035168646553,65.15994534492286,24.937141741108224,27.162585087791488,4.034150768517972,230.833802554098,269.37661289175253,237.03913721427594,128.93520845829744,174.52745768369465,150.37055244742183,192.21038053516472,89.79220429725083,79.01304573809198,42.978402819432475,58.17581922789822,50.12351748247394,64.0701268450549,-103.78298140287598,-139.75598541546543,-113.37406893201796,-39.07531605945712,-127.51173054634779,-91.22276973362648,-30.09291534417889,35.20274078879936,119.46064850978246,147.66371810467683,1.0374880010114218,1.0614420053603435,1.045762704447052,1.0203805116602975,1.018595460285194,1.0206046371791226,1.0094149699057189,1.0080824933979546,1.0408230749000213,1.0332770509935845,1.0289978133308935,1.0359929899247884,1.0327866279757552,1.0310487360956524,1.0408954262190568,1.053902577604313,1.0542116273092512,1.0498883043811544,1.0598889751848037,0.9976302041030997,1.05248706044301,1.065203225467651,1.059529708930794,1.0610580872153839,1.0652800423790907,1.0709975074424496,1.0589082784950785,1.0711818136445201,1.0694964085489551,-408.1598660167225,314.68026128789313,496.6839929237668,-144.2791285858349,188.62174723543197,-15.368653085656835,-10.359865452223364,-288.4871603631792,-431.18092287180485,420.8185302917095,498.1748442321876,-463.43551591555564,268.90836647426613,137.303426854357,130.5909077997008,340.92015698716216,123.35173133554005,227.05554706850364,-62.53516173736564,-243.43776581694237,211.8563377851032,-267.2005282956647,-334.00235803615027,-166.68792361230652,163.92922994519762,47.642085380328254,-563.6000804108255,110.57047837787431,299.23054810218684,-426.43121503010417,180.15771327921965,195.44135360966342,-51.21179899569284,-96.00577651873493,-237.4360167953253
26,581.8340975811059,685.2412613399165,623.4905621306566,539.32993226668,588.4587567555525,472.28841923849996,658.5109631065509,508.45028255956083,525.4528379342173,575.8566541323843,110.12676798047065,369.5922548750687,555.830939758036,261.4841707838926,528.8083309206305,7.04575382151823,9.719053769720471,363.05907937477696,347.3445901313496,167.78558634952364,709.1820586897446,293.73320193580247,272.7880772366909,357.6758274198127,228.52348197015934,159.25636004547513,324.37144119502693,219.83048403372754,296.22645264470896,9.940938924551018,1169.1198428660728,49.87298304033609,2.7547248810564127,204.54578583095727,93.94640866487158,178.9033548670179,-72.19187761740217,100.26690876147732,173.58762232606523,34.10100383356411,31.8580227245931,107.42022359565249,123.28218329422366,93.24392458272345,-106.86231784869324,48.15316227228357,19.477396552324297,87.1531808193044,29.45301630743146,28.107554060467976,4.970469462275509,264.7463412287303,248.8273632726531,182.82289405461094,120.99932469624754,260.9029360807816,90.80255047762776,147.6992525122188,82.94245442421769,60.94096468487031,40.33310823208251,86.96764536026053,30.26751682587592,49.2330841707396,-167.52029125359206,-204.283571436672,-191.84104272153252,-91.15873594396612,-169.78365862789406,-148.27617185960094,-97.89737575814956,-6.688861128331837,63.924636560919,76.03881358096328,1.0294034363777778,1.0535271492543712,1.0323901340791244,1.0040332913331054,1.0047801475447937,1.0073175847027347,0.9955232693915559,0.9947599687375193,1.0351491858501187,1.0203181422307972,1.015350036956189,1.01508090323351,1.0183221022689288,1.0148269556869878,1.0222571339200448,1.0376628287543175,1.037760706606052,1.0342849581735853,1.0522238817989578,0.9911475281564495,1.0369824877967941,1.056985038538563,1.0489996788671017,1.044835721983519,1.0551737166916175,1.0563790587125077,1.041054800697997,1.0602366146864894,1.0611238564368195,-489.5117438839255,379.38497590345503,514.0355994761458,-77.41820932166881,162.41742874930296,-21.239974219060656,-61.668488062432225,-332.272850350476,-521.8495500550381,460.1508572297299,558.3159541582143,-506.34273201718554,294.9212639213809,224.19736595280511,215.67365631703592,412.74070642179385,210.74985570886236,287.3631230454985,-46.529581088152284,-288.64363330042283,321.58606573125496,-410.57904405186986,-407.1034374581823,-140.7699019194788,189.27031499952867,131.6402455201355,-702.07982053241,27.400472059882794,411.1203988678574,-656.5519683689662,200.5426871806267,193.53065349536556,-50.31443513007081,-103.09495737850516,-270.2429392384744
27,434.6525211349537,388.430686128882,452.63631513461957,431.14770830823545,484.3775526905939,366.64603806305195,420.0667906408814,423.6444417991988,501.0698514926061,520.1122382911834,79.95207375231954,281.97987409737704,391.2743271913618,197.22302769000933,401.8960403089817,5.407275866218693,7.573319152774305,279.84905089429066,290.5769730695965,128.81008644619519,586.6258115416904,220.41333637338843,198.21711990913698,266.74995728238827,202.49877380485293,115.66876645378511,263.3990622287686,168.3920358466637,232.77521171177415,8.780514521829714,981.8524181545057,36.20780389193159,2.1017133473096425,143.98895240642113,70.85857282275785,135.96712781334514,-55.40378041387152,78.13037344011008,133.80282745883272,28.52776969649838,24.45761135054339,88.85655674822662,92.50924701802799,67.75421553257775,-79.69651996576863,42.669384480308295,14.146539782117603,70.77092241377947,22.56126305518407,22.0869601236216,4.390257260914857,222.33976860382828,155.62921131281826,103.26295672370922,195.60065749524915,224.2817769021874,123.36016331129629,123.02958303129056,51.87640377093942,34.42098557456974,65.20021916508304,74.76059230072913,41.12005443709876,41.009861010430186,-85.5352664546698,-95.83677683153792,-82.12275252530583,-20.855592874441356,-117.87820243669898,-49.073674443087896,-10.168036521266288,50.81337908347592,108.15844208412415,177.47540371545972,1.040822299585272,1.0632505998747774,1.0528391987292895,1.0321638962488364,1.0297941511190896,1.0309775007301767,1.022595400091378,1.0218987978482579,1.0447761619972007,1.0397980134667275,1.0363987209148986,1.0354913614633678,1.0396392506846828,1.0404203638217235,1.0511084892808613,1.0602710021583932,1.0599498748435243,1.0563625757154032,1.0626108079570464,0.9996096592853985,1.058676842423059,1.070006839673868,1.0644547260054638,1.0666145296579994,1.0669544219700748,1.0731295900536562,1.0622064918896876,1.0707246996406776,1.0679277053427152,-365.43261014585283,285.4805363935337,314.22249585904376,-139.90971793002953,108.1692369655871,-77.09398204731141,-14.551406108166555,-268.8003903844067,-373.05762216905856,358.50161226551603,426.4714398348537,-380.5824062227049,228.19092756817517,183.6059855101817,177.3482469101365,324.71372903429375,127.92258610032628,166.2353415136122,-103.35688143030329,-187.81180118875002,288.94170303343697,-323.82727396077496,-302.2324886265986,-141.61431847164184,206.23822500475424,82.18211132018477,-523.3050869691978,65.6572153055802,286.6863237103512,-419.28641369420313,78.68970728750467,181.75152193836382,-89.2439464948803,-129.68158067382123,-257.94203599928966
28,529.0568305040633,543.7287369500026,506.1514593259673,373.8320420654827,414.72541185828464,543.1591856631348,398.1549828505287,395.49323190644975,534.2229882740218,463.4099243408212,99.60484836207769,306.0580631582766,453.1426107248881,232.94787234407656,489.9243245002312,6.500376472918919,8.88888304361854,331.5153402669523,344.3464317671637,155.479957595065,668.7356463209957,245.11274439208557,248.95374336830093,324.30157993164903,227.83704908110983,131.8866451958328,268.93732676850294,210.3954572956529,327.01841594687505,8.92559404840827,1020.7764097957723,45.10793337708846,2.2811781104964712,166.7564807467588,83.69384635116523,165.748344265787,-66.60385739944616,91.70242764811626,158.50577206513657,33.806655763159235,29.521510935771836,101.29378172215081,102.87578687988993,85.09691591498287,-96.89113956480247,48.008521056376715,16.13002135488603,72.25896146271165,28.18890592893214,31.02926063129079,4.462797024204135,231.15407830520206,363.46342742279035,203.75252517885005,200.19568434711863,256.5584397286607,144.11763682085427,281.700786633834,121.15447580759678,67.91750839295001,66.73189478237288,85.51947990955355,48.03921227361809,93.900262211278,-85.48857190358325,-138.95736644569178,-112.14979944108256,-34.4715887091246,-128.9211440179206,-80.96248796002078,-23.264703827809626,39.847557263295926,121.9405633048413,135.07643714856766,1.0363922664626752,1.0653823851514488,1.049076969948274,1.0238797802569322,1.0210098222503963,1.022676361202031,1.0120514226014077,1.0111040667314237,1.041459088236209,1.0344713111454868,1.0302992016472858,1.0340250993904943,1.0341243797374502,1.03360502237294,1.0443204773086596,1.0558123356527853,1.0557141743746845,1.0520139513695774,1.0604607325387285,0.997254040848845,1.0534757864313602,1.0670270121241408,1.0606668171406999,1.06312297543454,1.0640073687304588,1.0698330075272855,1.0580549215833892,1.070267704388661,1.070206607628371,-458.8126626301927,359.2078142681147,488.71153154588467,-47.1924916746332,154.71146212493107,25.116554090618862,-29.94138888454738,-268.93368957897627,-455.4133481879062,425.46039079812834,508.06685043846295,-445.68268824216926,273.5850520469117,207.40257968514996,199.7528068370038,341.83285315720155,164.3186061687636,253.13542624841185,-16.915265934284033,-148.28122600025404,140.36505648183655,-116.514983948199,-374.5495487935367,-142.21438493329114,130.49164658895577,9.749171315724412,-620.6863899342513,176.24105367374426,324.55596723557,-397.4519139201137,119.23656117848631,260.0711198937643,-111.35744738820031,-161.78920863335293,-322.2239623905422
29,445.87731380251597,532.2643837685714,425.3592380268092,505.27026578131864,524.5508600646897,573.1722393331621,383.36326622192615,395.7613657776262,419.8972872860975,498.8256310548757,92.20279187706716,298.18006112039404,443.8075602006002,223.77249636559742,497.0332564557303,6.515814710681449,8.936653914859003,286.8582397538292,314.4860442222119,141.08539331029394,665.9544403338676,251.04831594620765,227.19877417556754,262.56894458866367,199.8530111259554,130.60794355545414,254.47094442595568,206.48687574786564,253.8641389515134,8.193936582229183,1078.0211575580418,41.75577255088492,2.2224600828849246,163.32118215382087,80.39730408344818,168.15339672429494,-66.76203995867454,92.19525726935431,137.1540958822996,30.87507364248463,26.78836581841024,100.872510815277,105.36699391902876,77.66067190001219,-78.44736452065713,42.11188448725488,15.973633384480003,68.37208649167137,27.665231896315984,24.08799060950868,4.0969682911145915,244.1171099542667,104.68342925509104,296.75574320296664,215.39528011306575,208.02573038431572,222.753557691777,139.6458759769787,34.89447641836368,98.91858106765554,71.79842670435525,69.34191012810524,74.25118589725899,46.54862532565956,-116.33006769683091,-123.95050955809859,-94.11865096149029,-39.045335487044554,-136.30148274088657,-86.96859667543595,-19.960856065800044,33.34247912769035,106.4331173550604,128.0729530178919,1.0355391010608208,1.0597730756082564,1.0477878039378143,1.0248133189639035,1.022105711489022,1.0239082922837706,1.0130209960100116,1.0117727102053877,1.0409997317773152,1.0366550723994519,1.032484659458776,1.0426589878607557,1.0366890370900264,1.0354217014027978,1.0471281074379704,1.0566154472525133,1.0556094813562964,1.0514843212531189,1.0600376804393858,0.996589202512644,1.0534287991390288,1.0664967216616743,1.0612227283288465,1.0646064633066756,1.0625078788904565,1.0702958080394818,1.0590166016210156,1.0690161702718222,1.0674459162723804,-438.8700754825228,346.6672836054558,279.36764953482947,-87.58173969922204,108.5352676538034,-128.30020719043137,14.201630823745193,-349.75005669960115,-433.3843353243069,447.58113410045485,518.9098425086021,-515.9878463376293,293.54024052800713,242.1774093092475,234.17683065286784,360.56368052122986,64.7955575055768,194.25232076961726,-156.76885623165657,-228.67197890396096,453.6126584017417,-357.4926123303172,-371.71963013865604,-268.04246242816686,270.01834018376496,182.30268315567668,-623.7801377716642,154.60204047744767,309.9759684318081,-382.71192263643405,106.86149897098772,72.70203938568633,-23.4585707897973,-73.3472972825361,-229.9670935879111
30,605.6628666787342,569.1177063699486,527.5951086954893,486.48032842991864,484.5415900549113,480.98778898999484,518.5091355983425,460.10008163937493,507.6154773355523,500.27329889832924,97.37836489770896,331.3654217604434,510.07671939512244,233.2205055175524,491.05083239938773,6.534195090286803,8.273156320731738,326.8380947181002,310.31249871658974,137.9425628869967,679.4355388252903,262.8228040999163,259.00923060698415,290.6069483718807,210.30987641766166,148.97284111070263,263.0130938420256,216.45188366845457,281.39145629474547,9.056214586928546,1037.8462158485852,44.09962836556082,2.4698043857921244,187.70823273740504,83.79179838953978,166.12945785772388,-66.9503681558617,85.35026450461818,156.26946403709167,30.465330421112,26.19162586461963,102.91450073383074,110.30884113682619,88.5340642802055,-86.82424056995269,44.31529538800728,18.21969999195644,70.66721916396062,29.00034946237547,26.69993006817867,4.528107293464273,235.01952351643686,75.88095612451414,182.14059068328797,120.59699368976692,192.82788498649137,321.0203320277373,122.76699766964171,25.293652041504714,60.713530227762654,40.19899789658897,64.27596166216378,107.0067773425791,40.92233255654723,-140.6174284722746,-169.34333300314458,-135.59007930719463,-47.15751141563277,-138.84487820813223,-98.36388156497947,-44.06984936875665,19.14623141596053,82.80067510359254,120.51137491171096,1.0347150024536864,1.0560985488894743,1.042286195008169,1.016360554627388,1.0154091766702797,1.017456295548607,1.0067363959093982,1.0058072797459203,1.038895423547125,1.0299121469054222,1.025477026873678,1.0288160950093237,1.0289998720399025,1.0272064868610158,1.0379975321861665,1.0527728392499882,1.0514202787421048,1.0468811514059084,1.0587379161484642,0.995846780491506,1.04993808211195,1.0640190679825914,1.0582069330720967,1.0629355308191766,1.0602371258230567,1.0659865328223728,1.054468567658217,1.0649568068412787,1.0639972864648424,-416.99278323926507,319.6144183415555,337.49898961135113,-115.18463809315342,100.11781826119993,-95.37756934020469,-81.12929643773174,-329.1265461667674,-512.4903104220484,431.30872271342247,523.7061027916616,-445.0530780707211,288.8420774874794,227.2932431448757,219.37232713506165,351.75115508343475,175.84395361205395,254.20687811874438,-76.33436986601541,-282.70821888504884,386.0481105164562,-286.2160161659183,-351.7088217351718,-341.9592618258273,233.77625207481626,151.33015377494374,-615.4430002816174,55.60796148071765,313.87483646738997,-517.3122512589757,132.44729323277045,112.18322800647367,-38.49550447085832,-90.73721412262402,-255.00488544680294
31,516.6696895761902,348.57741022522805,322.6707687574126,336.1227497572299,471.71524857252126,437.6445979013705,333.72262925520175,389.3157504847176,407.4241241307533,526.7225638476815,68.72574391230317,258.33368400284536,390.85351262144036,167.3001430817609,406.13382833215707,4.930788749293614,6.647524536977556,265.81807382417844,249.84669468324535,122.55262000851198,541.8241634304909,198.1747450110847,189.18496827626112,225.36998357624157,173.4758219912778,114.62751291381592,203.54378654392897,177.33581171472028,218.00445499023817,7.130338467974589,842.6906723425707,31.12374877995697,1.9254684521951206,143.83409264469006,60.10783583775841,137.40083157750755,-50.52162010814688,68.579385610085,127.09426654718533,24.529022000817097,23.26948481174278,82.07042475491258,83.17553166523628,64.66686188352199,-67.33348180728929,36.55383391959068,14.019192226869574,54.68881097532611,23.759555355952816,20.68543153170161,3.5651692339872945,190.8266921065604,98.53092459006923,101.27588068150287,75.71413218823375,233.79728321554796,83.23425808872203,184.5435781838239,32.84364153002308,33.75862689383429,25.23804406274458,77.93242773851598,27.744752696240674,61.51452606127464,-75.15696862006564,-94.9342657654056,-61.64616399885185,-14.736490327035199,-110.20011480480954,-47.966938171429945,-1.3794579648558738,61.22546988007741,139.7856887944637,215.4614180534643,1.045182477798874,1.0646500560013104,1.054828415803023,1.0343401145271538,1.0326784034895922,1.033840495781224,1.0263114463013712,1.025390107717794,1.0465774648243784,1.04194687326943,1.039034754239404,1.0397834605211285,1.0417140266012546,1.0417669841447337,1.048774198925157,1.0602464405730985,1.0618060480408835,1.058382055981271,1.0634625783594436,1.0009087999790527,1.0595892517505523,1.0706816198245328,1.0651026247525974,1.0654980485416805,1.0688624988202042,1.0774333423157296,1.0670664122957594,1.075238700863281,1.0726285454949527,-275.7364516873964,207.010707775093,304.8572299856516,-135.92597227011254,105.40992686805957,-59.97992515865341,-67.69710334043509,-217.9839730706916,-378.677349274973,310.94356941187266,379.0779727381954,-259.4133548158881,210.94671496780907,114.84337877625408,109.53241758551243,208.34156811645812,114.32920064095653,157.13896696428336,-61.42058881842702,-251.60028766645732,230.7227672334974,-262.13900151188307,-332.37872466592734,-138.25417769568776,182.78635041553386,47.597488042789934,-531.3467817304258,138.07398095579194,282.0041381287777,-333.23037205132766,77.66960026826071,156.32899531732903,-75.41501430132666,-118.07543733945438,-252.96778577349733
32,555.7228654163862,424.0877679224125,485.4731315249098,446.000232177376,521.1941421890958,486.6578212043663,395.7825435349936,395.2972851526861,516.9245725786966,410.6023428218749,83.57574095218547,274.6184248331176,429.84769832630303,187.43494491444886,458.5068996635292,5.326582003786514,7.099221993667846,258.960969893341,280.9281158638866,137.58713201336687,597.5890262243757,217.87416616715691,213.28901811826532,268.9604822671113,199.79363401087312,110.42731080117699,245.75871343395053,155.92833946234177,248.1098301201168,8.649113320759358,965.1100579306093,37.848849898428256,2.046845402482864,158.18395298407953,67.34189637644869,155.11938406241237,-54.57697868495105,73.23933592529549,123.81571373025366,27.580480675998594,26.124138989879786,90.51716132516279,91.44353689497461,72.9060643749707,-80.35695549263662,42.09937288086255,13.505498443309415,66.03125574470913,20.89136975320696,23.541990935559586,4.324556660379679,218.54847326327203,143.20217283637749,106.79272177168887,88.96850536511288,127.23462895066363,108.63558101273325,182.68106577149746,47.734057612125824,35.59757392389629,29.656168455037623,42.41154298355454,36.21186033757775,60.89368859049915,-105.64779597611827,-135.57752756255007,-107.71049253545823,-35.87696191899579,-128.4744706413111,-88.78570798995156,-23.863589368626776,46.63400020273252,116.33596259396745,135.71785010261817,1.037321040506541,1.060130769353437,1.0481247687256996,1.0250824662070555,1.0229800640875126,1.024569863088057,1.01523919101673,1.0139763079930628,1.04040552413677,1.0349628599954848,1.0311021424526765,1.0314559089976258,1.0343761116106134,1.033949098788641,1.0432798421553064,1.0549748427897003,1.0554873914161096,1.0516623494830308,1.0603501585298043,0.9979679719401946,1.0537838547277427,1.0654044687063684,1.0604671829821737,1.0613265639626113,1.0655729097051114,1.0716015437267288,1.059689903072136,1.071390943339846,1.0692618694802694,-414.67435524333024,331.098614291145,306.41292174299934,-159.39387031026862,112.0273308835115,-81.36633186543122,-43.81186640145471,-274.294151244514,-448.93990631043476,405.11047199259446,475.3485637498491,-380.9628404610833,286.5830499486859,231.58384985909146,224.91842851381907,324.73363741977283,160.7394941051355,202.62870019898224,-72.60303845257556,-242.70850659568558,252.78199578462235,-363.71644674365604,-297.2976643861993,-115.98146175319107,219.33287889566245,33.04379399586327,-515.8146732646074,96.1485565487864,277.885576669537,-395.08767505723876,33.36895278263542,213.3502889325585,-126.64685299190019,-163.80810264739557,-283.1846247897317
33,527.1218382284883,523.3789526176903,486.5760733252808,493.1464828001072,442.5312570298252,513.4513926016456,441.75197604468093,532.9900491456732,521.529242335387,478.066023096832,91.37935164301031,294.8143871102347,481.0674936878177,213.58101984643858,480.64356127553026,6.074828879932323,7.880940973044823,309.25900602569044,313.82598931995557,151.29995722987613,601.4665103045457,259.41151560869315,244.3619900524585,265.77372115968404,174.6151887220096,133.7487055654761,252.99175025420678,177.06468011346013,265.8911420530662,8.874886685326912,1079.9900056152358,41.38286211701901,2.197374313865103,177.03283767711693,76.73569575321146,162.60853050049548,-62.24363129284502,81.30396314512832,147.86446225603325,30.81027189980111,28.72783998035623,91.10448611965913,108.87709596715223,83.52737114520401,-79.40485123435796,36.793914766423455,16.35775535692873,67.97465175869257,23.723228986075245,25.229177147186878,4.437443342663456,244.5629541701168,126.88327695967993,233.9039316758211,140.50749843239055,162.0921563585538,110.78669887226916,121.95764251912071,42.29442565322664,77.9679772252737,46.835832810796845,54.0307187861846,36.928899624089716,40.652547506373566,-140.75407296507765,-145.24817667018166,-115.85466440481144,-47.738295689440235,-128.74707472110538,-108.95417639639868,-40.62580430571859,29.490964418673343,90.33336603910607,107.04278656800136,1.0327614030153731,1.0553355186041518,1.0425683638073209,1.0195697926693326,1.0189252099878354,1.020969040736531,1.0106085420285105,1.009422071455975,1.0393848517333752,1.033225635530444,1.0291439315074007,1.0369644356663377,1.0325404726271048,1.0301296553014683,1.038619086896941,1.0505431468875588,1.0506961394211567,1.0464225366896605,1.0586706474772622,0.9974154698278423,1.0486380047382133,1.062839153582392,1.0571669039945484,1.056957498756854,1.064017622803717,1.0676238888388079,1.0551451705223232,1.0671590905638266,1.0652256157037001,-460.8442034171606,369.4648517741505,398.0235731896994,-215.59233390449683,140.4650171516819,-39.15514521090999,-39.930439355253014,-301.0418849808513,-470.52746979551455,430.5842999612639,508.81018409478247,-461.83910296285114,293.68913284939947,241.83026281107706,234.26040672456097,341.57241336456923,145.00365996070965,248.38637212215485,-53.90113943615696,-222.7233853461167,244.45233299791886,-328.8670723322828,-310.3487511477383,-142.2979400606646,190.71861074242497,53.35251237405201,-570.4695821478856,102.6855485493184,299.13257466459004,-440.8821588464903,137.91760763513903,200.2436729948995,-77.0523561462804,-119.57468258739605,-254.34427586899648
34,646.9268584052307,542.7757169338844,650.1474296647964,517.337940560346,686.6984464732245,520.1262128004817,514.822221471186,637.6867569697627,637.3979917347317,765.7366779252814,112.35547626618076,349.7295534093187,522.6474285098977,253.90790363036825,598.6351078359179,6.544802823998716,8.947907318283299,358.9528507637695,345.8556123117673,189.9884694826911,748.0043582975635,302.94784449643305,280.72722691068805,336.64982106093083,260.07916906448514,153.87742648451487,282.4613374181316,224.20008077956658,297.5924311715676,10.345049530895563,1184.2542550651642,50.88229560415153,2.606679901187469,192.33425369164237,91.22439651390476,202.52674337897145,-67.059056627433,92.31135334219583,171.6243317714273,33.954821512675025,36.073760028359075,113.30066015389563,127.14964276310145,95.95767028947157,-100.5804066811984,54.80239633858794,18.819541368609734,75.89263692195352,30.038457424835137,28.237165426861267,5.172524765447782,268.17351790424914,122.6979903030644,103.30419092904097,177.54654013456647,121.19744366321652,121.48004739004534,115.44722154352365,40.89933010102146,34.43473030968032,59.182180044855485,40.399147887738835,40.49334913001511,38.48240718117455,-174.83308776736095,-218.80936027099085,-200.5357854847834,-87.97813105957835,-183.09513119074848,-153.87470387684596,-72.97828046091854,-12.546032092318455,44.92806274382451,104.66962722766391,1.0321778064084577,1.0496444545454133,1.0317061079892795,1.0044204807456312,1.0035281279154844,1.0059684141401575,0.9936855829335495,0.992524704531435,1.0349718802192949,1.0192320992671702,1.0139572819246563,1.0096893059931928,1.0173978384804372,1.015466373202512,1.0263595865084132,1.0405628133967035,1.0397695848969235,1.0349679440747273,1.0526194551092791,0.9898931170613016,1.0391161425535687,1.0566429517547167,1.050754356422616,1.0485567046241728,1.0568122180939366,1.0573399555410734,1.0435594791333653,1.05825440912082,1.058768982159702,-392.8542889338115,280.49881266763146,474.16594750392574,-206.62889894325102,128.62518710388613,-6.957342620643182,-83.64543485699392,-310.7722007996709,-535.2258108552313,451.52361957529394,551.2443992028957,-455.2149423582611,295.46049770525474,146.3280716381533,138.94073359848292,402.83382321556206,247.31360644923436,286.84400974543297,-25.43876825877365,-206.89797551846124,244.59449478522197,-446.67446582480324,-266.64462338639277,-84.54724546365567,197.21785444146397,46.98950579210712,-570.1250917448606,68.74629265968206,301.60108854016914,-513.6272205708524,165.50977768222384,236.28608851649304,-85.7921289981,-139.65217788539758,-310.2773707047055
35,641.337323714316,428.86128144802325,469.44847509108416,435.4083600673044,493.1254097192713,507.0045512282143,590.4844655532896,416.19908292688984,425.2041097202392,611.4291528854817,104.871077760692,328.91201179116473,506.3848153049758,231.58943846566066,457.9815644158102,6.368918716723067,9.123114217368915,300.17987681486244,332.00740138434145,158.5107463214763,700.853476195127,285.9555071403491,238.28357145476272,321.30607073863735,223.65782191465632,139.6788426615222,278.194631869142,213.5213406770301,280.85400086230163,8.913665606339558,1112.7068207516572,47.492844641624856,2.4515181003068176,186.34961203223108,83.20578627508766,154.94165570082774,-65.25692100519326,94.11888055433349,143.5235036021061,32.59525551584872,30.096977149647397,106.15868830602658,120.01782233992753,81.44965715180982,-95.99617537946327,47.12789818915972,17.08302392263221,74.74624450576592,28.607713605272,26.648933415153135,4.456832803169779,251.97165324992238,180.3417552588592,179.4317096411875,275.69241317908444,176.6033516540757,284.8422855626687,167.5972612289787,60.11391841961973,59.81056988039583,91.89747105969481,58.8677838846919,94.94742852088956,55.8657537429929,-96.09100003920247,-161.31062362439815,-114.31038005879554,-36.52873935038059,-137.05375231536772,-100.29258742603793,-51.32350054442486,31.7936680475716,107.61192197069397,143.82980523104266,1.0378425863641494,1.0618751729916085,1.0473164058507367,1.0212067882047822,1.0193663461269677,1.0211250027213086,1.0109379288936247,1.0101932790979826,1.0404213546780954,1.0331850351592793,1.0288261523464954,1.0303292045008348,1.0327513647607651,1.0325291049246224,1.0476570589809389,1.0567183086345415,1.0550459963919512,1.050759682274096,1.0602283439661673,0.996225293427248,1.0508529424079938,1.0639858957277493,1.0584911371983279,1.0657795415766755,1.0624473300744397,1.0693330472933722,1.0575592371010203,1.0687392968563592,1.067639092070921,-385.72751861771786,280.8564408570263,284.2742046393259,-65.63335085479996,51.4044418734742,-97.05359807531396,-108.82083349458024,-346.37733045377234,-521.4744639112022,412.5589970202813,509.5585402243685,-405.83169357969285,276.4271930175635,229.3643905089785,221.63085134914778,314.80687896684896,154.64159612423458,232.08339832870735,-115.69943313413746,-140.4760561832368,454.8618408675203,-223.01017459357277,-381.3063948408587,-323.25231798710445,256.08264518593074,197.48183421299524,-668.346649042953,12.017580661345129,362.64579219946836,-588.9317249082931,125.51451776002342,81.33279568550279,-22.205146430852583,-73.7689413106017,-235.7454787565886
36,682.1856225283852,489.82334479028464,466.5311260184415,579.1865416927792,512.7871418584806,442.429649506822,578.7681920692581,463.17140500635156,517.374459463293,555.2693086557215,105.69583406587248,333.3368192061017,477.6262415441852,222.7156655360029,544.397030438807,6.439312503781458,8.615186890742837,321.89933788326056,334.38903362636574,155.66251076816172,729.079324023812,271.71830621913506,258.2280395116793,320.08328865369316,229.69271590401922,138.4390836253131,283.6911649342544,214.7270151376923,291.06884231208295,9.057336430186604,1116.4300560345619,47.86635108311028,2.4844980313498266,175.76645688826014,80.01760438419265,184.17723290324386,-65.97818657720693,88.87883310496716,153.90812092543396,32.82907533778606,29.55617293066362,110.4340740800774,114.04235480000193,88.26703896035585,-95.63084644805738,48.39953656548977,16.93139871676491,76.22307100546693,28.769250571846154,27.61817233931228,4.528668215093302,252.81477718173957,175.75732988564133,211.94732755516318,188.4754933193217,194.88948003444082,228.95522704763374,130.91022849150198,58.58577662854711,70.64910918505439,62.8251644397739,64.96316001148027,76.3184090158779,43.63674283050066,-121.19539763147309,-187.254952672606,-128.62366819314076,-61.07629803684881,-151.09908019872296,-104.45649432459038,-57.51306484957195,21.297906442922226,82.1952862562855,110.10962554297157,1.0343407075123712,1.0582769634892952,1.0430134189859586,1.0170441035851665,1.0142131801983119,1.0162468045261082,1.0047297244998168,1.0032562944435097,1.037328757711713,1.0300251010471055,1.02528568977784,1.030274670385029,1.0293791343375975,1.027887969599844,1.0391961259517173,1.0511760651128463,1.0502190370372737,1.0461828703134444,1.0569997636911508,0.9938438570864546,1.0482636329487258,1.062843053622377,1.0565516344922719,1.0599531860229319,1.060787260581758,1.065508609250226,1.0530586667492676,1.064815036465126,1.0639401583364587,-432.95546892242237,327.2596348565498,329.93954140779766,-103.45158309821494,75.89058737127893,-80.63670618171706,-78.29153642328097,-323.69374205633505,-541.4639611391924,463.11904756521125,551.4053948064923,-423.5900402233297,326.8597076992143,243.44324027750034,235.42707068105366,315.99916356634066,150.53196245209963,244.2145122418426,-80.82328516757207,-214.39487443957987,393.92640918118076,-355.8223824374071,-343.61123767144704,-243.7608372269886,236.73097399435176,156.21124563152944,-616.2027543193667,18.333597148126607,337.3518611161489,-577.273023539272,127.95316230265678,128.05530484860026,-43.61764283717082,-95.40801727122212,-258.4180442803434
37,645.1063817445934,562.1900925895833,602.5909759894813,524.8173266662826,548.0415101883732,555.5384159899879,493.55338623382147,598.043025744544,495.6307344490886,508.3471007006569,105.14411922932237,315.91994284039225,561.6030758407558,260.61288624920854,581.9910255851852,7.131289606124261,9.866153766120453,358.7032266917742,335.9897123938555,174.03969925001988,756.3517999767913,265.6666116736888,267.2316342281825,331.16409234803837,234.79420769795306,145.25843388449252,306.2984580385548,220.19905745875357,302.40680645900295,9.77099623079129,1180.1276663743995,47.61649661819722,2.3546828037793213,206.66993190939812,93.63337230510487,196.89581440295728,-73.06829042582703,101.78447027181711,171.50498026200455,32.98622404353049,33.04551251582656,114.56505205530809,111.50241000902997,91.34463133617875,-98.94144301519488,49.474493764925825,17.765419971484697,82.29727253349071,29.502397989619414,28.693979166656717,4.885498115395645,267.23905488550713,207.83404010073716,281.90437444438504,217.15942348631907,260.9775657211359,163.40874948228384,112.71584187417382,69.27801336691238,93.968124814795,72.38647449543969,86.99252190704529,54.469583160761275,37.57194729139127,-159.48077359698425,-219.01106988295214,-180.45089088155032,-73.8060010313842,-163.19195420357914,-120.91460903370773,-55.462900648357504,-4.409222356204168,66.3640151432287,52.55761872512437,1.0283011513023257,1.0526642201102954,1.034886697691469,1.0053693908481824,1.00367656988805,1.0062943043493198,0.9930327467066351,0.9916508618677421,1.0326413078005583,1.0221805576709704,1.0166386039865247,1.0237507823731837,1.0210632255071326,1.0182700641322597,1.031462029978805,1.0450746420998829,1.0434217011950448,1.0386518983126676,1.054809918020728,0.9919560987939078,1.0441648010801465,1.0615858771477995,1.0546447147825428,1.0532932485805595,1.0576792383647646,1.0603094416829233,1.04641244864909,1.0615847683048727,1.0613913818630267,-509.63620965085113,404.4920904215289,405.23109667390395,-153.47575116838644,122.20665702145342,-34.93921716145196,-68.82981605140536,-370.97664193045796,-582.5114493610754,513.6415983626397,612.7010708380265,-555.9593303416862,349.7757486442285,278.7766826722448,269.5178335061594,412.62122033699404,189.9697556524876,315.099274125823,-57.86168996260538,-199.5196438676462,374.77438774250106,-309.92815293015644,-408.63660727616553,-192.19593911162636,209.29290598137376,164.58115321047129,-675.5390905847311,137.59946580244582,362.70486296107515,-492.4631224663206,205.9839569622856,142.39888667451802,-14.895686055598432,-68.00620065982302,-235.10331097050178
