mile888/hybrid_gp/hybrid/IEEE39/datasets/dataset_pandapower_DC.csv
,Pg0,Pg1,Pg2,Pg3,Pg4,Pg5,Pg6,Pg7,Pg8,Pg9,Load_P1,Load_P2,Load_P3,Load_P4,Load_P5,Load_P6,Load_P7,Load_P8,Load_P9,Load_P10,Load_P11,Load_P12,Load_P13,Load_P14,Load_P15,Load_P16,Load_P17,Load_P18,Load_P19,Load_P20,Load_P21,Load_Q1,Load_Q2,Load_Q3,Load_Q4,Load_Q5,Load_Q6,Load_Q7,Load_Q8,Load_Q9,Load_Q10,Load_Q11,Load_Q12,Load_Q13,Load_Q14,Load_Q15,Load_Q16,Load_Q17,Load_Q18,Load_Q19,Load_Q20,Load_Q21,RS_P1,RS_P2,RS_P3,RS_P4,RS_P5,RS_P6,RS_Q1,RS_Q2,RS_Q3,RS_Q4,RS_Q5,RS_Q6,Q29,Q30,Q31,Q32,Q33,Q34,Q35,Q36,Q37,Q38,U0,U1,U2,U3,U4,U5,U6,U7,U8,U9,U10,U11,U12,U13,U14,U15,U16,U17,U18,U19,U20,U21,U22,U23,U24,U25,U26,U27,U28,P_0_1,P_0_38,P_1_2,P_1_24,P_2_3,P_2_17,P_3_4,P_3_13,P_4_5,P_4_7,P_5_6,P_5_10,P_6_7,P_7_8,P_8_38,P_9_10,P_9_12,P_12_13,P_13_14,P_14_15,P_15_16,P_15_18,P_15_20,P_15_23,P_16_17,P_16_26,P_20_21,P_21_22,P_22_23,P_22_35,P_24_25,P_25_26,P_25_27,P_25_28,P_27_28
0,543.683861226211,480.78096192136167,422.5891810709843,515.1937024395401,465.72643396583186,398.12698485576493,407.4921844974846,438.3533815660078,470.09028059201347,474.44098321989696,90.91419199025471,278.2575467376877,484.89080627993974,191.94172517389083,434.7179630867239,5.701385310226054,7.723471284133689,280.39355208952645,294.9157082934726,144.0225879223896,619.3007184368762,248.6162100573474,237.84208127972803,292.7664893820259,207.29472675462364,122.7027633224358,244.95168423284665,195.56445763028583,269.75038947770213,7.756971133198176,1067.4870764649609,41.17220579886535,2.073969292454815,178.4398167110178,68.96109886487096,147.0712495806809,-58.41727102477772,79.67942239200056,134.06316709280483,28.953730631851567,27.346060997922077,93.80584411617389,104.3462195496166,81.29874778288887,-87.46944368445492,43.67996028043855,15.00681278044179,65.8144204967257,26.20183995434898,25.595363234392195,3.878485566599088,241.73167492413063,201.9392441347546,186.74343198033407,171.9920001190885,155.919661569748,253.88937984316175,180.24992646768195,67.31308137825152,62.247810660111355,57.33066670636283,51.97322052324933,84.6297932810539,60.083308822560646,-139.99999999,-169.24589448928305,-149.99999999,-57.79467409062465,-124.01156882645466,-44.60739108497398,-73.82296954037122,-1.3226099326857366e-08,116.84874417917206,131.9419810294337,1.024733735164211,1.054441361483167,1.0377677046983071,1.0131148135381394,1.0122764328047025,1.0146616877340697,1.0027196184567797,1.001223683949936,1.0302439698951544,1.0286125959197034,1.023724458573992,1.0285077608961464,1.0273556669757806,1.02427824237458,1.0327656355503136,1.042796909720788,1.0431670134663529,1.0397774922770557,1.0472099298209507,0.9825678946670631,1.0369690995780052,1.049131202545223,1.0463948910146257,1.0509282317368172,1.06,1.0598628865378346,1.0466799290054891,1.0578496725765223,1.0566915284004783,-448.0748170982803,357.16062510802544,365.968852604434,-131.32346364659782,148.40407302581139,-60.69276715906494,-37.017108173137785,-299.4696250809907,-435.662972612221,398.64586443908274,469.6006772687972,-409.0358529175951,277.658952094906,241.5868534472644,235.8854681370383,309.8424595579836,112.74672151300047,192.57328884959054,-106.89633623139991,-215.29788820183808,287.6092515202429,-361.61941796849555,-239.14005603995426,-197.06337400710356,204.7153550814544,82.8938964387886,-487.7562660973016,66.2903803282112,235.94048354596762,-407.4921844974845,99.7351911647861,162.05778779405807,-68.8884934941153,-116.13686645759228,-264.4529511244009
1,536.4843865635814,547.951192876495,477.0593159531558,470.6714299065415,569.1170913838492,440.8808917340374,548.1904096081483,603.7765807372199,650.4512608470388,598.7864054937348,108.21219581614848,366.0118926688345,599.7228070152255,243.26021850129325,596.7462465777267,7.403969222026088,10.074933156403837,373.2540032792265,377.338547102066,188.27144378025605,748.8808653823027,268.52257058136433,280.7260516849798,340.86760846763826,238.4516311607175,157.474964092292,305.8989264953717,223.9751708941663,312.7233993962458,10.007058454593428,1209.3090802467605,49.00593294132953,2.7280389515689527,220.697992981603,87.39888089866824,201.88771483836499,-75.86220772106729,103.93834909302905,178.46207031788018,37.045699305157235,35.74774248992204,113.43342519761349,112.70107889363831,95.95726857595673,-101.8405492570196,50.245165137436906,19.259527982510534,82.18992509039347,30.00832386737374,29.672872817492102,5.003529227296714,273.8471649109512,374.97488542133186,216.51617562852863,209.97787960382243,328.9955854382653,202.53811827978132,237.57186151228507,124.99162847377728,72.17205854284288,69.99262653460747,109.66519514608844,67.51270609326043,79.19062050409502,-139.99999999,-169.24589448928305,-149.99999999,-57.79467409062465,-124.01156882645466,-44.60739108497398,-73.82296954037122,-1.3226099326857366e-08,116.84874417917206,131.9419810294337,1.024733735164211,1.054441361483167,1.0377677046983071,1.0131148135381394,1.0122764328047025,1.0146616877340697,1.0027196184567797,1.001223683949936,1.0302439698951544,1.0286125959197034,1.023724458573992,1.0285077608961464,1.0273556669757806,1.02427824237458,1.0327656355503136,1.042796909720788,1.0431670134663529,1.0397774922770557,1.0472099298209507,0.9825678946670631,1.0369690995780052,1.049131202545223,1.0463948910146257,1.0509282317368172,1.06,1.0598628865378346,1.0466799290054891,1.0578496725765223,1.0566915284004783,-539.3695915919196,431.15739577577096,623.4748878839932,-239.91840117808607,302.07540308872484,-44.6124078735661,38.876323467183056,-336.52372739368366,-437.63042577735723,476.5067492445394,550.2689640337624,-508.2319487143077,307.0087455324683,186.76924819928058,179.36527897725455,390.11627371621034,86.94304223694576,175.268609710973,-161.25511768271042,-324.53124135811436,219.52664177415755,-290.90765590808826,-406.18210950836544,-224.3066648178845,232.88385165382203,-13.357209879664339,-674.70468008973,95.17179708257277,362.6361550057411,-548.1904096081483,125.40654839841623,319.2561363750359,-148.6060753904405,-202.71847667847112,-372.5812462846072
2,474.37616037083075,519.3129419251061,435.2212414034694,543.4650981555394,471.3672144224211,584.7939551243903,444.9985750937553,616.1191465080962,425.73037703953577,596.9259057007035,99.07756834489999,343.35226179484977,500.97257102538526,254.06159518799387,540.5227729011411,7.090722544665068,9.230938874048453,323.00173082882134,334.1077385424068,153.55541996599604,678.6262265573115,275.6227425558996,257.55914975351664,342.49719778370695,222.98428348754643,143.9647352638173,295.6691538354082,216.10867369535183,275.57542043688153,9.070741322715506,1167.8608154174076,44.86914468078462,2.559147292880868,184.35790613734179,91.2796150376026,182.86651665582667,-72.65263407302977,95.23125684833107,154.4352025525302,32.801458829543286,29.156092398606845,102.79191372853394,115.68107808003086,88.03840027938388,-102.3274194285735,46.98597402059014,17.60719783802082,79.44135627962036,28.954365990251024,26.14807340300569,4.535370661357753,264.4612353753188,236.03527786392377,111.58994503176903,336.65591334046655,277.56355381138474,183.96865820332636,236.35146902442085,78.67842595464126,37.19664834392301,112.21863778015552,92.52118460379491,61.32288606777545,78.78382300814027,-139.99999999,-169.24589448928305,-149.99999999,-57.79467409062465,-124.01156882645466,-44.60739108497398,-73.82296954037122,-1.3226099326857366e-08,116.84874417917206,131.9419810294337,1.024733735164211,1.054441361483167,1.0377677046983071,1.0131148135381394,1.0122764328047025,1.0146616877340697,1.0027196184567797,1.001223683949936,1.0302439698951544,1.0286125959197034,1.023724458573992,1.0285077608961464,1.0273556669757806,1.02427824237458,1.0327656355503136,1.042796909720788,1.0431670134663529,1.0397774922770557,1.0472099298209507,0.9825678946670631,1.0369690995780052,1.049131202545223,1.0463948910146257,1.0509282317368172,1.06,1.0598628865378346,1.0466799290054891,1.0578496725765223,1.0566915284004783,-494.8317597268758,395.75419138197583,494.8145564186536,-234.2980963564994,257.67274663996744,-106.21045201616369,92.3268590489007,-335.62668343431835,-362.45490397385583,454.78176302275665,522.0740459457734,-463.1865037708819,268.0124507577789,182.27144087939382,175.18071833472868,394.61442804562944,40.60681335783988,74.39374379030869,-261.23293964400955,-247.57875713236422,370.16524248561154,-336.2060860206492,-416.6966848627259,-198.9489672770076,259.7658719821596,110.39937050345189,-692.3194274186255,170.03808151714952,357.477506857388,-444.99857509375545,158.83676666405051,185.26978333195666,-59.09294818346317,-111.3048037482601,-275.2016218788148
3,407.0820099090961,420.99754328476854,311.53826732279174,328.2201347035845,360.2842620710159,431.2590467529767,431.58499596203364,412.46746873685044,423.00387522827293,473.2218909129911,87.9463742780108,263.4735640306275,424.843290888001,209.95399186732448,442.28180366968985,5.84019060980917,7.004859576928605,270.3122656553418,291.0541617747411,140.34287800017563,578.2638541791832,238.02313057860766,214.25242586590738,255.88798619333826,198.09009059192522,121.96024662797817,262.13016323224167,172.4568067663623,224.34370153896663,8.9126502361957,956.5424548727368,39.828173597213905,1.9637781169984656,156.34233104678435,75.43257192838006,149.63020407675714,-59.8394914789678,72.26584323208878,129.2430520164603,28.574618314055126,26.647381898767527,87.58996614772921,99.90021903846672,73.23537465961925,-76.45130371686905,41.740411946155675,14.916001386155603,70.42999047699021,23.105863430833008,21.286933232445158,4.45632511809785,216.60834575922482,338.28378521615525,276.1933425090014,145.02927596280057,136.56536156945998,215.48688797360592,297.0935469900219,112.76126173871842,92.06444750300047,48.34309198760019,45.52178718981999,71.82896265786863,99.03118233000728,-139.99999999,-169.24589448928305,-149.99999999,-57.79467409062465,-124.01156882645466,-44.60739108497398,-73.82296954037122,-1.3226099326857366e-08,116.84874417917206,131.9419810294337,1.024733735164211,1.054441361483167,1.0377677046983071,1.0131148135381394,1.0122764328047025,1.0146616877340697,1.0027196184567797,1.001223683949936,1.0302439698951544,1.0286125959197034,1.023724458573992,1.0285077608961464,1.0273556669757806,1.02427824237458,1.0327656355503136,1.042796909720788,1.0431670134663529,1.0397774922770557,1.0472099298209507,0.9825678946670631,1.0369690995780052,1.049131202545223,1.0463948910146257,1.0509282317368172,1.06,1.0598628865378346,1.0466799290054891,1.0578496725765223,1.0566915284004783,-420.8290491586783,332.88267488066754,472.24856459554405,-133.7962852532984,210.70541809218219,-1.9304175272657744,31.00358803674237,-245.1414608325615,-341.18164545685613,372.1852334935975,436.32864173230496,-413.7357315875937,226.3746498649807,156.2780796888876,150.43788907907822,268.10341074787175,43.434856574920104,166.99101866727142,-78.15044216528975,-203.4334318578309,122.48569858306831,-110.24054259541724,-281.70738891535905,-225.02536070486394,142.27329552744118,-19.787596944372922,-519.7305194939667,48.093888828470085,265.4264589245963,-431.5849959620336,80.58109289162674,281.9177601766145,-140.81567469910632,-182.4812392138594,-313.27248146546856
4,439.04100338050716,463.6267176247136,499.77600413537897,512.1155737367848,496.5250895673134,516.9002307889109,473.68392993482587,499.5888113483091,358.42199421269385,504.99616606128353,98.10698154592647,311.2002004720446,434.21196000183414,204.50402708635693,477.9841068103853,6.747542218642791,7.736793887821542,291.8988789183755,315.1237361049494,140.94093763190014,701.3719747083251,266.83656034848275,217.3448866294416,266.9724019987045,211.47942005364362,129.44609884702126,275.84023380714984,180.25037477029574,265.8908886277252,8.972985838322922,1062.559593024412,44.42959615092162,2.319504599791637,159.79000128067497,73.47450074958931,161.70879935385832,-69.13635565563229,79.81686543121873,139.56415148284827,30.937679866838494,26.760937525044334,106.23722558081982,111.99344686158948,74.2924339751546,-79.76297946947686,44.5617349398749,15.831537269060155,74.11365712612034,24.15005021194254,25.229153100831773,4.486492919161461,240.61584986965852,173.76324545288108,124.10006124340129,213.86038954305405,245.74015197224543,204.35530494172,189.89941756029037,57.92108181762703,41.36668708113376,71.28679651435135,81.91338399074847,68.11843498057333,63.29980585343012,-139.99999999,-169.24589448928305,-149.99999999,-57.79467409062465,-124.01156882645466,-44.60739108497398,-73.82296954037122,-1.3226099326857366e-08,116.84874417917206,131.9419810294337,1.024733735164211,1.054441361483167,1.0377677046983071,1.0131148135381394,1.0122764328047025,1.0146616877340697,1.0027196184567797,1.001223683949936,1.0302439698951544,1.0286125959197034,1.023724458573992,1.0285077608961464,1.0273556669757806,1.02427824237458,1.0327656355503136,1.042796909720788,1.0431670134663529,1.0397774922770557,1.0472099298209507,0.9825678946670631,1.0369690995780052,1.049131202545223,1.0463948910146257,1.0509282317368172,1.06,1.0598628865378346,1.0466799290054891,1.0578496725765223,1.0566915284004783,-443.77825637583595,345.6712748299095,347.5389666474249,-153.9272599456661,149.47981536403847,-113.14104918865814,39.75511854382671,-324.48726318162244,-380.4698384651397,420.2249570089656,480.9028712396391,-472.2782003351447,276.39884415328197,218.63969435186192,211.89215213321904,399.40488675607185,100.3711173793074,143.86107115581444,-180.6261920258079,-258.6646814011294,423.00603975076706,-307.2686885957731,-402.78470750660574,-286.74106115446705,254.08198682055814,168.92405293020872,-669.6212678550885,93.0191149060679,349.3581582114517,-473.68392993482587,134.18213134899958,106.91618087694138,-29.315828915229886,-72.86431945973334,-209.5662036855257
5,670.1935910890594,747.7472093679434,639.1227999842278,556.1154987707225,708.304174382613,684.4842632604405,588.0596217620159,582.4559371900316,600.6989227974198,704.3938237443499,123.08729737806644,345.9416809181784,569.0646093985424,269.6804378607924,623.3201952998681,7.718502689395303,10.290045586135092,379.6406087227603,397.65242826535973,181.28318879864074,857.2664630154384,341.5667796676651,287.2111880810338,368.92439919744595,263.6253797837317,172.2194058176784,308.8824632027355,246.195842825505,342.00301903934354,10.968214317923286,1343.7696899670163,55.742403115886646,2.578447311191392,209.4157762586636,96.8911752793266,210.87805840987875,-79.08496601749648,106.15756290502793,181.5156660455698,39.04004082969945,34.42085863265331,129.85065542733844,143.35831993350908,98.17400610769884,-110.22303825665755,55.54963359728632,21.062805028061387,82.99155150109085,32.98546243681524,32.4510801134333,5.484107158961643,304.29567254687873,185.43462931445933,190.10577295058354,221.3043781413655,111.5839680859224,155.14255614843435,160.9025703945446,61.811543104819776,63.368590983527845,73.76812604712183,37.19465602864079,51.71418538281145,53.63419013151486,-139.99999999,-169.24589448928305,-149.99999999,-57.79467409062465,-124.01156882645466,-44.60739108497398,-73.82296954037122,-1.3226099326857366e-08,116.84874417917206,131.9419810294337,1.024733735164211,1.054441361483167,1.0377677046983071,1.0131148135381394,1.0122764328047025,1.0146616877340697,1.0027196184567797,1.001223683949936,1.0302439698951544,1.0286125959197034,1.023724458573992,1.0285077608961464,1.0273556669757806,1.02427824237458,1.0327656355503136,1.042796909720788,1.0431670134663529,1.0397774922770557,1.0472099298209507,0.9825678946670631,1.0369690995780052,1.049131202545223,1.0463948910146257,1.0509282317368172,1.06,1.0598628865378346,1.0466799290054891,1.0578496725765223,1.0566915284004783,-531.4631388705925,408.375841492526,525.8201568553798,-124.10145704356955,194.08112685459014,-14.20265091738895,-21.363172601477117,-353.62030994247493,-540.2635404668117,518.9003678653344,612.8187927148629,-549.5948339614163,343.1383548540698,238.7185274195357,231.00002473014047,447.14998702386174,191.97281296036635,269.3436933872604,-84.2766165552141,-242.61284713660928,308.45597704659735,-407.1532101378974,-374.53559561525543,-167.03244669541346,195.48583971602966,112.97013733056781,-716.1023752829205,79.9658560634424,380.8142897444243,-588.0596217620159,194.72910036272995,195.91232587216746,-56.96085785023692,-116.44177347687885,-303.15670067574166
6,356.5085790787077,335.3902388982086,303.7329892015964,314.4703888812858,332.4045351299053,323.1246835147979,405.8669376487146,289.95730803811995,405.0099146101787,398.6956626745982,72.87137018250552,250.07244999211915,364.7998014724111,187.72394150786243,403.21096454951413,5.4369945975320775,6.758604260473724,250.82972852066442,266.80625894141383,118.09046689405815,535.6301489349745,219.58457871299984,211.77273357683922,247.7517068832926,179.00470897285672,118.96359365587992,220.2928972388843,148.87375965527576,223.72385177304773,7.042667777741881,876.6104684685329,33.001173791667455,1.8638940372083415,134.2463269418473,67.44572748785477,136.41198532460572,-55.708283107020975,69.7253428982049,119.92796394894268,26.194049130114486,22.422240549504714,81.13221373573877,92.1614107737043,72.3877707499014,-74.02043867349182,37.718849390709096,14.549504260071645,59.18901687379277,19.946193041192288,21.228118563298004,3.5213338888709407,198.5078053597221,253.097388066818,257.11650580970496,286.0918220449177,307.0740516838401,187.296183926948,189.8129294506882,84.36579602227266,85.70550193656831,95.36394068163924,102.35801722794669,62.43206130898267,63.27097648356273,-139.99999999,-169.24589448928305,-149.99999999,-57.79467409062465,-124.01156882645466,-44.60739108497398,-73.82296954037122,-1.3226099326857366e-08,116.84874417917206,131.9419810294337,1.024733735164211,1.054441361483167,1.0377677046983071,1.0131148135381394,1.0122764328047025,1.0146616877340697,1.0027196184567797,1.001223683949936,1.0302439698951544,1.0286125959197034,1.023724458573992,1.0285077608961464,1.0273556669757806,1.02427824237458,1.0327656355503136,1.042796909720788,1.0431670134663529,1.0397774922770557,1.0472099298209507,0.9825678946670631,1.0369690995780052,1.049131202545223,1.0463948910146257,1.0509282317368172,1.06,1.0598628865378346,1.0466799290054891,1.0578496725765223,1.0566915284004783,-370.5345244339942,297.66315425148855,287.3909753186236,-69.43787278759106,121.30575230689374,-83.98722698038932,36.20829474466336,-279.7023439101806,-324.2270840858978,360.4353788305601,416.18817336679524,-420.74776824187575,228.46423185893218,185.68864613997818,180.2516515424461,282.7118234736729,21.02116572792363,133.34312250895215,-146.35922140122833,-111.09712787697505,277.5942258589962,-111.24477507621653,-323.63584822615354,-220.61698937501495,202.07769387444722,75.51653198454886,-543.2204269391534,86.97830825948449,281.0725123313595,-405.8669376487146,41.51472627767225,144.77636525433564,-93.12866614991427,-129.0965664826289,-242.00242580519023
7,484.2879687458091,521.205386651412,493.9781407835164,501.86535842580116,435.2441309474393,399.99154665588827,588.1601170254969,441.63191718146754,497.4239062753239,593.8405349837118,91.03680452962381,291.47314696101586,487.8430232165308,228.42306300263402,490.1984480136005,5.876442579455414,7.816524030257098,309.06805355693444,310.76608769400093,145.9123024004282,638.7392241150368,248.93923540236023,246.12871917206684,325.9753352601289,202.41160447074452,123.14594367463775,287.24729799469986,205.5085344846086,262.5094306951492,8.349792609877435,1068.1643878430957,41.22773319886652,2.172470660579,179.52623254368334,82.06816634825175,165.841084136402,-60.21093473718932,80.6394038291471,147.7731631069093,30.509862104912553,27.704867544385102,96.75020600565998,104.48179588055265,84.13127128063377,-97.39120515548893,42.65101665633545,15.061014694020445,77.178544479003,27.53415316395727,24.908302242326325,4.174896304938717,241.88505159490393,234.82280305164372,139.42650197375494,162.06132782773545,169.31444475421694,232.5123477190595,132.39976747047052,78.27426768388123,46.47550065791831,54.02044260924515,56.43814825140564,77.50411590635316,44.133255823490174,-139.99999999,-169.24589448928305,-149.99999999,-57.79467409062465,-124.01156882645466,-44.60739108497398,-73.82296954037122,-1.3226099326857366e-08,116.84874417917206,131.9419810294337,1.024733735164211,1.054441361483167,1.0377677046983071,1.0131148135381394,1.0122764328047025,1.0146616877340697,1.0027196184567797,1.001223683949936,1.0302439698951544,1.0286125959197034,1.023724458573992,1.0285077608961464,1.0273556669757806,1.02427824237458,1.0327656355503136,1.042796909720788,1.0431670134663529,1.0397774922770557,1.0472099298209507,0.9825678946670631,1.0369690995780052,1.049131202545223,1.0463948910146257,1.0509282317368172,1.06,1.0598628865378346,1.0466799290054891,1.0578496725765223,1.0566915284004783,-411.4640374189015,320.42723288927755,441.6454946523487,-97.08134236819453,192.0326090723729,-41.86026138104012,1.6538097185272136,-297.46422386268534,-399.62876023306944,401.2825699515961,477.11200361420083,-443.43538647719924,248.68894061156743,159.77306254956198,153.89661997010637,365.94196599988663,128.03617478362935,182.15273224981524,-115.31149161286947,-262.3182173420687,294.2211265422401,-298.37026525820386,-335.0131336983468,-233.92203262175894,187.77256378146808,106.44856276077189,-583.9523691007071,-14.64637769060198,327.3850201628281,-588.160117025497,142.13897034252872,180.7987352339279,-56.07742331727776,-105.72828524875912,-261.58595780188614
8,569.3087195264193,546.6859882174537,698.9851586639531,549.1800494748502,648.2264928319969,702.3565581729702,588.3285385441932,685.6013716518235,667.7795704401968,606.3096328536334,101.73753539438636,350.9908674284836,548.0421631555665,244.61885737992975,586.3308532322092,7.7053962671679415,9.653095740742181,365.05853065104156,390.21883348885154,185.05383102223982,792.0478702924536,308.64544328022583,278.7367234859484,339.4527137581698,223.11783010586524,155.56755436636362,345.73301355189443,232.9871966509572,321.54648547694984,10.44409936936861,1240.9458664466822,46.07376090606431,2.6160809994669587,201.6795160412485,87.88701462751968,198.3640396184064,-78.95067559898229,99.58645078374116,174.54360996752925,38.310238059847734,35.13680335865313,119.97195682370987,129.5409707198028,95.27728002792419,-101.41782309949208,47.014114200878744,19.026247656317853,92.89267801839158,31.215760327992328,30.510054530264377,5.222049684684305,281.0112922207161,163.09462695524925,100.54800256827444,86.42409308121957,167.07814659464253,154.7361090887971,157.8479051329923,54.36487565174975,33.51600085609148,28.808031027073188,55.692715531547506,51.578703029599026,52.6159683776641,-139.99999999,-169.24589448928305,-149.99999999,-57.79467409062465,-124.01156882645466,-44.60739108497398,-73.82296954037122,-1.3226099326857366e-08,116.84874417917206,131.9419810294337,1.024733735164211,1.054441361483167,1.0377677046983071,1.0131148135381394,1.0122764328047025,1.0146616877340697,1.0027196184567797,1.001223683949936,1.0302439698951544,1.0286125959197034,1.023724458573992,1.0285077608961464,1.0273556669757806,1.02427824237458,1.0327656355503136,1.042796909720788,1.0431670134663529,1.0397774922770557,1.0472099298209507,0.9825678946670631,1.0369690995780052,1.049131202545223,1.0463948910146257,1.0509282317368172,1.06,1.0598628865378346,1.0466799290054891,1.0578496725765223,1.0566915284004783,-515.4659510011945,413.72841560680797,504.5238108050419,-310.20914663353346,212.21967271961034,-58.68672934305209,6.6392121212932125,-342.4617025572495,-482.9978737740803,489.63708589537123,569.925838970177,-547.9152958403731,325.3069815902477,228.61321425340861,220.90781798624062,488.7812018800739,210.20395678387877,241.96476965111276,-100.49693290613624,-379.13137047595825,321.67293992584234,-405.3586720143933,-456.04229189131775,-229.6221799849411,243.74056036529157,77.93237956055083,-764.6877351715434,104.74696959606922,414.3387846543137,-588.3285385441933,152.27439491242467,267.80063399134343,-107.40204336720541,-163.69175007807664,-340.3892400181626
9,497.17952277124255,423.22874247724667,416.05748838796336,531.8535411087024,477.04971091170665,532.0228711457446,512.2041770961804,525.1553169342295,580.5604137871975,502.62687811043685,88.43565295300033,277.01554886835254,433.9211973574439,217.1943322095149,506.0192297464958,5.898194985913727,7.559777211483638,271.4486316887571,326.06641764468714,145.63370269311662,653.458603091975,275.31087941745807,242.67378004233828,289.57733263410995,202.68979437260813,132.28355299497224,260.9441964670663,180.5715949006671,247.5781596328287,8.285355966387415,1018.494769658379,40.049752669289084,2.064712165478404,159.68300062753934,78.03389181180177,171.19347887592176,-60.43381324028526,77.99066759795548,129.78637702618698,32.01199176268509,27.651968865781637,98.97975899775503,115.55018661681633,82.95031026901745,-86.51662368394342,42.70963524279957,16.178564035356317,70.11134104364238,24.193087472128216,23.491543189146707,4.142677983193708,230.6374025494518,174.78653252039567,80.7299999776259,202.55297535093567,169.9024105656089,125.68012298899885,82.44943934933859,58.26217750679855,26.909999992541962,67.51765845031188,56.63413685520297,41.89337432966628,27.48314644977953,-139.99999999,-169.24589448928305,-149.99999999,-57.79467409062465,-124.01156882645466,-44.60739108497398,-73.82296954037122,-1.3226099326857366e-08,116.84874417917206,131.9419810294337,1.024733735164211,1.054441361483167,1.0377677046983071,1.0131148135381394,1.0122764328047025,1.0146616877340697,1.0027196184567797,1.001223683949936,1.0302439698951544,1.0286125959197034,1.023724458573992,1.0285077608961464,1.0273556669757806,1.02427824237458,1.0327656355503136,1.042796909720788,1.0431670134663529,1.0397774922770557,1.0472099298209507,0.9825678946670631,1.0369690995780052,1.049131202545223,1.0463948910146257,1.0509282317368172,1.06,1.0598628865378346,1.0466799290054891,1.0578496725765223,1.0566915284004783,-433.812040270704,345.3763873177038,393.458835900942,-229.25560117400363,207.47200444260528,-91.02871741001582,58.18229343100825,-284.63148634584684,-360.90122247235195,419.08351590335906,480.5197452688044,-395.5062398822986,263.32541305928953,176.38969921615222,170.49150423023855,345.4208423521941,70.63664603576922,93.7214712718079,-190.9100150740388,-259.8056714118603,301.8201495745128,-355.44464892843433,-355.72403469991366,-176.52355500271221,236.66242010313238,65.15772947138049,-631.034914117372,70.89036759398186,340.4207646478233,-512.2041770961804,93.2099213876179,195.78646699568597,-95.61700063751948,-139.24309796552063,-276.18859553818663
10,547.5707005313307,577.2630179603865,504.6632918067814,581.9574920212917,465.24625108283124,422.7474552403192,573.4321416637227,497.4214480467106,515.1073650592828,530.8155347507893,93.1112550456237,309.31007420675894,458.95343745651513,211.91490494725247,492.95655404233986,6.02899298623349,8.20623705470964,308.8558699843025,304.9643767991297,137.7366381909773,646.6810066004813,275.5036162125692,249.86737646283254,304.09262093422194,195.48420231022837,138.46256290128125,260.9185960525743,189.3871506673442,253.43166413607392,8.6013213796594,1051.458079648308,42.1671872235304,2.3054167021621783,168.89486498399756,76.13709159781526,166.7741905055119,-61.773989674330835,84.65988989618387,147.67171283624464,29.94027164319723,26.152526238793158,97.95315247036702,115.6310797972462,85.40921231820458,-90.853336520205,41.191314058226695,16.934270282890513,70.10446264046035,25.374200769022817,24.046955080283556,4.3006606898297,238.1019202102147,181.3969864069054,92.36719641371769,71.30877042625296,168.35734637462411,74.10265530487125,147.02546002426578,60.46566213563513,30.78906547123923,23.76959014208432,56.119115458208036,24.700885101623747,49.00848667475526,-139.99999999,-169.24589448928305,-149.99999999,-57.79467409062465,-124.01156882645466,-44.60739108497398,-73.82296954037122,-1.3226099326857366e-08,116.84874417917206,131.9419810294337,1.024733735164211,1.054441361483167,1.0377677046983071,1.0131148135381394,1.0122764328047025,1.0146616877340697,1.0027196184567797,1.001223683949936,1.0302439698951544,1.0286125959197034,1.023724458573992,1.0285077608961464,1.0273556669757806,1.02427824237458,1.0327656355503136,1.042796909720788,1.0431670134663529,1.0397774922770557,1.0472099298209507,0.9825678946670631,1.0369690995780052,1.049131202545223,1.0463948910146257,1.0509282317368172,1.06,1.0598628865378346,1.0466799290054891,1.0578496725765223,1.0566915284004783,-439.96999129726737,346.85873625164345,481.24307101135287,-162.55305794132838,195.16687390965336,-23.233877105059605,-7.220967182883214,-256.56559636397867,-413.5637106302265,406.3427434473417,478.34151717436066,-397.79242374758155,266.4266122271083,179.81280163210852,173.78380864587496,346.46254679985236,158.20074500692976,191.03182741820876,-65.53376894576945,-303.0808685038189,201.65347617460736,-400.5227365036418,-307.14958122239955,-102.02640375151441,160.97051529603687,40.68296087857067,-582.6531974349689,8.451604179974652,332.01636938086483,-573.4321416637227,139.38418779515393,220.23563517400368,-86.7790373394503,-132.5349729406806,-276.1661880067943
11,459.4918944030584,505.5289035702799,367.7770585391759,485.5179821853712,357.7690928335251,484.3217097382089,414.83552727268676,510.86575613622546,450.3803594512961,544.3055909605823,96.04016964969155,327.92153990814114,466.7964772228957,245.9008847914541,518.8652871876238,6.898892156088631,9.46739351727133,295.6677261745533,291.0415401869504,146.6801361427836,638.686637864417,267.0915793754844,248.28555681710156,309.38586157206396,225.89006244741992,132.63265481284998,279.3307290875207,190.05263113041804,255.49503900600385,9.546951880479366,1099.062226985143,43.493601419225065,2.4441357011786917,171.7811036180256,88.34762327836674,175.53948221711565,-70.68711039930812,97.67064824383084,141.3661315772083,28.573379173369293,27.850658761288027,96.7422407353455,112.1004803948201,84.86851760293655,-92.43479078724658,47.59826315856348,16.221259941139927,75.05149482600646,25.463362229123973,24.242739150834225,4.773475940239683,248.88184487888205,133.17427971217364,435.6786888056412,209.83539542241417,261.95423963985354,192.9021355696868,285.7935939463812,44.39142657072455,145.2262296018804,69.94513180747138,87.31807987995117,64.30071185656226,95.26453131546039,-139.99999999,-169.24589448928305,-149.99999999,-57.79467409062465,-124.01156882645466,-44.60739108497398,-73.82296954037122,-1.3226099326857366e-08,116.84874417917206,131.9419810294337,1.024733735164211,1.054441361483167,1.0377677046983071,1.0131148135381394,1.0122764328047025,1.0146616877340697,1.0027196184567797,1.001223683949936,1.0302439698951544,1.0286125959197034,1.023724458573992,1.0285077608961464,1.0273556669757806,1.02427824237458,1.0327656355503136,1.042796909720788,1.0431670134663529,1.0397774922770557,1.0472099298209507,0.9825678946670631,1.0369690995780052,1.049131202545223,1.0463948910146257,1.0509282317368172,1.06,1.0598628865378346,1.0466799290054891,1.0578496725765223,1.0566915284004783,-446.0846976302397,350.04452798054785,401.143301188563,-208.52481553634894,143.39079304094548,-70.16903176052392,11.961492457521786,-335.3671766394723,-436.37042009398374,448.3319125515052,528.0452596276743,-553.862967469284,282.14437483621987,211.61100020010088,204.71210804401233,326.7223268081268,41.05473173104906,240.1253863582623,-95.24179028120989,-181.074121033349,261.7353903899664,-204.60043715447938,-340.82267156529264,-188.42794289049385,216.84916790330726,44.88622248665922,-607.914250940777,138.36169843728555,304.9116688928707,-414.83552727268676,76.4508781524566,234.44450660086187,-122.35478379007313,-168.27149947118204,-312.40741492049096
12,737.769200839218,669.2761608334188,651.6938863115207,569.1292650584697,717.568601601286,690.3959722615143,694.7363060098813,709.7146324253594,537.8218513580872,571.4876068710026,124.78085009175776,361.09117395967564,589.4547175557315,268.70013633744713,649.3263819646304,7.919856471277692,9.462579123272576,365.92453401369977,394.6844560491795,196.2971908500086,791.4607684645804,316.4809922937942,325.00812694772145,362.2625587760875,274.8273198844155,162.76984684049447,330.0206864156152,226.32952377671157,324.0244652119418,10.585552172793488,1205.2393518838987,56.50936038991488,2.6913627872770856,216.91933606050918,96.53897113920256,219.67632002864698,-81.14806784416834,97.62098040421886,174.9576678253002,38.748656323369296,37.27161851582442,119.8830281644879,132.82961355396472,111.09368702940299,-108.23268930380839,57.91004240421612,19.907103570420187,88.67103852092153,30.323761438044855,30.745178533337686,5.292776086396744,272.9255778722597,95.39533046830542,202.60939756968833,107.43445885660138,170.73215523641883,124.71670274145701,102.49233134566141,31.798443489435137,67.53646585656277,35.81148628553379,56.91071841213961,41.57223424715234,34.1641104485538,-139.99999999,-169.24589448928305,-149.99999999,-57.79467409062465,-124.01156882645466,-44.60739108497398,-73.82296954037122,-1.3226099326857366e-08,116.84874417917206,131.9419810294337,1.024733735164211,1.054441361483167,1.0377677046983071,1.0131148135381394,1.0122764328047025,1.0146616877340697,1.0027196184567797,1.001223683949936,1.0302439698951544,1.0286125959197034,1.023724458573992,1.0285077608961464,1.0273556669757806,1.02427824237458,1.0327656355503136,1.042796909720788,1.0431670134663529,1.0397774922770557,1.0472099298209507,0.9825678946670631,1.0369690995780052,1.049131202545223,1.0463948910146257,1.0509282317368172,1.06,1.0598628865378346,1.0466799290054891,1.0578496725765223,1.0566915284004783,-514.6763304599626,389.89548036820497,464.91385665149335,-214.91869580973184,157.5039744879639,-53.6812917961463,-54.828345968327994,-377.1223970994397,-589.7813205081529,534.9529745398243,634.8496648782236,-553.7701274231081,366.1495285407764,251.7761211159692,243.85626464469124,445.4449021184655,206.2489841930551,291.0705773348293,-86.05181976460972,-344.54189492170826,432.84020545595695,-495.23709819517546,-471.72190267607573,-205.10755555559308,249.97848264615436,182.86172280980213,-788.20289496987,72.92523252806302,442.65341159022285,-694.7363060098812,219.96861673121222,147.15896360581314,-17.639490385320755,-72.32070332977423,-243.96901416203218
13,520.0035329239311,462.83994191401393,380.25978464307855,441.33974308282393,525.3672525730062,537.5594105031358,521.5871903000291,458.2400378415657,445.94975816665834,463.3963971126032,89.72012698466439,307.79699582305204,475.77272582558385,223.3053735657924,483.1706798056119,6.046656753756515,8.181305997629496,319.5780593282998,308.9786576535153,136.86242020764277,643.0624658227606,266.21027470491236,235.4594594435208,270.65070024851633,208.12619454994245,115.973662211351,267.0103708029723,192.49881085824993,274.57629971785536,7.915856227883092,1043.1626891189685,40.63145095002219,2.2941390993022512,175.08436310381487,80.22947553262003,163.46349052427405,-61.95497535387444,84.40268790051532,152.79825961634333,30.334378851697704,25.986535482463818,97.40504997021226,111.73058974841211,80.48432431887622,-80.86193960762543,43.855162423023586,14.18382919131631,71.74122062499791,25.791102814017954,26.05327147234677,3.957928113941546,236.2234350359983,172.85544580884738,289.1812461190969,211.3475191563466,213.19015400218157,167.93855437170154,113.90739065979697,57.61848193628246,96.39374870636563,70.44917305211553,71.06338466739385,55.97951812390051,37.969130219932325,-139.99999999,-169.24589448928305,-149.99999999,-57.79467409062465,-124.01156882645466,-44.60739108497398,-73.82296954037122,-1.3226099326857366e-08,116.84874417917206,131.9419810294337,1.024733735164211,1.054441361483167,1.0377677046983071,1.0131148135381394,1.0122764328047025,1.0146616877340697,1.0027196184567797,1.001223683949936,1.0302439698951544,1.0286125959197034,1.023724458573992,1.0285077608961464,1.0273556669757806,1.02427824237458,1.0327656355503136,1.042796909720788,1.0431670134663529,1.0397774922770557,1.0472099298209507,0.9825678946670631,1.0369690995780052,1.049131202545223,1.0463948910146257,1.0509282317368172,1.06,1.0598628865378346,1.0466799290054891,1.0578496725765223,1.0566915284004783,-439.7143530699037,349.99422608523935,325.02868955021006,-129.04765489725241,132.22363170424,-114.99193797708188,-4.815300247740197,-338.7337938736042,-438.2915107691897,433.47621052144905,508.8185655248385,-475.9259731243151,285.51319195904534,235.81872267488245,229.7720659211261,322.42641345473476,57.83337118834402,185.33375164023107,-153.4000422333727,-261.63058240532604,420.99016455432667,-323.64452983306944,-408.191190005252,-259.7636847748466,251.85435818472456,169.13580636960222,-674.4014647101646,76.34809979515308,362.4758306516612,-521.5871903000291,121.06618839437107,97.87456443337032,-23.137162773498517,-69.64487547685164,-215.63597363174813
14,480.09551323742176,468.75261729119546,430.4509057632966,548.7263181054225,577.6948536292753,551.7781274630477,603.4296743419783,505.25230958880815,630.7470694154388,646.5702553478566,88.41608142577905,312.06670943188306,470.7957145947897,222.42986150037072,536.41669240772,7.0640284383470835,8.333097533132332,315.35288374577067,322.3894705678547,162.74769245897542,615.8137298101677,250.02674111763054,234.35171141446565,309.73197964234856,199.6349484654902,129.9010083216825,260.36858811887316,220.1084345077047,269.10402578515385,8.684554921124391,1107.7344091358855,40.040889334215514,2.325963051666209,173.2528229708826,79.91492029953439,181.47737141609838,-72.37912215291011,85.96864981426089,150.77809754094662,31.651002733561416,30.901460593476347,93.27766789771657,104.93823076104931,80.1056759016719,-92.53820000980083,42.065935569514004,15.887173679630234,69.95668470809582,29.490256273847816,25.534032781730648,4.342277460562196,250.8456542427277,164.40249079433406,118.7515260820278,80.60535355477381,80.60799055259254,90.2554245271922,120.16292722979841,54.800830264778014,39.5838420273426,26.868451184924602,26.869330184197512,30.085141509064066,40.054309076599466,-139.99999999,-169.24589448928305,-149.99999999,-57.79467409062465,-124.01156882645466,-44.60739108497398,-73.82296954037122,-1.3226099326857366e-08,116.84874417917206,131.9419810294337,1.024733735164211,1.054441361483167,1.0377677046983071,1.0131148135381394,1.0122764328047025,1.0146616877340697,1.0027196184567797,1.001223683949936,1.0302439698951544,1.0286125959197034,1.023724458573992,1.0285077608961464,1.0273556669757806,1.02427824237458,1.0327656355503136,1.042796909720788,1.0431670134663529,1.0397774922770557,1.0472099298209507,0.9825678946670631,1.0369690995780052,1.049131202545223,1.0463948910146257,1.0509282317368172,1.06,1.0598628865378346,1.0466799290054891,1.0578496725765223,1.0566915284004783,-416.6368457787388,328.2207643529597,440.0218866920751,-223.5036243852844,232.0902928796732,-104.13511561948121,51.764861302181544,-290.470283017298,-365.46688098292,417.2317422851004,481.6222294964075,-422.4891457423389,259.1923679960364,140.00741787341627,132.9433894350691,353.6756731727901,76.7752325905069,118.38018856985343,-172.09009444744402,-406.8376246384409,313.3411314285999,-510.6074419245298,-379.60450213151904,-152.35628257884656,266.8828080784566,46.458323350143246,-629.63124324915,2.7548747664905022,371.832837694003,-603.4296743419782,82.11373673803358,213.91026476872986,-104.25966928765877,-157.4378670647202,-324.3681037953634
15,650.0990025560767,451.09147630321854,536.7296989373958,453.2707415455303,605.1230778929921,449.0456553464796,429.19870513796013,448.35204273508515,484.59789257758456,548.6013907041792,96.14597179896323,306.33945901306754,461.5725271452693,231.4475181783692,483.20541134110874,6.628036021385286,8.085896418879688,330.79268197542416,302.7158006281673,145.43036427826175,656.0358720485896,263.6836059589945,240.94149442717412,295.13362944791544,213.10968655295218,147.30901840884786,260.6699777930079,190.94846584836506,270.16408689291234,9.128510827234882,1020.913629741666,43.541515917153426,2.2832754709048513,169.8586899894591,83.15479695031229,163.4752406950954,-67.91187677296308,83.41839212912224,158.16025106949968,29.719514772917336,27.61336030599907,99.37013944265401,110.67012658862909,82.35818354965225,-88.17667088495725,44.90525538080064,18.01621088453535,70.03766307249856,25.583386686479983,25.634617063207553,4.564255413617441,231.18515166251495,178.86044559773663,179.87053396841043,99.33008705125414,212.66164688246872,113.40560263210374,143.6433216249918,59.620148532578874,59.95684465613681,33.11002901708471,70.88721562748957,37.80186754403458,47.881107208330604,-139.99999999,-169.24589448928305,-149.99999999,-57.79467409062465,-124.01156882645466,-44.60739108497398,-73.82296954037122,-1.3226099326857366e-08,116.84874417917206,131.9419810294337,1.024733735164211,1.054441361483167,1.0377677046983071,1.0131148135381394,1.0122764328047025,1.0146616877340697,1.0027196184567797,1.001223683949936,1.0302439698951544,1.0286125959197034,1.023724458573992,1.0285077608961464,1.0273556669757806,1.02427824237458,1.0327656355503136,1.042796909720788,1.0431670134663529,1.0397774922770557,1.0472099298209507,0.9825678946670631,1.0369690995780052,1.049131202545223,1.0463948910146257,1.0509282317368172,1.06,1.0598628865378346,1.0466799290054891,1.0578496725765223,1.0566915284004783,-374.87742501518704,278.7314532162238,358.217462315434,-103.14296542966576,74.4340688527559,-22.556065550389576,-102.27814913881207,-284.86030915370156,-511.4995403495368,409.22139121072223,505.64036015140505,-419.64908551900976,274.1928419730348,200.20882184264872,193.58078582126336,327.90617594744754,208.82352298994874,288.8652509679175,4.00494181421675,-227.45765310995353,276.7373738167403,-402.3579473899328,-295.33526587262315,-109.21761429230492,167.9864298286509,108.7509439880896,-559.0188718316174,102.6884303973308,290.94564110811666,-429.19870513796013,132.09939075246746,151.91903380491874,-60.49775605616685,-106.6309054051319,-251.44622190453208
16,711.8250455967692,765.1414438958477,719.4133863262754,670.5962511914743,597.1168988342607,662.3931408809613,589.1000954563934,775.4547999758123,813.4220919940559,829.6607477864563,122.60492489363901,447.2210823793133,583.0243999945324,280.5229630337652,668.3540458059283,7.927254196265508,10.436876683497028,389.52453919448334,400.8218923211538,197.49381915546465,874.4916813549349,359.6104034898762,313.58489749156297,431.7718246219654,267.6120026390667,173.2385408899559,378.5500091671872,268.4531251000273,383.892428386056,10.513869879002751,1298.1846995650044,55.52395164240619,3.333324837609789,214.5529791979879,100.78669330554439,226.11364844698645,-81.22386607250505,107.67235031040312,186.24142030236234,39.351207057669505,37.49882642192367,132.45976938170338,150.93137372750277,107.18901950620699,-128.9998776090253,56.38967198466048,21.187447446973025,101.7100558438528,35.967506081362885,36.42577186449702,5.256934939501376,293.9729845029448,101.62700877958699,133.89804127205514,98.10209866004338,237.86170735917258,102.00466304091599,121.56728009746023,33.87566959319566,44.632680424018375,32.70069955334779,79.28723578639085,34.00155434697199,40.52242669915341,-139.99999999,-169.24589448928305,-149.99999999,-57.79467409062465,-124.01156882645466,-44.60739108497398,-73.82296954037122,-1.3226099326857366e-08,116.84874417917206,131.9419810294337,1.024733735164211,1.054441361483167,1.0377677046983071,1.0131148135381394,1.0122764328047025,1.0146616877340697,1.0027196184567797,1.001223683949936,1.0302439698951544,1.0286125959197034,1.023724458573992,1.0285077608961464,1.0273556669757806,1.02427824237458,1.0327656355503136,1.042796909720788,1.0431670134663529,1.0397774922770557,1.0472099298209507,0.9825678946670631,1.0369690995780052,1.049131202545223,1.0463948910146257,1.0509282317368172,1.06,1.0598628865378346,1.0466799290054891,1.0578496725765223,1.0566915284004783,-460.1334318591185,337.5285069654792,681.9138142227973,-275.27879340648104,194.6428583535411,40.049873489942684,-70.65357115224015,-317.7279704887512,-561.1438267089607,490.4902555567187,597.3094522923095,-518.4915241883618,316.78648925854304,138.92269900933366,130.99544481306793,448.0775339428733,271.3358523834022,324.3830267264725,6.655056237721965,-284.7673842967181,194.02467318696768,-393.2214686708003,-405.012104544399,-81.38037658964004,157.4439456655216,36.580727521446306,-764.6225080342751,135.63234020585872,411.14753817068913,-589.1000954563934,232.56400393026502,341.9692816457414,-108.89277179063298,-173.7510468147995,-377.34589689066013
17,783.7698488234925,711.0199500753378,564.3702394028085,639.915800417715,577.0851022363177,727.2797742855452,659.1625271303336,683.629262851936,673.0476105121354,619.5830477269299,124.84066348939378,384.2088264241652,639.7353259295855,300.8336104401804,639.1831495400867,7.165935187294874,10.433395310740625,387.3180135883393,410.58099529080044,198.81256504978282,870.1815170064398,324.22070368790986,316.87698013793096,408.5999318270211,295.16910225451124,156.8766635755844,329.44698157648116,235.45811325604436,385.79139794509206,10.41226575010242,1447.0317403815227,56.53644801466398,2.863668271484461,235.4225999420875,108.08393189467559,216.24472070647374,-73.42327438059056,107.63643462428783,185.18642524692473,40.30931959845852,37.74922121198408,131.80690625244603,136.0780325697432,108.31431321078368,-122.0768428854548,62.196346546486296,19.186354538021114,88.51689362642111,31.5468151741108,36.60595627768245,5.20613287505121,327.67928903567093,312.0352061097029,193.98506697030493,201.5885194555841,200.4116568227622,259.02242210704304,134.36230206034728,104.01173536990098,64.66168899010164,67.19617315186136,66.8038856075874,86.34080736901434,44.787434020115754,-139.99999999,-169.24589448928305,-149.99999999,-57.79467409062465,-124.01156882645466,-44.60739108497398,-73.82296954037122,-1.3226099326857366e-08,116.84874417917206,131.9419810294337,1.024733735164211,1.054441361483167,1.0377677046983071,1.0131148135381394,1.0122764328047025,1.0146616877340697,1.0027196184567797,1.001223683949936,1.0302439698951544,1.0286125959197034,1.023724458573992,1.0285077608961464,1.0273556669757806,1.02427824237458,1.0327656355503136,1.042796909720788,1.0431670134663529,1.0397774922770557,1.0472099298209507,0.9825678946670631,1.0369690995780052,1.049131202545223,1.0463948910146257,1.0509282317368172,1.06,1.0598628865378346,1.0466799290054891,1.0578496725765223,1.0566915284004783,-647.1448834985724,522.3042200091784,576.023086978817,-200.1128142923484,258.8037762420212,-66.98951568736948,2.0090459551702224,-382.94059564273493,-574.2048608302548,576.2139067854234,676.113261027554,-534.0509981237044,375.2796505873721,312.31040783270896,305.14447264541377,427.9519650415177,136.41827436129142,213.8709129386691,-169.0696827040648,-354.79917683682027,377.6179782127956,-346.8193856475931,-500.6814544582147,-295.49731023460777,265.802080737152,111.8158974756434,-824.9021581461245,102.78927296218308,445.07481995458573,-659.1625271303336,188.34734630507663,217.63108410083828,-64.63686060434287,-121.52354076700314,-300.0949738603871
18,695.0979204302357,630.0453955364358,635.3341443748709,528.8804899193025,478.67065845060415,496.4508320575853,532.9360852197749,703.6064948852306,500.7267462966832,619.3000199531226,109.55999291709598,356.2640572914007,559.1677542631763,274.60112215309323,575.1599429950282,7.287045361716126,8.765316270035354,375.21816405123406,360.58426475642483,170.5333131813902,803.8447072730754,324.3169951988522,274.7113111377999,332.9356687585403,247.73639612869763,160.7778980684971,299.99164135757854,232.60079896690155,304.2623503335548,10.849075801328603,1197.6715344726656,49.61630826778322,2.655384277948328,205.77373356884888,98.65908580350656,194.58476232360533,-74.66418786004523,90.42764733447964,179.4011846869963,35.400825992804016,32.379743009124724,121.75883066048053,136.11844689002922,93.9013208980116,-99.47073447679008,52.20159775568986,19.663483936434897,80.60273637899353,31.163990541196522,28.870043118069223,5.424537900664301,271.2118511034116,237.9648676537675,184.6176709291935,117.83626741862852,143.70554513811726,249.1470896644434,282.5768421681678,79.32162255125583,61.5392236430645,39.2787558062095,47.90184837937242,83.0490298881478,94.19228072272259,-139.99999999,-169.24589448928305,-149.99999999,-57.79467409062465,-124.01156882645466,-44.60739108497398,-73.82296954037122,-1.3226099326857366e-08,116.84874417917206,131.9419810294337,1.024733735164211,1.054441361483167,1.0377677046983071,1.0131148135381394,1.0122764328047025,1.0146616877340697,1.0027196184567797,1.001223683949936,1.0302439698951544,1.0286125959197034,1.023724458573992,1.0285077608961464,1.0273556669757806,1.02427824237458,1.0327656355503136,1.042796909720788,1.0431670134663529,1.0397774922770557,1.0472099298209507,0.9825678946670631,1.0369690995780052,1.049131202545223,1.0463948910146257,1.0509282317368172,1.06,1.0598628865378346,1.0466799290054891,1.0578496725765223,1.0566915284004783,-494.53019953459835,384.9702066175023,615.1857047776134,-241.70564112200844,196.01369131045874,62.90795617575395,-72.52919868535605,-290.6248642673613,-545.1545934533933,472.6253947680352,577.8240236438439,-488.7874918264074,303.2229014907507,200.68835326375643,193.40130790204057,393.4179562244158,241.91618815045558,322.3990072076226,31.77414294026198,-225.60775369234398,107.7899996327917,-203.7064410968312,-275.33963463275177,-214.9359423519768,107.6253570056358,0.16464262715601308,-599.6566298316036,40.49974736409885,298.72452144607394,-532.9360852197749,214.16445763452435,299.8269987304226,-95.12204306699587,-151.31839609739922,-327.72284203389734
19,607.5174557532946,590.0693348298901,493.65330440948713,577.5836922934536,495.3880353840903,453.10467725423985,489.2539693817092,540.6464022169408,491.87906525954224,496.7815303983754,102.68688650209909,328.3403864993359,531.8930905561825,266.36371417860113,525.381290188042,6.625117175320952,8.032076250845023,335.1114247920208,341.0221237021944,168.93104270774057,660.9715080626071,283.8299181755364,271.3663785013713,311.2541599917321,247.26856258572852,143.78918897032642,309.5631053974086,203.387482457402,296.99592043810634,9.654508243886932,1072.5543902290783,46.50369245279487,2.447257539125485,195.73665732467518,95.69953802823993,177.74393840461346,-67.88196982713467,82.86315475666613,160.22514997868495,33.48028752456194,32.075514438178594,100.11774313301254,119.12569558462295,92.75796210592328,-92.99297975125631,52.10301854484994,17.585728147449995,83.17442867439271,27.249973377787846,28.180565290247127,4.827254121943466,242.87916445404855,170.46542939287554,177.66456128011194,119.1835416119688,266.0203496099333,237.6025425082711,263.2339617875725,56.82180979762518,59.221520426703975,39.7278472039896,88.67344986997776,79.20084750275703,87.74465392919083,-139.99999999,-169.24589448928305,-149.99999999,-57.79467409062465,-124.01156882645466,-44.60739108497398,-73.82296954037122,-1.3226099326857366e-08,116.84874417917206,131.9419810294337,1.024733735164211,1.054441361483167,1.0377677046983071,1.0131148135381394,1.0122764328047025,1.0146616877340697,1.0027196184567797,1.001223683949936,1.0302439698951544,1.0286125959197034,1.023724458573992,1.0285077608961464,1.0273556669757806,1.02427824237458,1.0327656355503136,1.042796909720788,1.0431670134663529,1.0397774922770557,1.0472099298209507,0.9825678946670631,1.0369690995780052,1.049131202545223,1.0463948910146257,1.0509282317368172,1.06,1.0598628865378346,1.0466799290054891,1.0578496725765223,1.0566915284004783,-475.25982966140043,372.5729431593012,461.8982180236342,-176.62328346226877,198.97265085639276,-65.4148193320948,-12.522819403137191,-320.39762029665314,-467.73420026091753,455.21138085778057,546.3586573555863,-461.25548787328694,279.99494317698554,209.8250338467226,203.19991667140152,364.84285430224963,128.8104501072371,202.03030156546765,-118.36731873118464,-334.2952019112365,316.21397608702,-412.000219614937,-339.5620776688724,-239.96900441664127,234.34586203983508,81.86811404718469,-623.3919958444086,95.73303101976444,313.6206219001022,-489.2539693817092,116.75455616894365,227.69499135022386,-102.79560419494915,-151.93401995665738,-306.1830866523509
20,603.9679602878969,669.4513278781656,521.8530165822363,625.1374475804977,511.58625961672715,480.10314723533384,607.634935915798,460.9309878753792,466.05743679365935,511.1974442736306,94.49051006425572,340.25638344621535,530.0774812845339,272.43291142200724,553.7066921022049,6.7815934859167815,8.795321115662286,382.186346353223,345.555315091579,168.04193303958863,741.2577640287165,287.1564491463485,252.07607512259983,311.5994381314126,231.48284557041998,153.77666529030395,289.0185322341941,235.27488147498488,340.7232198831425,10.46673847939218,1164.013568755767,42.79180886106662,2.536072423201605,195.06851311270844,97.8800879360505,187.32682342001797,-69.48525017877809,90.73719322136944,182.73284685013473,33.9253394451611,31.906696146757337,112.27874955140851,120.52186734244553,86.1641856782705,-93.09613802889257,48.776742459481355,18.807218057087535,77.65444549352902,31.522265673347494,32.32964590778319,5.23336923969609,263.59002915665013,97.44609562350094,185.0553658999183,300.4897940961966,233.77512881905548,236.93481920176367,254.48451519612345,32.48203187450031,61.685121966639436,100.16326469873219,77.92504293968516,78.97827306725455,84.82817173204114,-139.99999999,-169.24589448928305,-149.99999999,-57.79467409062465,-124.01156882645466,-44.60739108497398,-73.82296954037122,-1.3226099326857366e-08,116.84874417917206,131.9419810294337,1.024733735164211,1.054441361483167,1.0377677046983071,1.0131148135381394,1.0122764328047025,1.0146616877340697,1.0027196184567797,1.001223683949936,1.0302439698951544,1.0286125959197034,1.023724458573992,1.0285077608961464,1.0273556669757806,1.02427824237458,1.0327656355503136,1.042796909720788,1.0431670134663529,1.0397774922770557,1.0472099298209507,0.9825678946670631,1.0369690995780052,1.049131202545223,1.0463948910146257,1.0509282317368172,1.06,1.0598628865378346,1.0466799290054891,1.0578496725765223,1.0566915284004783,-497.8341766323315,403.34366656807583,377.56133074508574,-108.49808387575058,166.3606535494664,-129.05570625059636,15.028558160850253,-378.7453858959175,-482.1785178040345,497.2070759648841,585.186578959306,-520.7988923082505,312.7536675372985,256.25405139997747,249.47245791406067,417.30314396394647,104.54987261828978,177.31416905824256,-201.43121683767458,-283.12776909470097,474.39892775381844,-395.46594316850843,-405.52689904569286,-302.089169725897,297.09763929018425,177.30128846363408,-692.6833481920413,21.194927862347868,376.75378865554575,-607.634935915798,120.9500584292087,111.71724377056012,-43.850719633649334,-100.69313099800574,-279.12560110863456
21,723.3281384299435,667.0223533119419,655.5310128054822,603.8108137549715,719.0831035284333,640.2505329816074,543.7472303393993,571.0973347012682,700.6967271728435,538.9812310059242,109.25067307849304,376.7550903252848,574.0893957731816,264.2070722215576,585.0581516944994,7.3602564197257285,9.606892247631158,354.7340298023593,379.4041373737291,175.53600147950658,769.995972214773,292.724991587627,290.29894753260544,357.87390793090725,259.7292110961088,164.55560356050233,317.3820476317528,222.20118510746266,309.2468245034249,10.336814350075558,1263.971119579784,49.476226947432295,2.8081124744741723,211.26489764453083,94.92469660654764,197.9334666460701,-75.41431962365131,99.10979106583143,169.60720799925306,37.24849129839346,33.32962053408353,116.63174285017885,122.85902931597484,99.22945842932695,-106.9214980921246,54.728655195251505,20.125505471428344,85.27524767330014,29.770644218281408,29.34299675182409,5.168407175037779,286.22534410774097,78.45817190432268,215.055831557584,159.62700787741545,87.06800097183422,105.83062981460264,139.4531144861278,26.15272396810756,71.68527718586134,53.20900262580515,29.022666990611405,35.276876604867546,46.484371495375925,-139.99999999,-169.24589448928305,-149.99999999,-57.79467409062465,-124.01156882645466,-44.60739108497398,-73.82296954037122,-1.3226099326857366e-08,116.84874417917206,131.9419810294337,1.024733735164211,1.054441361483167,1.0377677046983071,1.0131148135381394,1.0122764328047025,1.0146616877340697,1.0027196184567797,1.001223683949936,1.0302439698951544,1.0286125959197034,1.023724458573992,1.0285077608961464,1.0273556669757806,1.02427824237458,1.0327656355503136,1.042796909720788,1.0431670134663529,1.0397774922770557,1.0472099298209507,0.9825678946670631,1.0369690995780052,1.049131202545223,1.0463948910146257,1.0509282317368172,1.06,1.0598628865378346,1.0466799290054891,1.0578496725765223,1.0566915284004783,-537.5568346760214,428.3061615975282,426.39527516553153,-218.47158462528841,132.56166049913531,-82.92147565888854,-63.523801743332115,-378.0039335307147,-590.1597671112813,526.6359653679483,626.673241944168,-558.5645941082892,362.46616972260927,304.043983396058,296.6837269763321,444.38133546395557,211.14967734152606,302.4153580071468,-75.58857552356733,-270.6955974485113,338.7967573026963,-552.897945068632,-342.6641465789559,-93.33440047734894,258.4574771383948,80.33928016430184,-635.3891381665826,91.9293957868592,345.3776785936531,-543.7472303393993,92.89653897987091,237.04276746745165,-127.50901286305984,-181.19281918502287,-349.71019797052287
22,452.59996663704845,415.2440437029268,494.14166795695644,442.4992995381454,391.9200167135712,530.2029596824399,553.6269047946171,555.834126140397,447.883465034145,583.0753340210216,86.29553517717098,288.9484717275251,489.372847868403,219.14643259715038,485.037783011993,5.964799009914759,8.063360271290328,302.2947980491691,310.0281059634053,138.28055668292498,646.5458128515421,254.21627866899172,223.90357904503927,295.99002379055116,196.38440944201133,128.02515610371438,256.1285799742202,201.1552535590846,238.0137701150232,7.806282906117464,1003.1869993323129,39.0805599880221,2.1536532054225472,180.08920801557232,78.73524524448517,164.09515800750566,-61.11624831697276,83.18589728880997,144.534700317259,30.437409795191464,26.2558019018212,97.93267459368946,106.69661330997828,76.53431429175889,-88.4325346516164,41.38100056099525,15.657752904770824,68.81746543791326,26.950898049663767,22.584022631725304,3.903141453058732,227.1709690517013,127.27204153840091,157.17457788869936,184.36348712288807,213.37763134633119,80.61389608468355,196.81309755529273,42.42401384613363,52.391525962899784,61.454495707629356,71.12587711544373,26.871298694894513,65.60436585176424,-139.99999999,-169.24589448928305,-149.99999999,-57.79467409062465,-124.01156882645466,-44.60739108497398,-73.82296954037122,-1.3226099326857366e-08,116.84874417917206,131.9419810294337,1.024733735164211,1.054441361483167,1.0377677046983071,1.0131148135381394,1.0122764328047025,1.0146616877340697,1.0027196184567797,1.001223683949936,1.0302439698951544,1.0286125959197034,1.023724458573992,1.0285077608961464,1.0273556669757806,1.02427824237458,1.0327656355503136,1.042796909720788,1.0431670134663529,1.0397774922770557,1.0472099298209507,0.9825678946670631,1.0369690995780052,1.049131202545223,1.0463948910146257,1.0509282317368172,1.06,1.0598628865378346,1.0466799290054891,1.0578496725765223,1.0566915284004783,-373.06254709422524,286.7670119170542,407.9378660934387,-238.48432794633626,177.11963252288962,-58.13023815697625,-9.780145485120784,-302.47306986039234,-394.08125600596486,384.3011105208434,459.1925574924528,-450.3338093774943,240.04612489530246,139.30945240415195,133.34465339423707,364.2627998002174,129.87886815673892,192.91907619687197,-109.55399366352043,-227.48530458980144,254.07160325045692,-187.87350340017466,-427.80557362174454,-175.90593678174451,196.4107948399011,57.66080841055583,-682.0218522907364,61.55873873803512,391.2820644876124,-553.6269047946172,120.96538875204921,198.4677715636646,-78.46421482772747,-127.06332408760225,-279.61946838681195
23,642.3091133492234,532.1651355778806,544.7020121710544,680.4248490100459,559.0865581816727,630.2256283731971,676.0602303989978,535.9302203725781,728.7540947071107,757.1522838627558,107.88460471107267,346.9265590015145,545.7504170598,273.8070922085127,563.4125242440024,7.807858347960489,9.080347600824298,371.55916806911404,380.1339067606482,174.83924023537918,804.8846630472127,313.36905367414425,285.42387228727034,355.8230698091536,258.1701327701129,150.13127577108352,294.4919725379522,238.73577512182513,307.39061910199786,10.253936435138032,1188.1786844235394,48.85757713349807,2.5857880174025922,200.83615347800642,98.37380558389678,190.6104440258445,-80.00051784217978,93.67767747626476,177.65172723304516,37.32013735066546,33.197324095325165,121.9163533733278,131.52350792892915,97.5630690727397,-106.3087719909396,54.400135119416646,18.36137905113971,79.12506735450319,31.985958220205703,29.166870031194858,5.126968217569016,269.0622020886638,128.92276037307064,151.33626245289938,77.92301933770824,114.08734707748454,171.10585430761793,111.9324064766151,42.97425345769021,50.44542081763312,25.97433977923608,38.02911569249484,57.03528476920597,37.310802158871695,-139.99999999,-169.24589448928305,-149.99999999,-57.79467409062465,-124.01156882645466,-44.60739108497398,-73.82296954037122,-1.3226099326857366e-08,116.84874417917206,131.9419810294337,1.024733735164211,1.054441361483167,1.0377677046983071,1.0131148135381394,1.0122764328047025,1.0146616877340697,1.0027196184567797,1.001223683949936,1.0302439698951544,1.0286125959197034,1.023724458573992,1.0285077608961464,1.0273556669757806,1.02427824237458,1.0327656355503136,1.042796909720788,1.0431670134663529,1.0397774922770557,1.0472099298209507,0.9825678946670631,1.0369690995780052,1.049131202545223,1.0463948910146257,1.0509282317368172,1.06,1.0598628865378346,1.0466799290054891,1.0578496725765223,1.0566915284004783,-399.6546464752895,291.7700417642168,448.9352305701141,-187.5019810944524,177.6900449402293,-75.68137337162977,-47.95253684992258,-320.10783526964815,-489.9426703162371,441.9901334663127,542.2937001307303,-454.244196344534,268.48660792221744,147.06421714452733,139.25635879656693,373.20611426062896,171.4958979104258,232.713730678596,-87.3941045910517,-381.0302533224576,310.3256484481292,-434.626744144506,-413.62431761009884,-223.23874677663025,250.52061360700895,59.80503484112023,-726.993371284243,17.31960416643858,407.955962278166,-676.0602303989978,90.25810650801282,234.68693769683193,-118.44077184523496,-176.11933511466785,-357.17654696706006
24,527.0879568608885,446.0652486172975,481.27663176667227,395.1389446248738,455.8882642408748,411.10230686820836,392.68655946574864,537.8960215253937,445.41643701006967,436.34082363075834,84.18946921500199,285.82360467419954,434.23585470954606,212.4231391950872,473.00568472489084,5.459723780544711,7.330334221464675,299.6151180336359,272.4541053211489,150.92409680326267,561.0727070405774,226.86413977764036,197.7409120542471,290.02099402262445,194.69537381388685,113.06615197978293,296.1646849137698,160.5673915771282,244.4973723653504,8.703072826415289,1011.9650728506821,38.12678831253164,2.130362270863599,159.79879453311295,76.31969072877385,160.0245285870033,-55.9411698129658,75.62361213234367,143.25347830983216,26.748533744295166,28.656474076568863,84.9860129782051,95.21670100156439,67.59143902945175,-86.64917579029805,41.02509662506901,13.828234414793597,79.57449719213389,21.5129126579065,23.199221575407144,4.351536413207644,229.15875743901316,244.40193388421105,166.03140414526072,100.83372477650626,115.34331672742456,195.21746610559765,219.037929090582,81.46731129473702,55.34380138175357,33.61124159216875,38.447772242474855,65.07248870186588,73.012643030194,-139.99999999,-169.24589448928305,-149.99999999,-57.79467409062465,-124.01156882645466,-44.60739108497398,-73.82296954037122,-1.3226099326857366e-08,116.84874417917206,131.9419810294337,1.024733735164211,1.054441361483167,1.0377677046983071,1.0131148135381394,1.0122764328047025,1.0146616877340697,1.0027196184567797,1.001223683949936,1.0302439698951544,1.0286125959197034,1.023724458573992,1.0285077608961464,1.0273556669757806,1.02427824237458,1.0327656355503136,1.042796909720788,1.0431670134663529,1.0397774922770557,1.0472099298209507,0.9825678946670631,1.0369690995780052,1.049131202545223,1.0463948910146257,1.0509282317368172,1.06,1.0598628865378346,1.0466799290054891,1.0578496725765223,1.0566915284004783,-453.68484394811935,369.49537473311716,456.0693793181102,-219.28704076472079,170.6454165562207,-0.39964191231024415,-7.089525974844264,-256.50091217848114,-419.5265266398137,412.43700066496945,484.58042152236067,-424.66802956718334,272.15728232727315,211.5885982673513,206.1288744868068,335.9518869711453,145.32474479552639,215.3096721232854,-41.19124005519524,-239.9726333123249,177.2513665041654,-289.9545018251714,-248.29106590181573,-151.432537410652,151.32373871557274,25.92762778859276,-475.1552056794561,51.290417916177034,246.2360653276786,-392.6865594657487,123.91360694678613,270.23705712517693,-110.29826017656967,-149.0913419816038,-270.86565175369776
25,478.76951226217983,496.60619556455293,464.2718883227013,457.32517113059873,441.14320151818134,501.9509259884825,427.2420089973365,530.3727834838944,430.18510302855475,575.1927648587583,93.47960472882893,320.5034297773229,486.88480366525107,227.77648568142737,550.7305837778595,6.07698089484004,8.44386172229393,309.7427926128255,311.9879546407667,148.3677778582529,626.6570980969021,228.7839671419006,237.68959800392818,281.0436424197625,202.71816673625614,130.9899343775711,242.51582307183207,186.12504343001063,286.2673930256092,8.068301537035945,1019.3620720788969,42.3340013218672,2.3888454393340837,179.1736077488124,81.8358631190757,186.31996378385054,-62.26568116866871,87.11135188298546,148.0957727180072,30.629820470810834,28.17109706169359,94.92011927056016,96.02246796101667,81.24662622679728,-83.96702472813384,42.71561370513969,16.02035168646553,65.15994534492286,24.937141741108224,27.162585087791488,4.034150768517972,230.833802554098,269.37661289175253,237.03913721427594,128.93520845829744,174.52745768369465,150.37055244742183,192.21038053516472,89.79220429725083,79.01304573809198,42.978402819432475,58.17581922789822,50.12351748247394,64.0701268450549,-139.99999999,-169.24589448928305,-149.99999999,-57.79467409062465,-124.01156882645466,-44.60739108497398,-73.82296954037122,-1.3226099326857366e-08,116.84874417917206,131.9419810294337,1.024733735164211,1.054441361483167,1.0377677046983071,1.0131148135381394,1.0122764328047025,1.0146616877340697,1.0027196184567797,1.001223683949936,1.0302439698951544,1.0286125959197034,1.023724458573992,1.0285077608961464,1.0273556669757806,1.02427824237458,1.0327656355503136,1.042796909720788,1.0431670134663529,1.0397774922770557,1.0472099298209507,0.9825678946670631,1.0369690995780052,1.049131202545223,1.0463948910146257,1.0509282317368172,1.06,1.0598628865378346,1.0466799290054891,1.0578496725765223,1.0566915284004783,-410.5502514658581,317.07064673702905,510.17452908258133,-154.7419720921339,203.00233889216497,-13.331239586906463,5.832780364006226,-289.71524513709244,-412.59529225794086,418.4280726219463,493.2546382152909,-476.45230885456135,265.4781525338626,133.17564137794977,127.09866048310971,350.5219434109972,113.749944911704,216.41485496012263,-73.3003901769693,-254.10797433149747,212.28908313095792,-271.8112745518779,-338.2989086357173,-168.27482891562693,161.69901744515926,50.59006568579872,-567.0828757776178,109.39550789455927,298.9479188879676,-427.2420089973365,172.9126446555044,191.9257573860334,-52.5176183077047,-97.48542880039521,-238.64266173771517
26,581.8340975811059,685.2412613399165,623.4905621306566,539.32993226668,588.4587567555525,472.28841923849996,658.5109631065509,508.45028255956083,525.4528379342173,575.8566541323843,110.12676798047065,369.5922548750687,555.830939758036,261.4841707838926,528.8083309206305,7.04575382151823,9.719053769720471,363.05907937477696,347.3445901313496,167.78558634952364,709.1820586897446,293.73320193580247,272.7880772366909,357.6758274198127,228.52348197015934,159.25636004547513,324.37144119502693,219.83048403372754,296.22645264470896,9.940938924551018,1169.1198428660728,49.87298304033609,2.7547248810564127,204.54578583095727,93.94640866487158,178.9033548670179,-72.19187761740217,100.26690876147732,173.58762232606523,34.10100383356411,31.8580227245931,107.42022359565249,123.28218329422366,93.24392458272345,-106.86231784869324,48.15316227228357,19.477396552324297,87.1531808193044,29.45301630743146,28.107554060467976,4.970469462275509,264.7463412287303,248.8273632726531,182.82289405461094,120.99932469624754,260.9029360807816,90.80255047762776,147.6992525122188,82.94245442421769,60.94096468487031,40.33310823208251,86.96764536026053,30.26751682587592,49.2330841707396,-139.99999999,-169.24589448928305,-149.99999999,-57.79467409062465,-124.01156882645466,-44.60739108497398,-73.82296954037122,-1.3226099326857366e-08,116.84874417917206,131.9419810294337,1.024733735164211,1.054441361483167,1.0377677046983071,1.0131148135381394,1.0122764328047025,1.0146616877340697,1.0027196184567797,1.001223683949936,1.0302439698951544,1.0286125959197034,1.023724458573992,1.0285077608961464,1.0273556669757806,1.02427824237458,1.0327656355503136,1.042796909720788,1.0431670134663529,1.0397774922770557,1.0472099298209507,0.9825678946670631,1.0369690995780052,1.049131202545223,1.0463948910146257,1.0509282317368172,1.06,1.0598628865378346,1.0466799290054891,1.0578496725765223,1.0566915284004783,-491.3952913416063,381.2685233611354,528.0055394413359,-85.3322061703729,181.63425772779965,-23.220973161532584,-38.16856252526168,-336.02811950497505,-495.6587386205174,457.49017609525436,551.8427448033408,-525.1317181798058,290.3585740194476,219.0404191940711,211.99466537255284,427.2319604355687,196.2586016950886,271.46268423574156,-64.5654352692327,-306.62518994776224,322.94461256453053,-418.6066303324877,-413.87032842157504,-144.4374338895791,191.0065595110559,131.9380530534745,-707.6035303573773,25.587824961904516,411.31071083176414,-658.5109631065511,194.59459441902845,192.43338814155288,-51.99205441272534,-105.10309935527394,-271.8225384464531
27,434.6525211349537,388.430686128882,452.63631513461957,431.14770830823545,484.3775526905939,366.64603806305195,420.0667906408814,423.6444417991988,501.0698514926061,520.1122382911834,79.95207375231954,281.97987409737704,391.2743271913618,197.22302769000933,401.8960403089817,5.407275866218693,7.573319152774305,279.84905089429066,290.5769730695965,128.81008644619519,586.6258115416904,220.41333637338843,198.21711990913698,266.74995728238827,202.49877380485293,115.66876645378511,263.3990622287686,168.3920358466637,232.77521171177415,8.780514521829714,981.8524181545057,36.20780389193159,2.1017133473096425,143.98895240642113,70.85857282275785,135.96712781334514,-55.40378041387152,78.13037344011008,133.80282745883272,28.52776969649838,24.45761135054339,88.85655674822662,92.50924701802799,67.75421553257775,-79.69651996576863,42.669384480308295,14.146539782117603,70.77092241377947,22.56126305518407,22.0869601236216,4.390257260914857,222.33976860382828,155.62921131281826,103.26295672370922,195.60065749524915,224.2817769021874,123.36016331129629,123.02958303129056,51.87640377093942,34.42098557456974,65.20021916508304,74.76059230072913,41.12005443709876,41.009861010430186,-139.99999999,-169.24589448928305,-149.99999999,-57.79467409062465,-124.01156882645466,-44.60739108497398,-73.82296954037122,-1.3226099326857366e-08,116.84874417917206,131.9419810294337,1.024733735164211,1.054441361483167,1.0377677046983071,1.0131148135381394,1.0122764328047025,1.0146616877340697,1.0027196184567797,1.001223683949936,1.0302439698951544,1.0286125959197034,1.023724458573992,1.0285077608961464,1.0273556669757806,1.02427824237458,1.0327656355503136,1.042796909720788,1.0431670134663529,1.0397774922770557,1.0472099298209507,0.9825678946670631,1.0369690995780052,1.049131202545223,1.0463948910146257,1.0509282317368172,1.06,1.0598628865378346,1.0466799290054891,1.0578496725765223,1.0566915284004783,-367.7100793228358,287.7580055705163,325.5312506596988,-149.18143254083435,119.79851500312128,-76.24713844079952,-0.9588764851877158,-270.5169357030529,-357.2523020049375,356.2934255197499,422.2150926382667,-391.6288241929283,224.99206494825694,179.38945015902436,173.98217429280578,333.2743791884334,119.3619359461859,156.69712851262682,-113.81980719042582,-198.0682005894675,289.2286311505781,-328.899449457139,-305.805720617435,-143.1686347350684,205.05722488699462,84.17140626358383,-526.2190569908236,64.70875797441613,286.5584287061601,-420.0667906408813,71.96423545351139,179.22765596518508,-91.12433555245255,-131.8078514130064,-259.516371399116
28,529.0568305040633,543.7287369500026,506.1514593259673,373.8320420654827,414.72541185828464,543.1591856631348,398.1549828505287,395.49323190644975,534.2229882740218,463.4099243408212,99.60484836207769,306.0580631582766,453.1426107248881,232.94787234407656,489.9243245002312,6.500376472918919,8.88888304361854,331.5153402669523,344.3464317671637,155.479957595065,668.7356463209957,245.11274439208557,248.95374336830093,324.30157993164903,227.83704908110983,131.8866451958328,268.93732676850294,210.3954572956529,327.01841594687505,8.92559404840827,1020.7764097957723,45.10793337708846,2.2811781104964712,166.7564807467588,83.69384635116523,165.748344265787,-66.60385739944616,91.70242764811626,158.50577206513657,33.806655763159235,29.521510935771836,101.29378172215081,102.87578687988993,85.09691591498287,-96.89113956480247,48.008521056376715,16.13002135488603,72.25896146271165,28.18890592893214,31.02926063129079,4.462797024204135,231.15407830520206,363.46342742279035,203.75252517885005,200.19568434711863,256.5584397286607,144.11763682085427,281.700786633834,121.15447580759678,67.91750839295001,66.73189478237288,85.51947990955355,48.03921227361809,93.900262211278,-139.99999999,-169.24589448928305,-149.99999999,-57.79467409062465,-124.01156882645466,-44.60739108497398,-73.82296954037122,-1.3226099326857366e-08,116.84874417917206,131.9419810294337,1.024733735164211,1.054441361483167,1.0377677046983071,1.0131148135381394,1.0122764328047025,1.0146616877340697,1.0027196184567797,1.001223683949936,1.0302439698951544,1.0286125959197034,1.023724458573992,1.0285077608961464,1.0273556669757806,1.02427824237458,1.0327656355503136,1.042796909720788,1.0431670134663529,1.0397774922770557,1.0472099298209507,0.9825678946670631,1.0369690995780052,1.049131202545223,1.0463948910146257,1.0509282317368172,1.06,1.0598628865378346,1.0466799290054891,1.0578496725765223,1.0566915284004783,-461.0235193492992,361.4186709872215,500.89510677926046,-54.72646175576676,169.65185815515093,25.185185465832888,-13.575541209588891,-269.9152113601489,-436.13223438005116,422.5566931704607,502.763694614496,-459.1986660293028,269.81582227041963,202.44819094064826,195.94781446772936,352.0422908370447,154.10916848892293,241.81643543189693,-28.09877592825137,-159.4184318480851,139.67912135866652,-119.82180760277168,-379.68222435212306,-143.93995301902032,130.29477212923211,9.38434922943452,-624.7949687442085,174.92265664758708,324.1238961298149,-398.15498285052865,112.92972106957315,259.55297753906837,-113.83917959134922,-164.67072207397882,-324.2346368870018
29,445.87731380251597,532.2643837685714,425.3592380268092,505.27026578131864,524.5508600646897,573.1722393331621,383.36326622192615,395.7613657776262,419.8972872860975,498.8256310548757,92.20279187706716,298.18006112039404,443.8075602006002,223.77249636559742,497.0332564557303,6.515814710681449,8.936653914859003,286.8582397538292,314.4860442222119,141.08539331029394,665.9544403338676,251.04831594620765,227.19877417556754,262.56894458866367,199.8530111259554,130.60794355545414,254.47094442595568,206.48687574786564,253.8641389515134,8.193936582229183,1078.0211575580418,41.75577255088492,2.2224600828849246,163.32118215382087,80.39730408344818,168.15339672429494,-66.76203995867454,92.19525726935431,137.1540958822996,30.87507364248463,26.78836581841024,100.872510815277,105.36699391902876,77.66067190001219,-78.44736452065713,42.11188448725488,15.973633384480003,68.37208649167137,27.665231896315984,24.08799060950868,4.0969682911145915,244.1171099542667,104.68342925509104,296.75574320296664,215.39528011306575,208.02573038431572,222.753557691777,139.6458759769787,34.89447641836368,98.91858106765554,71.79842670435525,69.34191012810524,74.25118589725899,46.54862532565956,-139.99999999,-169.24589448928305,-149.99999999,-57.79467409062465,-124.01156882645466,-44.60739108497398,-73.82296954037122,-1.3226099326857366e-08,116.84874417917206,131.9419810294337,1.024733735164211,1.054441361483167,1.0377677046983071,1.0131148135381394,1.0122764328047025,1.0146616877340697,1.0027196184567797,1.001223683949936,1.0302439698951544,1.0286125959197034,1.023724458573992,1.0285077608961464,1.0273556669757806,1.02427824237458,1.0327656355503136,1.042796909720788,1.0431670134663529,1.0397774922770557,1.0472099298209507,0.9825678946670631,1.0369690995780052,1.049131202545223,1.0463948910146257,1.0509282317368172,1.06,1.0598628865378346,1.0466799290054891,1.0578496725765223,1.0566915284004783,-439.8180812377662,347.61528936069885,289.7894810467255,-92.65974926082907,121.12394243695383,-129.51452251062256,30.790901972329607,-353.4745197359762,-414.26517651876156,445.0560784910899,513.8457261833864,-530.8821983010617,290.07322981778907,238.09605185314837,231.58023714246713,371.3787199276328,53.98051809917638,182.29612901385542,-171.1783907221205,-242.64135036288383,453.23804984778684,-363.8666855121405,-377.0525389000854,-269.4462200206566,270.5999158209163,182.63813402687043,-628.1008548462934,153.09711487118466,309.26160691754325,-383.3632662219261,103.24860539084202,71.83281039908508,-24.652459691506536,-74.53968887219087,-231.13933543937225
30,605.6628666787342,569.1177063699486,527.5951086954893,486.48032842991864,484.5415900549113,480.98778898999484,518.5091355983425,460.10008163937493,507.6154773355523,500.27329889832924,97.37836489770896,331.3654217604434,510.07671939512244,233.2205055175524,491.05083239938773,6.534195090286803,8.273156320731738,326.8380947181002,310.31249871658974,137.9425628869967,679.4355388252903,262.8228040999163,259.00923060698415,290.6069483718807,210.30987641766166,148.97284111070263,263.0130938420256,216.45188366845457,281.39145629474547,9.056214586928546,1037.8462158485852,44.09962836556082,2.4698043857921244,187.70823273740504,83.79179838953978,166.12945785772388,-66.9503681558617,85.35026450461818,156.26946403709167,30.465330421112,26.19162586461963,102.91450073383074,110.30884113682619,88.5340642802055,-86.82424056995269,44.31529538800728,18.21969999195644,70.66721916396062,29.00034946237547,26.69993006817867,4.528107293464273,235.01952351643686,75.88095612451414,182.14059068328797,120.59699368976692,192.82788498649137,321.0203320277373,122.76699766964171,25.293652041504714,60.713530227762654,40.19899789658897,64.27596166216378,107.0067773425791,40.92233255654723,-139.99999999,-169.24589448928305,-149.99999999,-57.79467409062465,-124.01156882645466,-44.60739108497398,-73.82296954037122,-1.3226099326857366e-08,116.84874417917206,131.9419810294337,1.024733735164211,1.054441361483167,1.0377677046983071,1.0131148135381394,1.0122764328047025,1.0146616877340697,1.0027196184567797,1.001223683949936,1.0302439698951544,1.0286125959197034,1.023724458573992,1.0285077608961464,1.0273556669757806,1.02427824237458,1.0327656355503136,1.042796909720788,1.0431670134663529,1.0397774922770557,1.0472099298209507,0.9825678946670631,1.0369690995780052,1.049131202545223,1.0463948910146257,1.0509282317368172,1.06,1.0598628865378346,1.0466799290054891,1.0578496725765223,1.0566915284004783,-418.0684518959771,320.6900869982678,349.07435967294384,-122.14414907445826,113.46229627648393,-95.75335836398358,-64.36074895849288,-332.25367416014626,-493.27187708039037,428.9111281218966,518.7772348373189,-459.6511423218428,285.5567293197655,223.41702504227464,216.88282995198756,362.97240434596733,164.62270434952234,241.81140073620384,-90.44227342394191,-296.68337445227553,385.4966650144597,-291.5863796595397,-357.28981729594943,-343.6163412278355,233.69592125098006,151.80074376347955,-620.1126213958657,53.703052580620465,313.2029575719787,-518.5091355983425,127.64605614725505,111.21235007854636,-40.122179973847494,-92.4169550681461,-256.5740636423021
31,516.6696895761902,348.57741022522805,322.6707687574126,336.1227497572299,471.71524857252126,437.6445979013705,333.72262925520175,389.3157504847176,407.4241241307533,526.7225638476815,68.72574391230317,258.33368400284536,390.85351262144036,167.3001430817609,406.13382833215707,4.930788749293614,6.647524536977556,265.81807382417844,249.84669468324535,122.55262000851198,541.8241634304909,198.1747450110847,189.18496827626112,225.36998357624157,173.4758219912778,114.62751291381592,203.54378654392897,177.33581171472028,218.00445499023817,7.130338467974589,842.6906723425707,31.12374877995697,1.9254684521951206,143.83409264469006,60.10783583775841,137.40083157750755,-50.52162010814688,68.579385610085,127.09426654718533,24.529022000817097,23.26948481174278,82.07042475491258,83.17553166523628,64.66686188352199,-67.33348180728929,36.55383391959068,14.019192226869574,54.68881097532611,23.759555355952816,20.68543153170161,3.5651692339872945,190.8266921065604,98.53092459006923,101.27588068150287,75.71413218823375,233.79728321554796,83.23425808872203,184.5435781838239,32.84364153002308,33.75862689383429,25.23804406274458,77.93242773851598,27.744752696240674,61.51452606127464,-139.99999999,-169.24589448928305,-149.99999999,-57.79467409062465,-124.01156882645466,-44.60739108497398,-73.82296954037122,-1.3226099326857366e-08,116.84874417917206,131.9419810294337,1.024733735164211,1.054441361483167,1.0377677046983071,1.0131148135381394,1.0122764328047025,1.0146616877340697,1.0027196184567797,1.001223683949936,1.0302439698951544,1.0286125959197034,1.023724458573992,1.0285077608961464,1.0273556669757806,1.02427824237458,1.0327656355503136,1.042796909720788,1.0431670134663529,1.0397774922770557,1.0472099298209507,0.9825678946670631,1.0369690995780052,1.049131202545223,1.0463948910146257,1.0509282317368172,1.06,1.0598628865378346,1.0466799290054891,1.0578496725765223,1.0566915284004783,-277.8175390677802,209.09179515547703,313.66664532558343,-144.3758495780662,114.6463042717437,-59.3133429490058,-56.89605329701021,-219.31115505268622,-366.2734597313547,309.37740643434404,375.86366706828085,-267.7744921363085,208.5635239865196,111.80710208870579,106.87631333941215,215.17042834283802,107.50034041457457,149.52463276563003,-69.7865222870555,-259.8904639230003,231.94574789026944,-266.01383489926025,-335.87863457502203,-139.79043702223294,181.8659629575177,50.079784932752204,-534.0533795861066,137.38850153081177,281.92616250975215,-333.7226292552017,71.46407891537362,153.46400161117685,-76.89155174967122,-119.7358838599476,-254.22736346439157
32,555.7228654163862,424.0877679224125,485.4731315249098,446.000232177376,521.1941421890958,486.6578212043663,395.7825435349936,395.2972851526861,516.9245725786966,410.6023428218749,83.57574095218547,274.6184248331176,429.84769832630303,187.43494491444886,458.5068996635292,5.326582003786514,7.099221993667846,258.960969893341,280.9281158638866,137.58713201336687,597.5890262243757,217.87416616715691,213.28901811826532,268.9604822671113,199.79363401087312,110.42731080117699,245.75871343395053,155.92833946234177,248.1098301201168,8.649113320759358,965.1100579306093,37.848849898428256,2.046845402482864,158.18395298407953,67.34189637644869,155.11938406241237,-54.57697868495105,73.23933592529549,123.81571373025366,27.580480675998594,26.124138989879786,90.51716132516279,91.44353689497461,72.9060643749707,-80.35695549263662,42.09937288086255,13.505498443309415,66.03125574470913,20.89136975320696,23.541990935559586,4.324556660379679,218.54847326327203,143.20217283637749,106.79272177168887,88.96850536511288,127.23462895066363,108.63558101273325,182.68106577149746,47.734057612125824,35.59757392389629,29.656168455037623,42.41154298355454,36.21186033757775,60.89368859049915,-139.99999999,-169.24589448928305,-149.99999999,-57.79467409062465,-124.01156882645466,-44.60739108497398,-73.82296954037122,-1.3226099326857366e-08,116.84874417917206,131.9419810294337,1.024733735164211,1.054441361483167,1.0377677046983071,1.0131148135381394,1.0122764328047025,1.0146616877340697,1.0027196184567797,1.001223683949936,1.0302439698951544,1.0286125959197034,1.023724458573992,1.0285077608961464,1.0273556669757806,1.02427824237458,1.0327656355503136,1.042796909720788,1.0431670134663529,1.0397774922770557,1.0472099298209507,0.9825678946670631,1.0369690995780052,1.049131202545223,1.0463948910146257,1.0509282317368172,1.06,1.0598628865378346,1.0466799290054891,1.0578496725765223,1.0566915284004783,-416.4176784374222,332.8419374852366,319.44374952019024,-168.57148719882218,125.77897450559851,-80.95364981852606,-27.92463407130822,-276.1440897493969,-430.52199721771194,402.5973631464044,470.33684105885845,-393.667044097446,282.90189614440897,226.99235962728437,221.66577762349766,334.77637018859105,150.696761336319,191.49958720548545,-84.64450254391073,-254.63696707213887,252.22717335629454,-369.6053481420962,-300.8558113742404,-117.33109677598327,218.5407818318929,33.68639152440164,-518.7299775413973,95.16247261363264,277.655998030361,-395.78254353499364,26.93216394299077,212.07232190954892,-128.94759097681677,-166.6198777909185,-284.8759304391585
33,527.1218382284883,523.3789526176903,486.5760733252808,493.1464828001072,442.5312570298252,513.4513926016456,441.75197604468093,532.9900491456732,521.529242335387,478.066023096832,91.37935164301031,294.8143871102347,481.0674936878177,213.58101984643858,480.64356127553026,6.074828879932323,7.880940973044823,309.25900602569044,313.82598931995557,151.29995722987613,601.4665103045457,259.41151560869315,244.3619900524585,265.77372115968404,174.6151887220096,133.7487055654761,252.99175025420678,177.06468011346013,265.8911420530662,8.874886685326912,1079.9900056152358,41.38286211701901,2.197374313865103,177.03283767711693,76.73569575321146,162.60853050049548,-62.24363129284502,81.30396314512832,147.86446225603325,30.81027189980111,28.72783998035623,91.10448611965913,108.87709596715223,83.52737114520401,-79.40485123435796,36.793914766423455,16.35775535692873,67.97465175869257,23.723228986075245,25.229177147186878,4.437443342663456,244.5629541701168,126.88327695967993,233.9039316758211,140.50749843239055,162.0921563585538,110.78669887226916,121.95764251912071,42.29442565322664,77.9679772252737,46.835832810796845,54.0307187861846,36.928899624089716,40.652547506373566,-139.99999999,-169.24589448928305,-149.99999999,-57.79467409062465,-124.01156882645466,-44.60739108497398,-73.82296954037122,-1.3226099326857366e-08,116.84874417917206,131.9419810294337,1.024733735164211,1.054441361483167,1.0377677046983071,1.0131148135381394,1.0122764328047025,1.0146616877340697,1.0027196184567797,1.001223683949936,1.0302439698951544,1.0286125959197034,1.023724458573992,1.0285077608961464,1.0273556669757806,1.02427824237458,1.0327656355503136,1.042796909720788,1.0431670134663529,1.0397774922770557,1.0472099298209507,0.9825678946670631,1.0369690995780052,1.049131202545223,1.0463948910146257,1.0509282317368172,1.06,1.0598628865378346,1.0466799290054891,1.0578496725765223,1.0566915284004783,-463.8418962550332,372.46254461202284,414.0421562538157,-227.6218229314785,156.49410068257788,-37.26633153899718,-21.968413611266215,-302.60497939397374,-449.182512685592,427.21409907432576,502.5467488339573,-476.1401698941395,288.9657289875181,235.5362667863128,229.46143790638052,352.40657673195915,134.16949659332158,236.45889413391808,-66.14608526005514,-234.89759285335538,244.0226444083894,-334.21122952538656,-314.637608478404,-143.89738857790962,188.56628876887316,55.456355639516175,-574.0491240870972,101.49442487310245,298.8844108653247,-441.751976044681,130.75303749218534,197.53539461469057,-78.87611798628461,-121.65494470169659,-255.9407980997449
34,646.9268584052307,542.7757169338844,650.1474296647964,517.337940560346,686.6984464732245,520.1262128004817,514.822221471186,637.6867569697627,637.3979917347317,765.7366779252814,112.35547626618076,349.7295534093187,522.6474285098977,253.90790363036825,598.6351078359179,6.544802823998716,8.947907318283299,358.9528507637695,345.8556123117673,189.9884694826911,748.0043582975635,302.94784449643305,280.72722691068805,336.64982106093083,260.07916906448514,153.87742648451487,282.4613374181316,224.20008077956658,297.5924311715676,10.345049530895563,1184.2542550651642,50.88229560415153,2.606679901187469,192.33425369164237,91.22439651390476,202.52674337897145,-67.059056627433,92.31135334219583,171.6243317714273,33.954821512675025,36.073760028359075,113.30066015389563,127.14964276310145,95.95767028947157,-100.5804066811984,54.80239633858794,18.819541368609734,75.89263692195352,30.038457424835137,28.237165426861267,5.172524765447782,268.17351790424914,122.6979903030644,103.30419092904097,177.54654013456647,121.19744366321652,121.48004739004534,115.44722154352365,40.89933010102146,34.43473030968032,59.182180044855485,40.399147887738835,40.49334913001511,38.48240718117455,-139.99999999,-169.24589448928305,-149.99999999,-57.79467409062465,-124.01156882645466,-44.60739108497398,-73.82296954037122,-1.3226099326857366e-08,116.84874417917206,131.9419810294337,1.024733735164211,1.054441361483167,1.0377677046983071,1.0131148135381394,1.0122764328047025,1.0146616877340697,1.0027196184567797,1.001223683949936,1.0302439698951544,1.0286125959197034,1.023724458573992,1.0285077608961464,1.0273556669757806,1.02427824237458,1.0327656355503136,1.042796909720788,1.0431670134663529,1.0397774922770557,1.0472099298209507,0.9825678946670631,1.0369690995780052,1.049131202545223,1.0463948910146257,1.0509282317368172,1.06,1.0598628865378346,1.0466799290054891,1.0578496725765223,1.0566915284004783,-395.5095340993154,283.15405783313463,491.28359360437656,-221.31942046674283,147.66878464875697,-6.114744453699359,-62.05382219623152,-312.9248216649089,-511.1158551393182,449.06203294308557,545.3893006539479,-472.5489211891795,291.48139702358003,141.9083221307469,135.36351930674823,416.3972378933813,233.75019177141485,271.9547920863754,-40.97002957853351,-222.3763402077368,245.1011090733823,-456.03202873600696,-271.1755422341412,-86.12549062273774,196.10321393639015,48.9978951369917,-574.1233867305739,67.20026973312454,301.2952642936226,-514.822221471186,156.2881674385346,233.46344228114003,-88.44298090538862,-142.60972042173188,-312.64306168495517
35,641.337323714316,428.86128144802325,469.44847509108416,435.4083600673044,493.1254097192713,507.0045512282143,590.4844655532896,416.19908292688984,425.2041097202392,611.4291528854817,104.871077760692,328.91201179116473,506.3848153049758,231.58943846566066,457.9815644158102,6.368918716723067,9.123114217368915,300.17987681486244,332.00740138434145,158.5107463214763,700.853476195127,285.9555071403491,238.28357145476272,321.30607073863735,223.65782191465632,139.6788426615222,278.194631869142,213.5213406770301,280.85400086230163,8.913665606339558,1112.7068207516572,47.492844641624856,2.4515181003068176,186.34961203223108,83.20578627508766,154.94165570082774,-65.25692100519326,94.11888055433349,143.5235036021061,32.59525551584872,30.096977149647397,106.15868830602658,120.01782233992753,81.44965715180982,-95.99617537946327,47.12789818915972,17.08302392263221,74.74624450576592,28.607713605272,26.648933415153135,4.456832803169779,251.97165324992238,180.3417552588592,179.4317096411875,275.69241317908444,176.6033516540757,284.8422855626687,167.5972612289787,60.11391841961973,59.81056988039583,91.89747105969481,58.8677838846919,94.94742852088956,55.8657537429929,-139.99999999,-169.24589448928305,-149.99999999,-57.79467409062465,-124.01156882645466,-44.60739108497398,-73.82296954037122,-1.3226099326857366e-08,116.84874417917206,131.9419810294337,1.024733735164211,1.054441361483167,1.0377677046983071,1.0131148135381394,1.0122764328047025,1.0146616877340697,1.0027196184567797,1.001223683949936,1.0302439698951544,1.0286125959197034,1.023724458573992,1.0285077608961464,1.0273556669757806,1.02427824237458,1.0327656355503136,1.042796909720788,1.0431670134663529,1.0397774922770557,1.0472099298209507,0.9825678946670631,1.0369690995780052,1.049131202545223,1.0463948910146257,1.0509282317368172,1.06,1.0598628865378346,1.0466799290054891,1.0578496725765223,1.0566915284004783,-386.20622376733564,281.3351460066435,294.36459651658333,-71.36778357703656,63.140156010634655,-97.68757128521611,-93.36984880014666,-349.874810494194,-503.917120390518,410.54727159037,505.3351718673573,-419.98490796426586,273.74573340169627,226.31144057625556,219.94252185953246,325.8741298911632,143.57434519992148,219.7721625506381,-130.10264794355572,-154.59011157933367,454.4722852922728,-227.6802935914489,-388.0506297576237,-325.33887490687516,256.19831760669217,198.27396768558071,-674.0061368979729,9.601765984317012,361.80266008284383,-590.4844655532895,121.17347743519701,79.92066418356148,-23.419636751157952,-75.0063926587284,-236.94097742818792
36,682.1856225283852,489.82334479028464,466.5311260184415,579.1865416927792,512.7871418584806,442.429649506822,578.7681920692581,463.17140500635156,517.374459463293,555.2693086557215,105.69583406587248,333.3368192061017,477.6262415441852,222.7156655360029,544.397030438807,6.439312503781458,8.615186890742837,321.89933788326056,334.38903362636574,155.66251076816172,729.079324023812,271.71830621913506,258.2280395116793,320.08328865369316,229.69271590401922,138.4390836253131,283.6911649342544,214.7270151376923,291.06884231208295,9.057336430186604,1116.4300560345619,47.86635108311028,2.4844980313498266,175.76645688826014,80.01760438419265,184.17723290324386,-65.97818657720693,88.87883310496716,153.90812092543396,32.82907533778606,29.55617293066362,110.4340740800774,114.04235480000193,88.26703896035585,-95.63084644805738,48.39953656548977,16.93139871676491,76.22307100546693,28.769250571846154,27.61817233931228,4.528668215093302,252.81477718173957,175.75732988564133,211.94732755516318,188.4754933193217,194.88948003444082,228.95522704763374,130.91022849150198,58.58577662854711,70.64910918505439,62.8251644397739,64.96316001148027,76.3184090158779,43.63674283050066,-139.99999999,-169.24589448928305,-149.99999999,-57.79467409062465,-124.01156882645466,-44.60739108497398,-73.82296954037122,-1.3226099326857366e-08,116.84874417917206,131.9419810294337,1.024733735164211,1.054441361483167,1.0377677046983071,1.0131148135381394,1.0122764328047025,1.0146616877340697,1.0027196184567797,1.001223683949936,1.0302439698951544,1.0286125959197034,1.023724458573992,1.0285077608961464,1.0273556669757806,1.02427824237458,1.0327656355503136,1.042796909720788,1.0431670134663529,1.0397774922770557,1.0472099298209507,0.9825678946670631,1.0369690995780052,1.049131202545223,1.0463948910146257,1.0509282317368172,1.06,1.0598628865378346,1.0466799290054891,1.0578496725765223,1.0566915284004783,-433.66919185009704,327.97335778422416,342.77047074655934,-110.85898792073044,90.67119960219702,-81.23754806173929,-60.20406451017857,-326.75097743181004,-520.7830885760568,460.5790240658762,546.1603740073315,-439.28490915899783,323.44470847132834,239.62670209839735,233.18738959461598,328.2823896056825,138.24873641275963,230.57835752386495,-96.17261990794452,-229.59646447188356,393.92177570284684,-362.8943595274481,-349.118230343959,-245.89468392968888,236.90005882990044,157.02171687294606,-620.8365365630941,16.482592978168896,337.0227455357479,-578.7681920692581,122.61970118160195,126.66944806130834,-45.30539182387645,-97.18343868114292,-260.03240696156877
37,645.1063817445934,562.1900925895833,602.5909759894813,524.8173266662826,548.0415101883732,555.5384159899879,493.55338623382147,598.043025744544,495.6307344490886,508.3471007006569,105.14411922932237,315.91994284039225,561.6030758407558,260.61288624920854,581.9910255851852,7.131289606124261,9.866153766120453,358.7032266917742,335.9897123938555,174.03969925001988,756.3517999767913,265.6666116736888,267.2316342281825,331.16409234803837,234.79420769795306,145.25843388449252,306.2984580385548,220.19905745875357,302.40680645900295,9.77099623079129,1180.1276663743995,47.61649661819722,2.3546828037793213,206.66993190939812,93.63337230510487,196.89581440295728,-73.06829042582703,101.78447027181711,171.50498026200455,32.98622404353049,33.04551251582656,114.56505205530809,111.50241000902997,91.34463133617875,-98.94144301519488,49.474493764925825,17.765419971484697,82.29727253349071,29.502397989619414,28.693979166656717,4.885498115395645,267.23905488550713,207.83404010073716,281.90437444438504,217.15942348631907,260.9775657211359,163.40874948228384,112.71584187417382,69.27801336691238,93.968124814795,72.38647449543969,86.99252190704529,54.469583160761275,37.57194729139127,-139.99999999,-169.24589448928305,-149.99999999,-57.79467409062465,-124.01156882645466,-44.60739108497398,-73.82296954037122,-1.3226099326857366e-08,116.84874417917206,131.9419810294337,1.024733735164211,1.054441361483167,1.0377677046983071,1.0131148135381394,1.0122764328047025,1.0146616877340697,1.0027196184567797,1.001223683949936,1.0302439698951544,1.0286125959197034,1.023724458573992,1.0285077608961464,1.0273556669757806,1.02427824237458,1.0327656355503136,1.042796909720788,1.0431670134663529,1.0397774922770557,1.0472099298209507,0.9825678946670631,1.0369690995780052,1.049131202545223,1.0463948910146257,1.0509282317368172,1.06,1.0598628865378346,1.0466799290054891,1.0578496725765223,1.0566915284004783,-510.35061917301755,405.20649994369546,423.1174466106021,-163.44393309329905,140.85527323393944,-33.657769463729664,-46.80079221811684,-373.94701038869937,-557.1111744804493,510.31038226233136,605.9988849082349,-575.362723456923,345.385998659026,273.70535533617135,266.57406573004687,426.9924981174968,175.59847787198441,299.2664732108235,-74.68053717787586,-216.22434038333085,373.7087632779983,-316.5070368778646,-414.94056099463484,-194.47521818268524,207.697468713749,166.01129456424906,-680.6071726683234,135.90880904280033,362.23056104843926,-493.55338623382147,199.80488495329203,140.28716347430554,-16.270310061735643,-69.47040234377044,-236.46936752048907
