mile888/hybrid_gp/hybrid/IEEE9/datasets/dataset_pandapower_DC.csv
,Pg0,Pg1,Pg2,Load_P1,Load_P2,Load_P3,Load_Q1,Load_Q2,Load_Q3,RS_P1,RS_P2,RS_Q1,RS_Q2,P0,P1,P2,P3,P4,P5,P6,P7,P8,Q0,Q1,Q2,Q3,Q4,Q5,Q6,Q7,Q8,U0,U1,U2,U3,U4,U5,U6,U7,U8,Ud0,Ud1,Ud2,Ud3,Ud4,Ud5,Ud6,Ud7,Ud8,P_03,P_34,P_45,P_25,P_56,P_67,P_71,P_78,P_83
0,59.1330755874339,91.04612147299633,58.858774308192196,77.77384846705557,82.0965462677035,109.64202519665488,25.92461615568519,28.733791193696224,43.85681007866196,33.59640617903485,29.744811818914428,10.078921853710455,9.914937272971475,-56.26630615227616,-91.04612147299635,-58.85877430819221,-33.59640617903485,77.77384846705557,-29.744811818914428,82.0965462677035,0.0,109.64202519665488,18.650177468318493,-14.45176831955668,16.412049077844514,-15.0,30.0,-10.0,35.0,0.0,50.0,1.00000001,1.0484795353846066,1.0338280215736484,1.01140768212397,1.0079427384091215,1.0439251890969723,1.030474116655055,1.0416674609305119,0.9942731195628288,0.0,3.3472579979749675,2.906565372287396,-1.8569213978782473,-3.538241896733348,0.9303627901563382,-1.5372419167028637,0.08690893457614972,-4.679968488073633,56.26630615227616,31.896280963364198,-45.87756750369136,58.858774308192196,42.72601862341526,-39.37052764428825,-91.04612147299633,51.67559382870808,-57.96643136794682
1,66.59988050985616,157.267681987393,92.23848848880849,102.30146068383573,104.04628678412884,142.3840235005017,34.100486894611905,36.41620037444509,56.95360940020069,19.325452648335062,17.635380037770943,5.797635794500518,5.878460012590314,-62.264767806158744,-157.267681987393,-92.23848848880851,-19.325452648335062,102.30146068383573,-17.635380037770943,104.04628678412884,0.0,142.38402350050168,18.650177468318493,-14.45176831955668,16.412049077844514,-15.0,30.0,-10.0,35.0,0.0,50.0,1.00000001,1.0484795353846066,1.0338280215736484,1.01140768212397,1.0079427384091215,1.0439251890969723,1.030474116655055,1.0416674609305119,0.9942731195628288,0.0,9.50129506939562,6.437471716253406,-2.054884842809244,-3.659277802679388,3.3405343221956008,1.1453397416809887,3.869561049593611,-4.546124249667312,62.264767806158744,30.43689091907747,-71.86456976475824,92.2384884888085,38.00929876182117,-66.03698802230764,-157.26768198739296,91.23069396508535,-51.153329535416354
2,79.07445205391932,134.38901305570536,64.8295961565148,95.96802348303254,108.66620837809832,136.36004893586667,31.989341161010845,38.03317293233441,54.54401957434667,38.2770400467817,28.24072074129792,11.483112014034509,9.41357358043264,-75.25791079669771,-134.38901305570533,-64.82959615651481,-38.2770400467817,95.96802348303254,-28.24072074129792,108.6662083780983,0.0,136.36004893586664,18.650177468318493,-14.45176831955668,16.412049077844514,-15.0,30.0,-10.0,35.0,0.0,50.0,1.00000001,1.0484795353846066,1.0338280215736484,1.01140768212397,1.0079427384091215,1.0439251890969723,1.030474116655055,1.0416674609305119,0.9942731195628288,0.0,5.243250136745467,2.2900256170949693,-2.4836893422467385,-4.854099727186025,0.11335074017374638,-2.316439982689873,0.4307980986076947,-5.822948753178147,75.25791079669771,44.96898460940952,-50.99903887362301,64.8295961565148,42.0712780241897,-66.59493035390862,-134.38901305570536,67.79408270179674,-68.56596623406989
3,49.51010237523396,110.72814551366982,72.45939178275299,73.64167938744247,89.8006808671191,112.31135788094558,24.547226462480822,31.43023830349168,44.924543152378234,23.375186139129678,22.872133019779376,7.012555841738903,7.624044339926458,-46.31886168017528,-110.72814551366983,-72.45939178275299,-23.375186139129678,73.64167938744247,-22.872133019779376,89.8006808671191,0.0,112.31135788094556,18.650177468318493,-14.45176831955668,16.412049077844514,-15.0,30.0,-10.0,35.0,0.0,50.0,1.00000001,1.0484795353846066,1.0338280215736484,1.01140768212397,1.0079427384091215,1.0439251890969723,1.030474116655055,1.0416674609305119,0.9942731195628288,0.0,5.934039092112803,4.924150162276411,-1.5286321648075853,-2.63578300824251,2.4913024038277256,0.0255716819881543,1.968879460085477,-3.8999196371048463,46.31886168017528,21.00372558062139,-52.63795380682107,72.45939178275299,42.69357099571128,-47.10710987140782,-110.72814551366983,63.621035642262,-48.690322238683564
4,74.08875359277344,104.41571432968222,69.42099868439233,86.98142249218638,87.46964374951109,129.76042728159214,28.99380749739546,30.61437531232888,51.90417091263686,28.08131617048328,31.604787512931914,8.424394851144983,10.534929170977303,-70.6886768257999,-104.41571432968222,-69.42099868439232,-28.08131617048328,86.98142249218638,-31.604787512931914,87.4696437495111,0.0,129.76042728159214,18.650177468318493,-14.45176831955668,16.412049077844514,-15.0,30.0,-10.0,35.0,0.0,50.0,1.00000001,1.0484795353846066,1.0338280215736484,1.01140768212397,1.0079427384091215,1.0439251890969723,1.030474116655055,1.0416674609305119,0.9942731195628288,0.0,4.022646258207973,3.6051590459899616,-2.3328937966939565,-4.041220082866534,1.2743263287493936,-1.408525308829511,0.28353391699893343,-5.564787038422502,70.6886768257999,32.40860694791127,-54.572815544275116,69.42099868439234,46.45297065304912,-41.01667309646199,-104.41571432968223,63.399041233220224,-66.36138604837191
5,80.9678185140349,156.10564121892855,87.2809017594278,96.6917741696772,115.34663723729358,148.43274402683275,32.230591389892396,40.37132303305275,59.373097610733105,20.261443468057635,20.303581402876947,6.07843304041729,6.767860467625649,-76.5195875845126,-156.10564121892855,-87.28090175942779,-20.261443468057635,96.6917741696772,-20.303581402876944,115.34663723729358,0.0,148.43274402683275,18.650177468318493,-14.45176831955668,16.412049077844514,-15.0,30.0,-10.0,35.0,0.0,50.0,1.00000001,1.0484795353846066,1.0338280215736484,1.01140768212397,1.0079427384091215,1.0439251890969723,1.030474116655055,1.0416674609305119,0.9942731195628288,0.0,7.83037941357523,4.802305013896809,-2.525327665156354,-4.288393225406703,1.8718202143908602,-0.688985502212344,2.24025791355769,-5.609781321335061,76.5195875845126,33.447064081398985,-63.244710088278225,87.2809017594278,44.339773074026525,-71.00686416326705,-156.10564121892855,85.0987770556615,-63.333966971171265
6,45.71394340910221,64.05152061629863,46.942892899269054,69.8960263953128,80.29253272363661,104.55758841407841,23.298675465104267,28.10238645327281,41.82303536563137,59.8353784264152,40.35152760305073,17.95061352792456,13.450509201016908,-43.56482798799428,-64.05152061629863,-46.942892899269054,-59.8353784264152,69.8960263953128,-40.35152760305073,80.29253272363661,0.0,104.55758841407842,18.650177468318493,-14.45176831955668,16.412049077844514,-15.0,30.0,-10.0,35.0,0.0,50.0,1.00000001,1.0484795353846066,1.0338280215736484,1.01140768212397,1.0079427384091215,1.0439251890969723,1.030474116655055,1.0416674609305119,0.9942731195628288,0.0,0.7424558561840806,1.8177537256538558,-1.437742528661075,-3.238659086793674,0.24163075587388033,-2.7363767751379746,-1.5512202705091027,-4.809588344464515,43.56482798799428,34.16513423162796,-35.730892163684864,46.94289289926905,51.56352833863493,-28.72900438500171,-64.05152061629863,35.322516231296916,-69.23507218278152
7,50.0510778688465,101.66585474337712,66.17323371116541,81.4676497717125,97.70019803363303,113.00851114337333,27.155883257237498,34.195069311771555,45.203404457349336,58.18292183604625,19.09144018715735,17.454876550813875,6.3638133957191165,-47.06290847097276,-101.66585474337714,-66.17323371116541,-58.18292183604625,81.4676497717125,-19.09144018715735,97.70019803363303,0.0,113.00851114337334,18.650177468318493,-14.45176831955668,16.412049077844514,-15.0,30.0,-10.0,35.0,0.0,50.0,1.00000001,1.0484795353846066,1.0338280215736484,1.01140768212397,1.0079427384091215,1.0439251890969723,1.030474116655055,1.0416674609305119,0.9942731195628288,0.0,3.459058933191635,2.446621124634005,-1.553187471550404,-3.715243162674208,0.2248331777218017,-2.36332172520049,-0.18158131517435938,-4.681256622545618,47.06290847097276,41.01629393651295,-40.45135583519954,66.17323371116541,44.81331806312321,-52.88687997050984,-101.66585474337712,48.778974772867286,-64.22953637050605
8,101.81549853417324,126.18424709011879,81.71317445932864,98.10303748001095,104.62739836609485,148.18069744553733,32.70101249333698,36.619589428133196,59.272278978214935,22.15914289300921,23.286506927395433,6.647742867902763,7.7621689757984775,-97.56806192179108,-126.18424709011877,-81.71317445932863,-22.15914289300921,98.10303748001095,-23.286506927395436,104.62739836609487,0.0,148.1806974455373,18.650177468318493,-14.45176831955668,16.412049077844514,-15.0,30.0,-10.0,35.0,0.0,50.0,1.00000001,1.0484795353846066,1.0338280215736484,1.01140768212397,1.0079427384091215,1.0439251890969723,1.030474116655055,1.0416674609305119,0.9942731195628288,0.0,4.016684515984989,2.769591457272356,-3.2199771821124696,-5.435523606785784,0.026044921370822004,-2.7997331125963183,-0.5019559835773529,-7.003888941393647,97.56806192179108,42.03106504493247,-56.07197243507848,81.71317445932864,48.9277089516456,-55.69968941444929,-126.1842470901188,70.48455767566949,-77.69613976986781
9,54.35621145144168,108.13013130194481,62.47637993959113,77.42670620544015,92.89749025214495,113.42682665218706,25.80890206848005,32.51412158825073,45.37073066087483,43.951807441104755,17.92165617950235,13.185542232331427,5.97388539316745,-51.27104824762914,-108.13013130194481,-62.47637993959114,-43.951807441104755,77.42670620544015,-17.92165617950235,92.89749025214496,0.0,113.42682665218706,18.650177468318493,-14.45176831955668,16.412049077844514,-15.0,30.0,-10.0,35.0,0.0,50.0,1.00000001,1.0484795353846066,1.0338280215736484,1.01140768212397,1.0079427384091215,1.0439251890969723,1.030474116655055,1.0416674609305119,0.9942731195628288,0.0,4.294280187590221,2.544801069572514,-1.6920660532612404,-3.5890841694728786,0.44713619615301164,-1.80294244772875,0.42215508646717703,-4.57687385450434,51.27104824762914,35.98827401942772,-41.43843218601244,62.47637993959113,38.959603933081056,-53.93788631906394,-108.13013130194481,54.19224498288088,-59.23458166930618
10,56.21426539029996,110.08581180222447,77.63464139550464,86.45312633108169,90.63939475930387,115.9421728121825,28.817708777027228,31.723788165756353,46.376869124873004,37.09412163019691,15.351200899699421,11.128236489059072,5.117066966566473,-52.86891817494264,-110.08581180222447,-77.63464139550464,-37.09412163019691,86.45312633108169,-15.351200899699421,90.63939475930387,0.0,115.9421728121825,18.650177468318493,-14.45176831955668,16.412049077844514,-15.0,30.0,-10.0,35.0,0.0,50.0,1.00000001,1.0484795353846066,1.0338280215736484,1.01140768212397,1.0079427384091215,1.0439251890969723,1.030474116655055,1.0416674609305119,0.9942731195628288,0.0,5.0898649504107185,4.0880037231193915,-1.7447995462157013,-3.5688519205926372,1.4813952676785995,-0.8944231115687031,1.1477072000738884,-4.440860884592993,52.86891817494264,34.60404311054106,-51.84908322054061,77.63464139550464,41.136759074663445,-49.50263568464044,-110.08581180222446,60.58317611758403,-55.358996694598474
11,61.421259676496724,128.76512535057108,66.4889103783413,91.65508879420094,105.17574199805563,132.67100300170443,30.551696264733643,36.811509699319465,53.06840120068178,46.81317369827387,29.53343755938723,14.043952109482161,9.84447918646241,-57.901186807387525,-128.76512535057108,-66.4889103783413,-46.81317369827387,91.65508879420094,-29.53343755938723,105.17574199805563,0.0,132.67100300170443,18.650177468318493,-14.45176831955668,16.412049077844514,-15.0,30.0,-10.0,35.0,0.0,50.0,1.00000001,1.0484795353846066,1.0338280215736484,1.01140768212397,1.0079427384091215,1.0439251890969723,1.030474116655055,1.0416674609305119,0.9942731195628288,0.0,5.727613534219981,3.3398403881913463,-1.9108763325284348,-3.985839684569743,1.1074534940172618,-1.4182119345364554,1.1165521398070257,-5.093527901516018,57.901186807387525,39.3640677731946,-52.29102102100634,66.4889103783413,43.731326916722196,-61.44441508133343,-128.76512535057108,67.32071026923765,-65.35029273246678
12,84.8109732125067,115.70340024695784,82.42659954374984,100.92610452289071,114.92734659428876,152.3049321399556,33.64203484096357,40.22457130800107,60.92197285598225,59.81615648309226,29.281536994248448,17.944846944927676,9.760512331416148,-80.93068998908673,-115.70340024695786,-82.42659954374983,-59.81615648309226,100.92610452289071,-29.281536994248448,114.92734659428876,0.0,152.30493213995564,18.650177468318493,-14.45176831955668,16.412049077844514,-15.0,30.0,-10.0,35.0,0.0,50.0,1.00000001,1.0484795353846066,1.0338280215736484,1.01140768212397,1.0079427384091215,1.0439251890969723,1.030474116655055,1.0416674609305119,0.9942731195628288,0.0,2.655168854993057,2.502545095545818,-2.670904494406847,-5.277994223118049,-0.26495492070867,-3.7441254980303884,-1.4881539634217,-7.116750528769241,80.93068998908673,49.45902137058284,-51.467083152307865,82.42659954374984,60.24105338569042,-54.686293208598364,-115.70340024695784,61.017107038359484,-91.28782510159617
13,61.69883840247155,101.89727476612165,74.05652369219295,86.03021622383443,95.5112803959762,116.28186064916375,28.676738741278143,33.42894813859167,46.5127442596655,38.391857670367145,25.03805680230875,11.517557301110143,8.346018934102915,-58.43964433798387,-101.89727476612165,-74.05652369219294,-38.391857670367145,86.03021622383443,-25.03805680230875,95.5112803959762,0.0,116.28186064916373,18.650177468318493,-14.45176831955668,16.412049077844514,-15.0,30.0,-10.0,35.0,0.0,50.0,1.00000001,1.0484795353846066,1.0338280215736484,1.01140768212397,1.0079427384091215,1.0439251890969723,1.030474116655055,1.0416674609305119,0.9942731195628288,0.0,3.8385833150330293,3.569700431590838,-1.9286467066437543,-3.813491775299038,1.0832284473485172,-1.736427347821513,0.18965594754323356,-4.903044693419867,58.43964433798387,35.75733949784051,-50.27287672599391,74.05652369219294,48.82170376850779,-46.689576627468426,-101.89727476612165,55.20769813865323,-61.074162510510504
14,61.81623724187314,122.59998741725799,82.85458978158005,87.22361443748285,95.13680988039809,135.84670073744388,29.074538145827617,33.29788345813933,54.33868029497756,30.74385969253817,23.85783188961849,9.22315790776145,7.95261062987283,-58.150856274330145,-122.59998741725798,-82.85458978158007,-30.74385969253817,87.22361443748285,-23.857831889618495,95.13680988039809,0.0,135.84670073744388,18.650177468318493,-14.45176831955668,16.412049077844514,-15.0,30.0,-10.0,35.0,0.0,50.0,1.00000001,1.0484795353846066,1.0338280215736484,1.01140768212397,1.0079427384091215,1.0439251890969723,1.030474116655055,1.0416674609305119,0.9942731195628288,0.0,6.263153772497876,5.321930446600096,-1.9191160164043926,-3.336565611301902,2.5400605182455314,-0.13853062526991355,1.8728651178941997,-4.938814086234006,58.150856274330145,26.89039392611017,-60.33322051137267,82.85458978158006,46.37920115982587,-48.75760872057223,-122.599987417258,73.84237869668577,-62.00432204075812
15,54.735451338578216,119.41648822984929,74.08837867627213,85.62283015893192,98.99380589322891,127.46223118048628,28.540943386310637,34.647832062630116,50.98489247219452,46.46417868051116,20.778764983955636,13.939253604153349,6.926254994651878,-51.3310566620589,-119.4164882298493,-74.08837867627213,-46.46417868051116,85.62283015893192,-20.778764983955636,98.99380589322891,0.0,127.46223118048627,18.650177468318493,-14.45176831955668,16.412049077844514,-15.0,30.0,-10.0,35.0,0.0,50.0,1.00000001,1.0484795353846066,1.0338280215736484,1.01140768212397,1.0079427384091215,1.0439251890969723,1.030474116655055,1.0416674609305119,0.9942731195628288,0.0,5.446708026076528,3.924750254651586,-1.6940464730973284,-3.523038200707788,1.437208728908768,-1.1006274628216217,1.1704200386740053,-4.766983264919393,51.3310566620589,34.69774743319761,-50.92508272573431,74.08837867627213,43.94206093449344,-55.05174495873547,-119.4164882298493,64.36474327111382,-63.09748790937246
16,74.80773775579867,163.19991464289035,103.49917534792083,124.99968141036706,119.98415869707662,152.447196082029,41.66656047012235,41.99445554397681,60.9788784328116,43.47801681190296,17.129653344981428,13.043405043570887,5.709884448327142,-70.12427604177711,-163.19991464289035,-103.49917534792084,-43.47801681190296,124.99968141036706,-17.12965334498142,119.98415869707662,0.0,152.447196082029,18.650177468318493,-14.45176831955668,16.412049077844514,-15.0,30.0,-10.0,35.0,0.0,50.0,1.00000001,1.0484795353846066,1.0338280215736484,1.01140768212397,1.0079427384091215,1.0439251890969723,1.030474116655055,1.0416674609305119,0.9942731195628288,0.0,8.629277670642342,5.828947387229126,-2.314267233756009,-4.950357324960393,2.3539287519442205,-0.28187422222180525,2.785111216934279,-5.411341349704782,70.12427604177711,50.00918638121101,-74.99049502915604,103.49917534792084,45.63833366374621,-74.3458250333304,-163.19991464289035,88.85408960955995,-63.59310647246907
17,85.21309999245418,136.25489617795608,106.20270885770896,107.38756018066728,128.6713474936614,137.80644590951678,35.79585339355576,45.034971622781484,55.12257836380672,30.523597761115333,20.164762419446383,9.1570793283346,6.721587473148794,-80.7193883676187,-136.25489617795608,-106.20270885770896,-30.523597761115333,107.38756018066726,-20.164762419446383,128.6713474936614,0.0,137.8064459095168,18.650177468318493,-14.45176831955668,16.412049077844514,-15.0,30.0,-10.0,35.0,0.0,50.0,1.00000001,1.0484795353846066,1.0338280215736484,1.01140768212397,1.0079427384091215,1.0439251890969723,1.030474116655055,1.0416674609305119,0.9942731195628288,0.0,5.33879934935779,4.874789951397285,-2.663931040324959,-4.941781308048872,1.3089992950209128,-2.2829008544323837,0.4595302937389801,-5.977086031651886,80.7193883676187,43.213029390452824,-64.17453079021442,106.20270885770894,62.1929404869409,-66.47840700672052,-136.25489617795608,69.77648917123558,-68.02995673828123
18,78.99615967136052,132.3724828459576,94.46940313310058,99.57691042306232,117.45129262322207,140.13548772531013,33.192303474354105,41.107952418127724,56.054195090124054,32.76540439710661,22.754536887769,9.829621319131983,7.584845629256333,-74.80186350766074,-132.37248284595756,-94.46940313310057,-32.76540439710661,99.57691042306232,-22.754536887769,117.45129262322209,0.0,140.1354877253101,18.650177468318493,-14.45176831955668,16.412049077844514,-15.0,30.0,-10.0,35.0,0.0,50.0,1.00000001,1.0484795353846066,1.0338280215736484,1.01140768212397,1.0079427384091215,1.0439251890969723,1.030474116655055,1.0416674609305119,0.9942731195628288,0.0,5.46869028238177,4.617536490881157,-2.468638701332702,-4.499920847985329,1.4456954085902392,-1.7990724106524427,0.7284499131684837,-5.830588526047594,74.80186350766074,38.535392930507236,-61.04151749255508,94.46940313310056,56.182422528314504,-61.2688700949076,-132.37248284595762,71.10361275105,-69.03187497426009
19,54.68028013438932,101.15710612119857,77.77052700331643,91.77215771720567,113.92802146219037,127.40609952540291,30.590719239068555,39.874807511766626,50.962439810161165,64.03098607279081,38.67110365896885,19.20929582183724,12.89036788632295,-51.47655584852434,-101.15710612119857,-77.77052700331643,-64.03098607279081,91.77215771720567,-38.67110365896885,113.92802146219037,0.0,127.40609952540291,18.650177468318493,-14.45176831955668,16.412049077844514,-15.0,30.0,-10.0,35.0,0.0,50.0,1.00000001,1.0484795353846066,1.0338280215736484,1.01140768212397,1.0079427384091215,1.0439251890969723,1.030474116655055,1.0416674609305119,0.9942731195628288,0.0,3.0775178706656328,3.7999189271889198,-1.698848290938193,-3.8237221034671998,1.1887480680591551,-2.5641388799549003,-0.5449041596479066,-5.36103011571578,51.47655584852434,40.3109176282999,-51.461240088905775,77.77052700331643,64.98039057337951,-48.9476308888109,-101.15710612119857,52.20947523238767,-75.19662429301522
20,66.31454614116952,138.5841010588727,86.29454247170048,95.10271587006018,116.52391420958392,130.41525934455348,31.70090529002006,40.78336997335437,52.166103737821395,33.43950069286404,21.402654078368155,10.031850207859211,7.134218026122718,-62.32109112239225,-138.5841010588727,-86.29454247170048,-33.43950069286404,95.10271587006018,-21.40265407836815,116.52391420958392,0.0,130.41525934455348,18.650177468318493,-14.45176831955668,16.412049077844514,-15.0,30.0,-10.0,35.0,0.0,50.0,1.00000001,1.0484795353846066,1.0338280215736484,1.01140768212397,1.0079427384091215,1.0439251890969723,1.030474116655055,1.0416674609305119,0.9942731195628288,0.0,6.602634965690498,4.6044365344592135,-2.05674364567486,-3.9878519097765635,1.7070690703756652,-1.1361373700773376,1.6399574042605678,-4.936243623588451,62.32109112239225,36.63499719679015,-58.46771867327002,86.29454247170045,49.22947787679861,-67.29443633278532,-138.5841010588727,71.28966472608738,-59.1255946184661
21,90.2791371735072,123.28474115623857,93.1626030792472,105.30421779278147,113.00559119827102,141.54339268703325,35.10140593092716,39.551956919394854,56.6173570748133,40.9269568674821,16.406243669763374,12.278087060244628,5.468747889921124,-86.0726569053545,-123.28474115623857,-93.16260307924722,-40.9269568674821,105.30421779278146,-16.40624366976337,113.00559119827102,0.0,141.54339268703322,18.650177468318493,-14.45176831955668,16.412049077844514,-15.0,30.0,-10.0,35.0,0.0,50.0,1.00000001,1.0484795353846066,1.0338280215736484,1.01140768212397,1.0079427384091215,1.0439251890969723,1.030474116655055,1.0416674609305119,0.9942731195628288,0.0,3.7190518487555715,3.1014722384905404,-2.840601583960919,-5.454110663969373,-0.026492604936963694,-3.1362895122939642,-0.6957577428789732,-6.611007044321037,86.0726569053545,49.58080269229938,-55.72341510048206,93.1626030792472,53.8454316485285,-59.16015954974256,-123.28474115623858,64.12458160649601,-77.4188110805372
22,51.86686575347998,87.74034306044246,58.276722426790165,80.76199520334552,93.7324348148633,114.70767326759152,26.92066506778184,32.80635218520215,45.88306930703661,61.3994599237276,32.632513839179914,18.419837977118277,10.87750461305997,-49.15306403566021,-87.74034306044246,-58.27672242679017,-61.3994599237276,80.76199520334552,-32.632513839179914,93.7324348148633,0.0,114.7076732675915,18.650177468318493,-14.45176831955668,16.412049077844514,-15.0,30.0,-10.0,35.0,0.0,50.0,1.00000001,1.0484795353846066,1.0338280215736484,1.01140768212397,1.0079427384091215,1.0439251890969723,1.030474116655055,1.0416674609305119,0.9942731195628288,0.0,2.2026556197231675,2.147651632669553,-1.6221675567626515,-3.7477493602467384,0.19099163266801802,-2.723951930432284,-0.9393139742726535,-5.042378885326716,49.15306403566021,40.32434890356131,-40.43764629978421,58.27672242679017,50.47158996618587,-43.26084484867745,-87.74034306044246,44.479498211765005,-70.22817505582648
23,78.03286767650225,117.98856678838379,72.22456355647192,96.96705065259721,117.11167331416283,150.15112207616326,32.3223502175324,40.989085659956984,60.060448830465305,58.081226383714366,41.58137637889725,17.42436791511431,13.860458792965748,-74.35411293545599,-117.98856678838379,-72.2245635564719,-58.081226383714366,96.96705065259721,-41.58137637889725,117.11167331416283,0.0,150.15112207616326,18.650177468318493,-14.45176831955668,16.412049077844514,-15.0,30.0,-10.0,35.0,0.0,50.0,1.00000001,1.0484795353846066,1.0338280215736484,1.01140768212397,1.0079427384091215,1.0439251890969723,1.030474116655055,1.0416674609305119,0.9942731195628288,0.0,3.2518700632252946,2.710308323400231,-2.453861871729048,-4.808520339736277,0.2853449993895446,-3.267057335796968,-0.9732842541320962,-6.728150301366342,74.35411293545599,44.67015546379535,-52.29689518880184,72.22456355647192,61.50904474656731,-55.602628567595545,-117.98856678838379,62.38593822078825,-87.765183855375
24,47.356002120410956,57.95792752682332,50.48571592033341,79.88858515738495,90.85677467711172,104.99468808739829,26.629528385794984,31.799871136989097,41.99787523495932,91.23771163968924,30.839343969533513,27.371313491906772,10.279781323177836,-45.21934886551551,-57.95792752682332,-50.485715920333405,-91.23771163968924,79.88858515738495,-30.839343969533516,90.85677467711172,0.0,104.99468808739829,18.650177468318493,-14.45176831955668,16.412049077844514,-15.0,30.0,-10.0,35.0,0.0,50.0,1.00000001,1.0484795353846066,1.0338280215736484,1.01140768212397,1.0079427384091215,1.0439251890969723,1.030474116655055,1.0416674609305119,0.9942731195628288,0.0,-1.4000995857699094,-0.07262814238007953,-1.4923456371784658,-4.321426684624768,-1.7677025528679577,-4.950353723743478,-3.4755649836524554,-5.5241723603388,45.21934886551551,53.67041204750858,-26.218173109876364,50.48571592033341,55.106886779990575,-35.749887897121184,-57.95792752682332,22.208039629702128,-82.78664845769617
25,72.35943859766556,86.06385076935315,67.98992955321161,89.58170397502813,97.42364657032822,116.86501720846232,29.860567991676042,34.098276299614874,46.74600688338493,43.04169627813144,37.52050802201422,12.91250888343943,12.506836007338073,-69.25438313110828,-86.06385076935317,-67.9899295532116,-43.04169627813144,89.58170397502813,-37.52050802201422,97.42364657032823,0.0,116.86501720846232,18.650177468318493,-14.45176831955668,16.412049077844514,-15.0,30.0,-10.0,35.0,0.0,50.0,1.00000001,1.0484795353846066,1.0338280215736484,1.01140768212397,1.0079427384091215,1.0439251890969723,1.030474116655055,1.0416674609305119,0.9942731195628288,0.0,1.6079789555173636,2.4825423429294564,-2.2855587069280365,-4.476771903945221,0.19975823943404053,-3.1209996653305785,-1.4739556805624359,-5.730045948275235,69.25438313110828,41.56944010989246,-48.01226386513566,67.98992955321161,57.49817371009018,-39.925472860238095,-86.06385076935315,46.13837790911506,-70.72663929934727
26,82.86074669898912,98.02966336306088,91.79635168666891,103.30218303961549,111.84096269627571,135.49526579842748,34.43406101320516,39.144336943696494,54.19810631937099,61.3551126589553,20.336192983593296,18.40653379768659,6.778730994531099,-79.12109084204036,-98.02966336306088,-91.79635168666891,-61.3551126589553,103.30218303961549,-20.336192983593296,111.84096269627572,0.0,135.49526579842748,18.650177468318493,-14.45176831955668,16.412049077844514,-15.0,30.0,-10.0,35.0,0.0,50.0,1.00000001,1.0484795353846066,1.0338280215736484,1.01140768212397,1.0079427384091215,1.0439251890969723,1.030474116655055,1.0416674609305119,0.9942731195628288,0.0,1.2234758171904507,2.4117998967665746,-2.611183435614778,-5.462844106106785,-0.6702926096714455,-4.30471081519274,-2.286952918929312,-6.817886491806989,79.12109084204036,54.09876940186374,-49.203413637751744,91.79635168666891,62.929131032510455,-48.91183166376529,-98.02966336306088,49.11783169929558,-86.3774340991319
27,54.97803158897408,83.98413796931482,55.87536675253865,78.81425052411159,84.35544383661649,103.98607435035947,26.271416841370527,29.52440534281577,41.594429740143795,40.310030519821446,34.68022500743471,12.093009155946433,11.560075002478236,-52.30600846197794,-83.98413796931482,-55.87536675253867,-40.310030519821446,78.81425052411159,-34.68022500743471,84.35544383661649,0.0,103.98607435035947,18.650177468318493,-14.45176831955668,16.412049077844514,-15.0,30.0,-10.0,35.0,0.0,50.0,1.00000001,1.0484795353846066,1.0338280215736484,1.01140768212397,1.0079427384091215,1.0439251890969723,1.030474116655055,1.0416674609305119,0.9942731195628288,0.0,2.6816823907264267,2.6481723582865357,-1.7262221921550178,-3.5445810577632955,0.7721386597982218,-1.8982613172864444,-0.32577801657741573,-4.5567486450399795,52.30600846197794,34.49603172575383,-44.31821879835774,55.87536675253865,46.23737296161563,-38.11807087500088,-83.98413796931482,45.866067094313934,-58.12000725604556
28,59.615847784105966,86.03678578234026,72.5816281415592,85.54417914361767,99.6355313704348,125.00723986382535,28.51472638120589,34.87243597965218,50.00289594553014,68.89173105827905,26.053845970931167,20.667519317483713,8.684615323643722,-56.622959424768155,-86.03678578234026,-72.58162814155918,-68.89173105827905,85.54417914361767,-26.053845970931167,99.6355313704348,0.0,125.00723986382533,18.650177468318493,-14.45176831955668,16.412049077844514,-15.0,30.0,-10.0,35.0,0.0,50.0,1.00000001,1.0484795353846066,1.0338280215736484,1.01140768212397,1.0079427384091215,1.0439251890969723,1.030474116655055,1.0416674609305119,0.9942731195628288,0.0,1.3060373844626978,2.2404681496903995,-1.8686918007819202,-4.207330627711003,-0.19648373445139405,-3.5148950068515656,-1.774928058161842,-5.820735611431469,56.622959424768155,44.366247331402526,-41.177931812215135,72.5816281415592,57.45754230027522,-42.177989070159605,-86.03678578234026,43.858796712180656,-81.14844315164467
29,65.32966038299709,78.26024110676458,56.737734191258575,83.34225310818468,95.71107628981925,125.30412905156632,27.78075103606156,33.498876701436735,50.12165162062653,77.2749217460912,29.502215968292415,23.182476523827358,9.834071989430804,-62.58234543716354,-78.26024110676458,-56.73773419125857,-77.2749217460912,83.34225310818468,-29.502215968292415,95.71107628981925,0.0,125.30412905156632,18.650177468318493,-14.45176831955668,16.412049077844514,-15.0,30.0,-10.0,35.0,0.0,50.0,1.00000001,1.0484795353846066,1.0338280215736484,1.01140768212397,1.0079427384091215,1.0439251890969723,1.030474116655055,1.0416674609305119,0.9942731195628288,0.0,-0.21402696730962728,0.2863650045415255,-2.0653656569736625,-4.759009152142412,-1.6186229625188893,-4.737273331588859,-3.016515416743281,-6.387919769565788,62.58234543716354,51.101030288720274,-32.24122281946439,56.737734191258575,53.99872734008659,-41.7123489497327,-78.26024110676458,36.54789215703188,-88.75623689453445
30,69.9607313431924,88.74179543010223,87.76017111252483,92.61766446720468,99.75214093992831,125.65759789013082,30.872554822401558,34.913249328974906,50.26303915605233,56.45231101196176,18.492410597399182,16.93569330358853,6.164136865799727,-66.58071514527583,-88.74179543010223,-87.76017111252483,-56.45231101196176,92.61766446720468,-18.492410597399182,99.75214093992831,0.0,125.65759789013082,18.650177468318493,-14.45176831955668,16.412049077844514,-15.0,30.0,-10.0,35.0,0.0,50.0,1.00000001,1.0484795353846066,1.0338280215736484,1.01140768212397,1.0079427384091215,1.0439251890969723,1.030474116655055,1.0416674609305119,0.9942731195628288,0.0,1.5672275592816072,3.021854851631563,-2.1973213294773495,-4.567066607961865,0.07527842697271363,-3.3086111367331332,-1.610603906067264,-5.999764925567,66.58071514527583,44.95636689472256,-47.66129757248211,87.76017111252483,58.591284137441896,-41.16085680248644,-88.74179543010223,47.58093862761578,-78.07665926251505
31,42.417928468535756,89.72650121425414,53.83981363353191,72.20506695731703,71.55694742590286,94.82286056333875,24.06835565243901,25.044931599066,37.9291442253355,28.62464916772066,26.526590568160053,8.587394750316196,8.84219685605335,-39.867320362891896,-89.72650121425414,-53.83981363353192,-28.62464916772066,72.20506695731703,-26.526590568160053,71.55694742590288,0.0,94.82286056333876,18.650177468318493,-14.45176831955668,16.412049077844514,-15.0,30.0,-10.0,35.0,0.0,50.0,1.00000001,1.0484795353846066,1.0338280215736484,1.01140768212397,1.0079427384091215,1.0439251890969723,1.030474116655055,1.0416674609305119,0.9942731195628288,0.0,4.6342557847584995,3.6443590773230836,-1.3157160176388505,-2.678366557822803,1.8366697400133227,-0.1276723473429057,1.421162140975863,-3.392401076806519,39.867320362891896,25.850802695966596,-46.35426426135042,53.839813633531925,34.01213994034153,-37.54480748556134,-89.72650121425414,52.18169372869281,-42.64116683464596
32,44.56282132370538,73.08951506438191,46.721206330671194,76.7567025931074,80.168924257677,102.43426930358683,25.5855675310358,28.05912349018695,40.973707721434735,54.967190807103684,42.273399239826745,16.490157242131104,14.091133079942248,-42.30858471238775,-73.08951506438191,-46.72120633067121,-54.967190807103684,76.7567025931074,-42.273399239826745,80.168924257677,0.0,102.43426930358683,18.650177468318493,-14.45176831955668,16.412049077844514,-15.0,30.0,-10.0,35.0,0.0,50.0,1.00000001,1.0484795353846066,1.0338280215736484,1.01140768212397,1.0079427384091215,1.0439251890969723,1.030474116655055,1.0416674609305119,0.9942731195628288,0.0,1.9580178360935059,2.325012147116086,-1.3962835245263234,-3.2656756924709662,0.7563323763227717,-1.9986608486024162,-0.6593076263108284,-4.406595395395704,42.30858471238775,35.464182980031325,-41.292519613076074,46.72120633067119,47.70208595742186,-32.46683830025517,-73.08951506438191,40.622676764126744,-61.811592539460094
33,74.53979473609857,114.6322498080423,67.92483602290831,82.40153676994137,91.35201875382316,116.8236323063908,27.46717892331379,31.973206563838104,46.72945292255633,22.622254122054112,14.383907674840644,6.786676236616233,4.794635891613548,-71.01394020231001,-114.6322498080423,-67.92483602290832,-22.622254122054112,82.40153676994137,-14.383907674840643,91.35201875382316,0.0,116.8236323063908,18.650177468318493,-14.45176831955668,16.412049077844514,-15.0,30.0,-10.0,35.0,0.0,50.0,1.00000001,1.0484795353846066,1.0338280215736484,1.01140768212397,1.0079427384091215,1.0439251890969723,1.030474116655055,1.0416674609305119,0.9942731195628288,0.0,4.480178808253944,2.4886933226356445,-2.3436282586675774,-4.2659434908512495,0.20809475569238078,-1.8927349227798993,0.37521373944759095,-5.127791074761104,71.01394020231001,36.46818485091775,-45.933351919023615,67.9248360229083,36.375391778725316,-54.97662697509786,-114.6322498080423,59.655622832944445,-57.16800947344637
34,57.99283894493689,92.10664283518243,69.54929850904728,97.75049629453008,108.60047204036279,125.86159276920608,32.583498764843355,38.01016521412697,50.34463710768244,60.414347359930524,55.16172067573963,18.124304207979158,18.387240225246543,-54.980551724199124,-92.10664283518241,-69.54929850904728,-60.414347359930524,97.75049629453008,-55.16172067573963,108.60047204036277,0.0,125.86159276920608,18.650177468318493,-14.45176831955668,16.412049077844514,-15.0,30.0,-10.0,35.0,0.0,50.0,1.00000001,1.0484795353846066,1.0338280215736484,1.01140768212397,1.0079427384091215,1.0439251890969723,1.030474116655055,1.0416674609305119,0.9942731195628288,0.0,2.6059622968074154,3.889612354243104,-1.8144884558000625,-3.974807916665939,1.554471928462048,-2.369568753660488,-0.692363890426857,-5.438435718456031,54.980551724199124,40.98335596415036,-56.76714033037972,69.54929850904728,67.94387885440719,-40.656593185955614,-92.10664283518243,51.45004964922681,-74.41154311997929
35,66.96615275453432,103.06960509087632,92.85109042595501,91.93192876150567,99.05450747034244,122.47920609082823,30.643976253835223,34.66907761461985,48.991682436331295,35.19218098962679,18.991871841201643,10.557654296888037,6.330623947067214,-63.36089397501661,-103.06960509087634,-92.85109042595502,-35.19218098962679,91.93192876150567,-18.991871841201643,99.05450747034244,0.0,122.47920609082823,18.650177468318493,-14.45176831955668,16.412049077844514,-15.0,30.0,-10.0,35.0,0.0,50.0,1.00000001,1.0484795353846066,1.0338280215736484,1.01140768212397,1.0079427384091215,1.0439251890969723,1.030474116655055,1.0416674609305119,0.9942731195628288,0.0,3.9438791676253593,4.723185803691594,-2.0910596031039383,-3.9372713175347425,1.6056800993990488,-1.5670705101231,0.2529708127582857,-5.184994484602864,63.36089397501661,35.02442728881179,-56.907501472693895,92.851090425955,54.93546079446274,-44.11904667587971,-103.06960509087634,58.950558414996614,-63.528647675831586
36,74.43459055496689,123.91595275115536,66.72026975526059,93.16867617561849,95.25905283832459,123.83293276502802,31.05622539187283,33.3406684934136,49.53317310601121,29.810767138966355,21.014291488388853,8.943230141689906,7.00476382946295,-70.79938064519999,-123.91595275115534,-66.72026975526057,-29.810767138966355,93.16867617561849,-21.01429148838885,95.25905283832459,0.0,123.83293276502803,18.650177468318493,-14.45176831955668,16.412049077844514,-15.0,30.0,-10.0,35.0,0.0,50.0,1.00000001,1.0484795353846066,1.0338280215736484,1.01140768212397,1.0079427384091215,1.0439251890969723,1.030474116655055,1.0416674609305119,0.9942731195628288,0.0,5.233155998154254,2.705482179706308,-2.3365472849914557,-4.539286315284626,0.4653273188451478,-1.6342658224598998,0.7957428062894257,-5.201264281112129,70.79938064519999,41.78809634869883,-51.38057982691965,66.72026975526059,36.353981416729795,-58.90507142159482,-123.91595275115536,65.01088132956055,-58.82205143546751
37,65.78392094265021,94.66234445080448,78.2699067062834,88.30060514172453,111.46830036322008,137.14018473315886,29.43353504724151,39.013905127127025,54.85607389326355,81.43976630206927,20.026931338521493,24.431929890620783,6.675643779507164,-62.51014144042489,-94.66234445080448,-78.2699067062834,-81.43976630206927,88.30060514172453,-20.026931338521493,111.46830036322008,0.0,137.14018473315886,18.650177468318493,-14.45176831955668,16.412049077844514,-15.0,30.0,-10.0,35.0,0.0,50.0,1.00000001,1.0484795353846066,1.0338280215736484,1.01140768212397,1.0079427384091215,1.0439251890969723,1.030474116655055,1.0416674609305119,0.9942731195628288,0.0,0.8600549945550869,1.527289345589703,-2.0629827540300525,-4.74516690721242,-1.1006483502618007,-4.616713140558499,-2.529790515347879,-6.595441678595283,62.51014144042489,50.883635454182894,-37.41696968754163,78.2699067062834,60.879868357263256,-50.58843200595687,-94.66234445080448,44.073912444847615,-93.06627228831127
38,61.193993436323,101.33234883073443,72.82074351670875,85.1817248932056,83.45756803692949,120.03523660038974,28.393908297735198,29.21014881292532,48.014094640155896,40.35972437957632,16.195294853879837,12.107917313872896,5.398431617959945,-57.96641794962553,-101.33234883073442,-72.82074351670875,-40.35972437957632,85.1817248932056,-16.195294853879837,83.4575680369295,0.0,120.03523660038974,18.650177468318493,-14.45176831955668,16.412049077844514,-15.0,30.0,-10.0,35.0,0.0,50.0,1.00000001,1.0484795353846066,1.0338280215736484,1.01140768212397,1.0079427384091215,1.0439251890969723,1.030474116655055,1.0416674609305119,0.9942731195628288,0.0,4.041220479497567,3.384837884452003,-1.9130291147548346,-3.824681636084902,0.9398576234479342,-1.376096116734554,0.41252303190475137,-4.935450441275895,57.96641794962553,36.265902881805225,-48.915822011400365,72.82074351670873,40.10021635918821,-43.3573516777413,-101.33234883073445,57.974997152993126,-62.06023944739661
39,73.47479900791316,127.39972733124294,68.5094941155717,95.94132624904952,105.63270213945931,133.47883698313387,31.980442083016506,36.97144574881076,53.391534793253555,36.1487940749755,33.21441254619508,10.84463822249265,11.071470848731693,-69.78043730365752,-127.39972733124293,-68.50949411557173,-36.1487940749755,95.94132624904952,-33.21441254619508,105.6327021394593,0.0,133.47883698313387,18.650177468318493,-14.45176831955668,16.412049077844514,-15.0,30.0,-10.0,35.0,0.0,50.0,1.00000001,1.0484795353846066,1.0338280215736484,1.01140768212397,1.0079427384091215,1.0439251890969723,1.030474116655055,1.0416674609305119,0.9942731195628288,0.0,5.331942779640841,3.2819149414146835,-2.3029197408442514,-4.430981642655946,0.9816862879471,-1.683897352956876,0.7697761001422765,-5.495678794732645,69.78043730365752,40.37139877485474,-55.56992747419477,68.5094941155717,46.153979187572,-59.47872295188732,-127.39972733124293,67.92100437935562,-65.55783260377825
40,65.87226098487105,102.58942123518707,57.228653232670005,79.4329641150988,94.62864254639764,114.56933939935753,26.477654705032933,33.120024891239176,45.827735759743014,41.89488031016185,24.14087206216267,12.568464093048556,8.046957354054223,-62.77711922067234,-102.58942123518707,-57.22865323267001,-41.89488031016185,79.4329641150988,-24.14087206216267,94.62864254639764,0.0,114.56933939935752,18.650177468318493,-14.45176831955668,16.412049077844514,-15.0,30.0,-10.0,35.0,0.0,50.0,1.00000001,1.0484795353846066,1.0338280215736484,1.01140768212397,1.0079427384091215,1.0439251890969723,1.030474116655055,1.0416674609305119,0.9942731195628288,0.0,3.0662961005714617,1.570194822627711,-2.0717936532484558,-4.184449830745222,-0.3512759116778169,-2.7778566819095376,-0.6074169365947908,-5.217557289839582,62.77711922067234,40.07913723903945,-39.35382687605933,57.228653232670005,42.01569841877335,-52.61294412762432,-102.58942123518707,49.97647710756276,-64.59286229179475
41,45.241450879364784,95.56323846192105,72.59972176510283,72.87849957332486,86.88697788207723,102.4808881826662,24.292833191108286,30.41044225872703,40.99235527306649,39.798082756689226,11.970523038787881,11.939424827006768,3.990174346262627,-42.31479961556731,-95.56323846192105,-72.59972176510283,-39.798082756689226,72.87849957332486,-11.970523038787881,86.88697788207722,0.0,102.4808881826662,18.650177468318493,-14.45176831955668,16.412049077844514,-15.0,30.0,-10.0,35.0,0.0,50.0,1.00000001,1.0484795353846066,1.0338280215736484,1.01140768212397,1.0079427384091215,1.0439251890969723,1.030474116655055,1.0416674609305119,0.9942731195628288,0.0,4.113453483222772,3.65797505245949,-1.3964886310543518,-2.9702039197911794,1.2204156689943195,-1.1790756663388409,0.6913470829288113,-3.941525912116042,42.31479961556731,29.854905736337912,-43.02359383698694,72.59972176510283,41.54665096690377,-45.340326915173456,-95.56323846192106,50.222911546747596,-52.25797663591862
42,53.02525917317906,81.67713894521832,77.68641376074875,83.33440474478218,82.4944340468863,116.4956699235243,27.778134914927392,28.8730519164102,46.598267969409726,43.9296182962509,28.91880176552453,13.17888548887527,9.639600588508177,-50.1125359474503,-81.67713894521832,-77.68641376074876,-43.9296182962509,83.33440474478218,-28.91880176552453,82.4944340468863,0.0,116.4956699235243,18.650177468318493,-14.45176831955668,16.412049077844514,-15.0,30.0,-10.0,35.0,0.0,50.0,1.00000001,1.0484795353846066,1.0338280215736484,1.01140768212397,1.0079427384091215,1.0439251890969723,1.030474116655055,1.0416674609305119,0.9942731195628288,0.0,2.998952901122251,4.559292499813556,-1.6538324028402378,-3.2382789755169887,1.9509457702907609,-1.1290423590875807,0.07410581095686473,-4.769927301959786,50.1125359474503,30.058488603422745,-53.27591614135943,77.68641376074875,53.32929938491384,-29.165134661972477,-81.67713894521832,52.51200428324584,-63.98366564027843
43,69.29599198840629,85.49157706937945,79.3122776836152,92.12783435537422,98.9967476928697,127.30795941554798,30.709278118458073,34.6488616925044,50.923183766219196,62.530687046236004,25.01247839120947,18.7592061138708,8.337492797069823,-66.08552127335183,-85.49157706937946,-79.3122776836152,-62.530687046236004,92.12783435537422,-25.01247839120947,98.99674769286969,0.0,127.307959415548,18.650177468318493,-14.45176831955668,16.412049077844514,-15.0,30.0,-10.0,35.0,0.0,50.0,1.00000001,1.0484795353846066,1.0338280215736484,1.01140768212397,1.0079427384091215,1.0439251890969723,1.030474116655055,1.0416674609305119,0.9942731195628288,0.0,1.0847692572131207,2.438151345907329,-2.1809787585898044,-4.645074762525417,-0.22478429614936576,-3.6289992342684285,-1.9766723365324104,-6.168159346805635,66.08552127335183,46.746291689034344,-45.38154266633988,79.3122776836152,58.94321340848479,-40.05353428438494,-85.49157706937945,45.43804278499451,-81.8699166305535
44,50.819619842765235,92.2042843680305,70.27226356126823,86.73271047403449,101.6356429660614,125.38881134628491,28.91090349134483,35.57247503812149,50.155524538513966,64.90132188114201,38.48484193613312,19.470396564342604,12.828280645377706,-47.894453039806955,-92.2042843680305,-70.27226356126823,-64.90132188114201,86.73271047403449,-38.48484193613312,101.6356429660614,0.0,125.38881134628491,18.650177468318493,-14.45176831955668,16.412049077844514,-15.0,30.0,-10.0,35.0,0.0,50.0,1.00000001,1.0484795353846066,1.0338280215736484,1.01140768212397,1.0079427384091215,1.0439251890969723,1.030474116655055,1.0416674609305119,0.9942731195628288,0.0,2.7344249225259856,3.5342735803312633,-1.5806304122506296,-3.5795310059975955,1.1748593666607656,-2.2872405345313696,-0.5673977945441511,-5.227133653467626,47.894453039806955,37.921083457558844,-48.81162701647564,70.27226356126823,59.945478480925715,-41.6901644851357,-92.2042843680305,50.514119882894796,-74.87469146339009
45,46.14777122128578,74.36507455744085,64.48165971059507,91.31190901362999,100.72572596325124,124.08593084891892,30.437303004543327,35.25400408713793,49.63437233956757,94.71314953111411,38.95294553899032,28.413944859334233,12.98431517966344,-43.61073648765983,-74.36507455744083,-64.48165971059507,-94.71314953111411,91.31190901362999,-38.95294553899032,100.72572596325124,0.0,124.08593084891892,18.650177468318493,-14.45176831955668,16.412049077844514,-15.0,30.0,-10.0,35.0,0.0,50.0,1.00000001,1.0484795353846066,1.0338280215736484,1.01140768212397,1.0079427384091215,1.0439251890969723,1.030474116655055,1.0416674609305119,0.9942731195628288,0.0,0.3640780936183134,1.9618127758514101,-1.4392576179072527,-4.128312384334086,-0.2031800211942828,-3.8495846870855632,-2.2989249784548487,-5.691373488093855,43.61073648765983,51.01397765282099,-40.29793136080898,64.48165971059507,63.1366738887764,-37.58905207447486,-74.36507455744085,36.776022482965985,-87.30990836595295
46,83.38503857542798,160.06854658620682,78.03544316168797,109.920813247406,126.51199710907787,149.38661267880053,36.640271082468665,44.27919898817725,59.754645071520216,50.11826277485922,18.621067376447197,15.035478832457764,6.207022458815732,-78.97610313608317,-160.06854658620682,-78.03544316168797,-50.11826277485922,109.920813247406,-18.6210673764472,126.51199710907787,0.0,149.3866126788005,18.650177468318493,-14.45176831955668,16.412049077844514,-15.0,30.0,-10.0,35.0,0.0,50.0,1.00000001,1.0484795353846066,1.0338280215736484,1.01140768212397,1.0079427384091215,1.0439251890969723,1.030474116655055,1.0416674609305119,0.9942731195628288,0.0,6.53490383091036,2.3868915188341733,-2.606398497842383,-5.532621163875033,-0.23317398688610266,-2.673227740345834,0.8028712357960764,-6.189901185345434,78.97610313608317,55.51328279212629,-54.40753045527971,78.03544316168797,42.24898008285545,-84.26301702622243,-160.06854658620682,75.8055295599844,-73.58108311881611
47,66.32140632693695,93.40647603643731,56.58636143247894,93.46450088816493,100.06040684082257,133.18862850812698,31.15483362938831,35.02114239428789,53.2754514032508,71.8118924857129,41.55395698077739,21.54356774571387,13.851318993592464,-63.35484930170795,-93.40647603643731,-56.586361432478924,-71.8118924857129,93.46450088816493,-41.55395698077739,100.06040684082257,0.0,133.18862850812698,18.650177468318493,-14.45176831955668,16.412049077844514,-15.0,30.0,-10.0,35.0,0.0,50.0,1.00000001,1.0484795353846066,1.0338280215736484,1.01140768212397,1.0079427384091215,1.0439251890969723,1.030474116655055,1.0416674609305119,0.9942731195628288,0.0,1.5470781815428243,1.3953222661483489,-2.0908601145649244,-4.730568231136675,-0.5045833110682294,-3.666833094326706,-1.7977948535057504,-6.234810614399576,63.35484930170795,50.07782383238623,-43.386677055778684,56.58636143247894,54.75364135747765,-45.30676548334494,-93.40647603643731,48.099710553092365,-85.08891795503459
48,66.88656368017277,107.00859653709374,102.5751676242067,96.8152798747738,117.58905788268692,137.1070458978297,32.27175995825793,41.15617025894042,54.84281835913188,49.76723274083447,29.0653671661194,14.930169822250342,9.6884557220398,-63.095019587036106,-107.00859653709374,-102.57516762420667,-49.76723274083447,96.8152798747738,-29.0653671661194,117.58905788268693,0.0,137.10704589782966,18.650177468318493,-14.45176831955668,16.412049077844514,-15.0,30.0,-10.0,35.0,0.0,50.0,1.00000001,1.0484795353846066,1.0338280215736484,1.01140768212397,1.0079427384091215,1.0439251890969723,1.030474116655055,1.0416674609305119,0.9942731195628288,0.0,3.5820092220588284,5.368186774274153,-2.0822851184442803,-3.986756984112968,1.9241920002737452,-2.173749587647782,-0.2499538736872388,-5.819269836834005,63.095019587036106,36.12967887773671,-60.685600997037085,102.5751676242067,70.95493379328903,-46.63412408939794,-107.00859653709374,60.374472447695794,-76.73257345013388
49,96.68723381762403,123.33925259107062,118.65056509888333,114.02102717049597,127.12692474410315,149.962278274036,38.00700905683199,44.4944236604361,59.984911309614404,34.36703761066577,22.710794925834392,10.31011128319973,7.57026497527813,-92.042579962181,-123.33925259107063,-118.6505650988833,-34.36703761066577,114.02102717049596,-22.710794925834392,127.12692474410315,0.0,149.96227827403598,18.650177468318493,-14.45176831955668,16.412049077844514,-15.0,30.0,-10.0,35.0,0.0,50.0,1.00000001,1.0484795353846066,1.0338280215736484,1.01140768212397,1.0079427384091215,1.0439251890969723,1.030474116655055,1.0416674609305119,0.9942731195628288,0.0,3.764834607605907,5.268430369035559,-3.0376231875811417,-5.419667564331291,1.2846988714687304,-2.9042107967689232,-0.6519270309980615,-6.993148258026485,92.042579962181,45.18969272055041,-68.83133444994553,118.65056509888333,72.53002557477221,-54.59689916933097,-123.3392525910706,68.74235342173965,-81.21992485229637
50,47.41215409267183,96.97434037995174,63.08488041951213,75.1788759226453,86.14430952874906,106.36735557119071,25.059625307548433,30.15050833506217,42.54694222847629,38.23895029823781,24.82550079320121,11.471685089471343,8.27516693106707,-44.56686913168219,-96.97434037995174,-63.08488041951213,-38.23895029823781,75.1788759226453,-24.82550079320121,86.14430952874906,0.0,106.36735557119071,18.650177468318493,-14.45176831955668,16.412049077844514,-15.0,30.0,-10.0,35.0,0.0,50.0,1.00000001,1.0484795353846066,1.0338280215736484,1.01140768212397,1.0079427384091215,1.0439251890969723,1.030474116655055,1.0416674609305119,0.9942731195628288,0.0,4.288946798591901,3.55381293416786,-1.47081226023778,-3.0215056856008307,1.4357174582802987,-0.9986003764205258,0.8163090330692069,-4.070866754697158,44.56686913168219,29.41815865392845,-45.76071726871685,63.08488041951213,42.14966394399649,-43.994645584752575,-96.97434037995176,52.979694795199165,-53.38766077599153
51,62.08632689543488,91.29947861923401,81.73811371921391,82.12102863366728,85.79088697587991,117.49319557423607,27.373676211222424,30.026810441557966,46.99727822969443,27.99694498602192,25.508761920281174,8.399083495806575,8.502920640093723,-58.861811939032286,-91.29947861923401,-81.73811371921391,-27.99694498602192,82.12102863366728,-25.508761920281174,85.79088697587991,0.0,117.49319557423608,18.650177468318493,-14.45176831955668,16.412049077844514,-15.0,30.0,-10.0,35.0,0.0,50.0,1.00000001,1.0484795353846066,1.0338280215736484,1.01140768212397,1.0079427384091215,1.0439251890969723,1.030474116655055,1.0416674609305119,0.9942731195628288,0.0,3.700249942009173,4.777283735909216,-1.9425792375932025,-3.3553555021259633,2.0328998562070177,-0.9661333593274025,0.4308281941172943,-4.86744097699946,58.861811939032286,26.801736315351157,-55.319292318316116,81.73811371921391,51.92758332117894,-33.863303654700964,-91.29947861923402,57.43617496453304,-60.05702060970303
52,78.05928022349435,137.14372114593093,93.14786558384196,109.25339878366395,119.45647427280674,155.69401270793313,36.41779959455465,41.80976599548236,62.277605083173256,64.25279517364399,16.028980905363376,19.275838552093195,5.342993635121125,-73.83052295562361,-137.1437211459309,-93.14786558384196,-64.25279517364399,109.25339878366395,-16.028980905363376,119.45647427280673,0.0,155.69401270793315,18.650177468318493,-14.45176831955668,16.412049077844514,-15.0,30.0,-10.0,35.0,0.0,50.0,1.00000001,1.0484795353846066,1.0338280215736484,1.01140768212397,1.0079427384091215,1.0439251890969723,1.030474116655055,1.0416674609305119,0.9942731195628288,0.0,4.845758837483309,3.3749452449382615,-2.4365821620101604,-5.2308301527493635,0.24747521773512354,-2.8096274553988416,-0.06533891775475498,-6.579792644127207,73.83052295562361,53.0095951691686,-56.243803614495334,93.14786558384196,52.933042874710004,-66.52343139809675,-137.14372114593093,70.62028974783418,-85.07372296009895
53,68.48936336774791,114.68669322898621,71.42955963681338,86.60721498963889,98.32702710723768,130.05319092823814,28.869071663212964,34.414459487533186,52.02127637129526,40.460924255170056,23.41258160063285,12.138277276551017,7.8041938668776165,-64.99767430351221,-114.6866932289862,-71.4295596368134,-40.460924255170056,86.60721498963889,-23.41258160063285,98.32702710723768,0.0,130.05319092823814,18.650177468318493,-14.45176831955668,16.412049077844514,-15.0,30.0,-10.0,35.0,0.0,50.0,1.00000001,1.0484795353846066,1.0338280215736484,1.01140768212397,1.0079427384091215,1.0439251890969723,1.030474116655055,1.0416674609305119,0.9942731195628288,0.0,4.349927430155715,3.0918570072694633,-2.145077231476131,-4.110479548276864,0.693586199664353,-1.9354122521017727,0.24301274994789793,-5.465199114461924,64.99767430351221,37.28558864619288,-49.32162634344601,71.42955963681338,45.52051489400022,-52.80651221323746,-114.68669322898623,61.880181015748754,-68.17300991248939
54,75.39717222193725,129.23248799879036,79.06574741018859,99.60042661157566,100.47385057803629,128.9775299083897,33.20014220385855,35.165847702312696,51.59101196335588,37.52683728428853,11.72019180461217,11.25805118528656,3.90673060153739,-71.50654260012196,-129.23248799879036,-79.06574741018858,-37.52683728428853,99.60042661157566,-11.72019180461217,100.47385057803629,0.0,128.97752990838967,18.650177468318493,-14.45176831955668,16.412049077844514,-15.0,30.0,-10.0,35.0,0.0,50.0,1.00000001,1.0484795353846066,1.0338280215736484,1.01140768212397,1.0079427384091215,1.0439251890969723,1.030474116655055,1.0416674609305119,0.9942731195628288,0.0,5.370087110937587,2.9961751230635807,-2.3598853047702235,-4.817886814102735,0.34151681550196333,-1.8425246918620366,0.7422895244964941,-5.398985268818494,71.50654260012196,46.630673213959184,-52.96975339761646,79.06574741018858,37.816185817184305,-62.657664760852,-129.23248799879036,66.57482323793838,-62.402706670451316
55,56.87525387665745,92.7941188413404,78.74532149712088,90.20962951653974,111.10763445728611,134.48666886209344,30.069876505513243,38.887672060050136,53.79466754483738,80.14741846408882,30.374324072768673,24.044225539226645,10.12477469092289,-53.74274996060054,-92.7941188413404,-78.74532149712087,-80.14741846408882,90.20962951653974,-30.374324072768673,111.10763445728611,0.0,134.48666886209344,18.650177468318493,-14.45176831955668,16.412049077844514,-15.0,30.0,-10.0,35.0,0.0,50.0,1.00000001,1.0484795353846066,1.0338280215736484,1.01140768212397,1.0079427384091215,1.0439251890969723,1.030474116655055,1.0416674609305119,0.9942731195628288,0.0,1.5746443506219354,2.743805550127022,-1.7736380652495065,-4.201149032915546,0.0999056473101319,-3.6519338448755523,-1.7483002576556883,-6.051469352712206,53.74274996060054,46.05223805874565,-44.15739145779408,78.74532149712088,64.9622541120955,-46.14538034519066,-92.7941188413404,46.64873849614973,-87.83793036594369
56,60.32830496670404,118.82432519750833,65.9243947867242,99.97258777685138,109.67867393246101,131.80546523880975,33.324195925617126,38.38753587636135,52.7221860955239,45.29335229627672,54.447362629750366,13.588005688883017,18.149120876583453,-56.96729203786253,-118.82432519750833,-65.9243947867242,-45.29335229627672,99.97258777685138,-54.447362629750366,109.67867393246101,0.0,131.80546523880975,18.650177468318493,-14.45176831955668,16.412049077844514,-15.0,30.0,-10.0,35.0,0.0,50.0,1.00000001,1.0484795353846066,1.0338280215736484,1.01140768212397,1.0079427384091215,1.0439251890969723,1.030474116655055,1.0416674609305119,0.9942731195628288,0.0,5.358657173899965,4.491806200506515,-1.8800555927378348,-3.8391582992756694,2.278373101801658,-1.046258654064636,1.1035744630829458,-5.050252879693352,56.96729203786253,37.16607892806246,-62.806508848788916,65.9243947867242,57.56524856768564,-52.11342536477537,-118.82432519750833,66.71089983273296,-65.09456540607678
57,79.41521856703228,133.30051976576434,72.55305234376964,103.52779697440643,119.90378117051021,151.9057048978578,34.509265658135476,41.96632340967857,60.76228195914312,72.75510453597235,21.22559499796553,21.826531360791705,7.075198332655177,-75.5030113993026,-133.30051976576436,-72.55305234376965,-72.75510453597235,103.52779697440643,-21.22559499796553,119.9037811705102,0.0,151.9057048978578,18.650177468318493,-14.45176831955668,16.412049077844514,-15.0,30.0,-10.0,35.0,0.0,50.0,1.00000001,1.0484795353846066,1.0338280215736484,1.01140768212397,1.0079427384091215,1.0439251890969723,1.030474116655055,1.0416674609305119,0.9942731195628288,0.0,3.6650336679645505,1.2231652039703838,-2.491778242775913,-5.583592362022719,-1.212827238422207,-4.037326290694082,-1.1084395754595158,-6.855590523398171,75.5030113993026,58.65471330489711,-44.87308366950931,72.55305234376964,48.90556367222584,-70.99821749828438,-133.30051976576434,62.30230226747996,-89.60340263037784
58,89.38619871656486,130.66317642608823,77.54519149680206,94.92823170735785,114.78665953130631,151.13296067774806,31.642743902452615,40.175330835957205,60.453184271099225,47.54424206106048,19.790287413423567,14.263272618318144,6.596762471141188,-85.30495451903789,-130.66317642608823,-77.54519149680203,-47.54424206106048,94.92823170735785,-19.790287413423567,114.78665953130631,0.0,151.13296067774803,18.650177468318493,-14.45176831955668,16.412049077844514,-15.0,30.0,-10.0,35.0,0.0,50.0,1.00000001,1.0484795353846066,1.0338280215736484,1.01140768212397,1.0079427384091215,1.0439251890969723,1.030474116655055,1.0416674609305119,0.9942731195628288,0.0,3.774811995870615,1.9048275733279403,-2.8152655865258747,-5.318855948157673,-0.6987775725321623,-3.5808703006505342,-0.9042183459969645,-6.972109330269729,85.30495451903789,47.49553796920697,-47.43269373815088,77.54519149680206,49.90278517207474,-64.8838743592316,-130.66317642608823,65.77930206685663,-85.35365861089142
59,64.04827506367639,127.92973451689049,91.48293462958712,104.46274163652225,106.00292655021673,149.25262366077857,34.82091387884075,37.10102429257585,59.70104946431143,46.509166857787065,33.63559494458305,13.95275005733612,11.211864981527683,-60.16086089866983,-127.9297345168905,-91.4829346295871,-46.509166857787065,104.46274163652225,-33.63559494458305,106.00292655021673,0.0,149.25262366077857,18.650177468318493,-14.45176831955668,16.412049077844514,-15.0,30.0,-10.0,35.0,0.0,50.0,1.00000001,1.0484795353846066,1.0338280215736484,1.01140768212397,1.0079427384091215,1.0439251890969723,1.030474116655055,1.0416674609305119,0.9942731195628288,0.0,6.3043454971797726,5.961923326047687,-1.9854509307076234,-3.8462251382598964,2.8903538997242113,-0.3413647930569734,1.7231993334004512,-5.46123840172223,60.16086089866983,35.30069191084294,-69.16204972567931,91.4829346295871,55.95647984849085,-50.04644670172588,-127.92973451689048,77.8832878151646,-71.36933584561397
60,56.824420525491476,94.52032630038892,62.55721722073417,89.04561736646959,99.91801802671165,110.75621993977644,29.68187245548986,34.971306309349075,44.30248797591058,53.53879452796679,35.21257151721667,16.061638358390038,11.737523839072221,-53.89094576665115,-94.52032630038892,-62.557217220734174,-53.53879452796679,89.04561736646959,-35.21257151721667,99.91801802671165,0.0,110.75621993977644,18.650177468318493,-14.45176831955668,16.412049077844514,-15.0,30.0,-10.0,35.0,0.0,50.0,1.00000001,1.0484795353846066,1.0338280215736484,1.01140768212397,1.0079427384091215,1.0439251890969723,1.030474116655055,1.0416674609305119,0.9942731195628288,0.0,2.772055462431079,2.508036055991416,-1.7785288779249722,-4.05644493749302,0.40765704444034406,-2.592003703146234,-0.6127043970762208,-4.905912624649356,53.89094576665115,43.21427752556274,-45.83133984090684,62.557217220734174,51.93844889704399,-47.97956912966767,-94.52032630038892,46.54075717072125,-64.21546276905522
61,79.80873261946947,118.99862247209475,85.88089724336065,95.55619957095126,111.77982439810039,136.02639994815175,31.85206652365042,39.12293853933513,54.410559979260704,39.82885357187199,22.749563612288384,11.948656071561595,7.583187870762794,-75.90448701758767,-118.99862247209477,-85.88089724336066,-39.82885357187199,95.55619957095126,-22.749563612288384,111.77982439810037,0.0,136.02639994815178,18.650177468318493,-14.45176831955668,16.412049077844514,-15.0,30.0,-10.0,35.0,0.0,50.0,1.00000001,1.0484795353846066,1.0338280215736484,1.01140768212397,1.0079427384091215,1.0439251890969723,1.030474116655055,1.0416674609305119,0.9942731195628288,0.0,3.913751397977183,3.3788580637363306,-2.5050278892748734,-4.719712650810702,0.49537887337134573,-2.686238091936863,-0.34757287422385713,-6.0952289209165995,75.90448701758767,42.01471845928878,-53.54148111166248,85.88089724336065,55.088979743986556,-56.69084465411383,-118.99862247209475,62.30777781798092,-73.71862213017087
62,72.49311094316795,128.1320705148986,80.37202394254071,93.85797022677959,114.71537440072903,121.71245188299844,31.285990075593194,40.15038104025516,48.684980753199376,33.99386912938063,19.14834816399696,10.198160738814188,6.38278272133232,-68.63948475969016,-128.1320705148986,-80.3720239425407,-33.99386912938063,93.85797022677959,-19.148348163996957,114.71537440072902,0.0,121.71245188299844,18.650177468318493,-14.45176831955668,16.412049077844514,-15.0,30.0,-10.0,35.0,0.0,50.0,1.00000001,1.0484795353846066,1.0338280215736484,1.01140768212397,1.0079427384091215,1.0439251890969723,1.030474116655055,1.0416674609305119,0.9942731195628288,0.0,5.0656683738640105,3.205320371442574,-2.265265603977282,-4.502046314637741,0.5068034024230307,-2.270957429232882,0.47727658587879324,-5.197064042846407,68.63948475969016,42.433900050134376,-51.42407017664521,80.37202394254072,48.09630192989246,-66.61907247083656,-128.1320705148986,61.51299804406203,-60.1994538389364
63,56.98030220304854,108.7306160213864,69.60565175761585,78.56916245928988,89.78531546900108,111.57320539766773,26.189720819763295,31.424860414150373,44.629282159067095,34.589774077552164,13.24849625603538,10.37693222326565,4.41616541867846,-53.7531452133689,-108.7306160213864,-69.60565175761585,-34.589774077552164,78.56916245928988,-13.24849625603538,89.78531546900108,0.0,111.57320539766772,18.650177468318493,-14.45176831955668,16.412049077844514,-15.0,30.0,-10.0,35.0,0.0,50.0,1.00000001,1.0484795353846066,1.0338280215736484,1.01140768212397,1.0079427384091215,1.0439251890969723,1.030474116655055,1.0416674609305119,0.9942731195628288,0.0,4.690801869977068,3.1775498082653533,-1.7739811332172113,-3.5431762329682495,0.8405173037476668,-1.3453808336106081,0.7971734938002104,-4.441823665548848,53.7531452133689,33.56334739217949,-45.0058150671104,69.60565175761585,37.848332946540836,-51.93698252246024,-108.7306160213864,56.79363349892614,-54.77957189874159
64,72.21831445751532,130.5910650141737,90.88080289488335,105.9799005185277,113.90166557272838,136.91684179185583,35.326633506175895,39.86558295045493,54.76673671674234,40.346365835133135,26.789558729105718,12.10390975053994,8.929852909701905,-68.19061540981602,-130.5910650141737,-90.88080289488335,-40.346365835133135,105.9799005185277,-26.78955872910572,113.90166557272838,0.0,136.91684179185583,18.650177468318493,-14.45176831955668,16.412049077844514,-15.0,30.0,-10.0,35.0,0.0,50.0,1.00000001,1.0484795353846066,1.0338280215736484,1.01140768212397,1.0079427384091215,1.0439251890969723,1.030474116655055,1.0416674609305119,0.9942731195628288,0.0,5.731712054760783,4.761424386157409,-2.250451852060154,-4.484513183774635,1.7100717296000516,-1.4128550197080072,1.0552640126165993,-5.472277752220965,68.19061540981602,42.382310793377094,-63.5975897251506,90.88080289488333,54.07277189883847,-59.828893673889915,-130.5910650141737,70.76217134028377,-66.15467045157206
65,68.77410266361947,125.75533131886239,92.04512857020431,101.95791307618036,103.3996942807848,145.7366329229774,33.985971025393454,36.18989299827468,58.294653169190966,50.579116091349825,17.870676300916507,15.173734827404946,5.956892100305502,-64.84398799860962,-125.75533131886239,-92.04512857020433,-50.579116091349825,101.95791307618036,-17.870676300916507,103.39969428078481,0.0,145.73663292297744,18.650177468318493,-14.45176831955668,16.412049077844514,-15.0,30.0,-10.0,35.0,0.0,50.0,1.00000001,1.0484795353846066,1.0338280215736484,1.01140768212397,1.0079427384091215,1.0439251890969723,1.030474116655055,1.0416674609305119,0.9942731195628288,0.0,5.404159897018348,4.634066259123844,-2.1400052193315604,-4.3337355893305505,1.543620987522165,-1.3195457039275442,0.9008788121182505,-5.734457330870888,64.84398799860962,41.61719332334327,-60.34071975283708,92.0451285702043,49.57508511828373,-53.82460916250109,-125.7553313188624,71.93072215636131,-73.80591076661614
66,58.87504326706093,118.37181098620243,76.38562206950259,91.98316260880502,98.81203464093858,120.77894354556696,30.661054202935006,34.5842121243285,48.31157741822679,31.955323752720552,29.464684037666903,9.586597125816166,9.821561345888966,-55.3966999492181,-118.37181098620242,-76.38562206950257,-31.955323752720552,91.98316260880502,-29.464684037666903,98.81203464093858,0.0,120.77894354556696,18.650177468318493,-14.45176831955668,16.412049077844514,-15.0,30.0,-10.0,35.0,0.0,50.0,1.00000001,1.0484795353846066,1.0338280215736484,1.01140768212397,1.0079427384091215,1.0439251890969723,1.030474116655055,1.0416674609305119,0.9942731195628288,0.0,5.87721962695764,4.757037554471622,-1.8282223330806404,-3.5624687692801387,2.192365331074203,-0.5086505735781576,1.6383413876890702,-4.48009637661088,55.3966999492181,32.90033733984676,-59.08282526895826,76.38562206950259,46.76748083821123,-52.04455380272735,-118.37181098620243,66.32725718347508,-54.4516863620919
67,64.14150810044795,105.00772713720525,79.57289017617903,89.4597640674647,92.22339426785355,125.89663514533804,29.819921355821567,32.27818799374874,50.358654058135215,43.02036143999922,19.24830885917273,12.906108431999765,6.416102953057576,-60.73050586810008,-105.00772713720526,-79.57289017617904,-43.02036143999922,89.4597640674647,-19.24830885917273,92.22339426785356,0.0,125.89663514533802,18.650177468318493,-14.45176831955668,16.412049077844514,-15.0,30.0,-10.0,35.0,0.0,50.0,1.00000001,1.0484795353846066,1.0338280215736484,1.01140768212397,1.0079427384091215,1.0439251890969723,1.030474116655055,1.0416674609305119,0.9942731195628288,0.0,4.022111376914775,3.7619140279527157,-2.00425056418749,-3.977388946713999,1.090228236291418,-1.6123068015119033,0.2617991386502604,-5.23405607092318,60.73050586810008,37.43234931800319,-52.02741474946151,79.57289017617903,46.793784285890254,-45.42960998196332,-105.00772713720525,59.57811715524193,-66.31851799009611
68,59.15273489031701,81.79198276224453,70.00951772579764,85.02678997453734,98.51729389677452,111.72495344533378,28.342263324845778,34.48105286387108,44.68998137813352,66.85757426915252,20.350276956975023,20.057272280745757,6.783425652325008,-56.25968560247597,-81.79198276224454,-70.00951772579765,-66.85757426915252,85.02678997453734,-20.350276956975023,98.51729389677452,0.0,111.7249534453338,18.650177468318493,-14.45176831955668,16.412049077844514,-15.0,30.0,-10.0,35.0,0.0,50.0,1.00000001,1.0484795353846066,1.0338280215736484,1.01140768212397,1.0079427384091215,1.0439251890969723,1.030474116655055,1.0416674609305119,0.9942731195628288,0.0,0.8419946822112836,1.515762269499189,-1.8567029040507617,-4.406007742196992,-0.8348301668814455,-3.9359846859639265,-2.0869649492158366,-5.497351381765954,56.25968560247597,48.36278593768788,-36.66400403684944,70.00951772579764,53.69579064592322,-44.82150325085133,-81.79198276224453,36.9704795113932,-74.7544739339406
69,73.8397090709456,96.64463711797852,80.57080284864237,91.06094126209517,101.92844096084758,127.83244399154928,30.353647087365054,35.67495433629665,51.13297759661972,51.77936447296073,21.43031027559118,15.533809341888219,7.143436758530393,-70.3967114993193,-96.64463711797852,-80.57080284864239,-51.77936447296073,91.06094126209517,-21.43031027559118,101.92844096084758,0.0,127.8324439915493,18.650177468318493,-14.45176831955668,16.412049077844514,-15.0,30.0,-10.0,35.0,0.0,50.0,1.00000001,1.0484795353846066,1.0338280215736484,1.01140768212397,1.0079427384091215,1.0439251890969723,1.030474116655055,1.0416674609305119,0.9942731195628288,0.0,2.0036158610741803,2.547721106288404,-2.323258249254373,-4.677265979110115,-0.15746992946338928,-3.368483896335036,-1.4572152760717878,-6.0985072872711505,70.3967114993193,44.65781032976077,-46.403130932334385,80.57080284864237,55.59798219189916,-46.33045876894845,-96.64463711797853,50.31417834903006,-77.51826564251922
70,80.29338383526934,119.9515957371289,72.60586982834118,98.77127373820579,108.9966260780433,119.69465807920608,32.92375791273526,38.14881912731516,47.87786323168243,36.67204658045513,21.681568087084674,11.00161397413654,7.227189362361558,-76.55147766244531,-119.95159573712888,-72.60586982834116,-36.67204658045513,98.77127373820579,-21.68156808708467,108.9966260780433,0.0,119.69465807920605,18.650177468318493,-14.45176831955668,16.412049077844514,-15.0,30.0,-10.0,35.0,0.0,50.0,1.00000001,1.0484795353846066,1.0338280215736484,1.01140768212397,1.0079427384091215,1.0439251890969723,1.030474116655055,1.0416674609305119,0.9942731195628288,0.0,3.890097705151609,2.03597963647883,-2.526380113275713,-5.158565835303396,-0.4017861702187226,-3.0267860710769696,-0.4053524083464681,-5.608614960445143,76.55147766244531,49.93511671018185,-48.83615702802394,72.60586982834118,45.45128088740192,-63.54534519064141,-119.9515957371289,56.406250546487485,-63.288407532718566
71,55.991322025272666,93.63739818371336,63.31887367078622,79.48705282070573,96.55889377300666,114.50781721035274,26.495684273568575,33.79561282055233,45.8031268841411,31.858276523068756,48.668279823977876,9.557482956920627,16.222759941325958,-53.07093560251894,-93.63739818371334,-63.31887367078622,-31.858276523068756,79.48705282070573,-48.668279823977876,96.55889377300664,0.0,114.50781721035275,18.650177468318493,-14.45176831955668,16.412049077844514,-15.0,30.0,-10.0,35.0,0.0,50.0,1.00000001,1.0484795353846066,1.0338280215736484,1.01140768212397,1.0079427384091215,1.0439251890969723,1.030474116655055,1.0416674609305119,0.9942731195628288,0.0,3.7768877346355785,4.300846014092238,-1.7514665999049113,-3.0914019241155097,2.174894138325404,-1.1702244637416332,0.4237454093151185,-4.649655476791817,53.07093560251894,25.419873012231122,-54.067179808474606,63.3188736707862,57.919973686289474,-38.63892008671718,-93.63739818371336,54.99847809699618,-59.50933911335658
72,60.274383112193085,128.03181166984788,67.14834903769734,109.55035675394387,118.5620375865249,133.69439998351177,36.516785584647955,41.49671315528371,53.47775999340471,87.62055697142121,22.235024882144018,26.28616709142636,7.411674960714672,-56.771051762870144,-128.03181166984788,-67.14834903769736,-87.62055697142121,109.55035675394387,-22.235024882144018,118.5620375865249,0.0,133.6943999835118,18.650177468318493,-14.45176831955668,16.412049077844514,-15.0,30.0,-10.0,35.0,0.0,50.0,1.00000001,1.0484795353846066,1.0338280215736484,1.01140768212397,1.0079427384091215,1.0439251890969723,1.030474116655055,1.0416674609305119,0.9942731195628288,0.0,3.934380620510171,1.208345926586275,-1.873579198769966,-5.329940852612048,-1.0461818360767254,-3.668425130016377,-0.6504209120498818,-5.7122768947494995,56.771051762870144,65.57053369480529,-43.979823059138596,67.14834903769734,45.403550860702765,-73.15848672582214,-128.03181166984788,54.87332494402574,-78.82107503948608
73,67.74135009429962,106.30491893654415,68.88743783913982,83.67837955115067,101.78302793499063,108.78173340071527,27.89279318371689,35.624059777246714,43.51269336028611,31.335876095207585,23.305177153638994,9.400762828562275,7.768392384546331,-64.40973086232604,-106.30491893654415,-68.8874378391398,-31.335876095207585,83.67837955115067,-23.305177153638994,101.78302793499064,0.0,108.78173340071527,18.650177468318493,-14.45176831955668,16.412049077844514,-15.0,30.0,-10.0,35.0,0.0,50.0,1.00000001,1.0484795353846066,1.0338280215736484,1.01140768212397,1.0079427384091215,1.0439251890969723,1.030474116655055,1.0416674609305119,0.9942731195628288,0.0,3.6287770805639656,2.5779094008390344,-2.1256737050792482,-4.148214945247014,0.26499116334265854,-2.4427429379146224,-0.17798741727623704,-4.919967780062876,64.40973086232604,38.369569454670554,-45.308810096480116,68.8874378391398,46.88380489629869,-54.899223038691964,-106.30491893654415,51.40569589785219,-57.37603750286308
74,50.916339143520794,87.06369420676104,49.30931361596365,71.3296192658354,80.48650705539839,103.58989135230048,23.776539755278467,28.170277469389436,41.435956540920195,38.85390993970327,31.83126720638307,11.65617298191098,10.61042240212769,-48.34783270472326,-87.06369420676106,-49.309313615963646,-38.85390993970327,71.3296192658354,-31.83126720638307,80.48650705539839,0.0,103.58989135230048,18.650177468318493,-14.45176831955668,16.412049077844514,-15.0,30.0,-10.0,35.0,0.0,50.0,1.00000001,1.0484795353846066,1.0338280215736484,1.01140768212397,1.0079427384091215,1.0439251890969723,1.030474116655055,1.0416674609305119,0.9942731195628288,0.0,3.1345943542855537,2.3773701297332046,-1.5955930152490834,-3.221506770957184,0.7217938110565392,-1.6262658336545874,0.016855462494926494,-4.340238135534511,48.34783270472326,30.84516129410121,-40.484457971734216,49.30931361596366,40.65612285061252,-39.830384204785894,-87.06369420676104,47.23331000197515,-56.35658135032533
75,81.68671796724652,123.14952731110485,100.02479872531434,89.84221562859658,109.95264706346305,158.88137951942204,29.947405209532192,38.48342647221207,63.55255180776882,42.27058729137403,15.725508373482512,12.681176187412207,5.241836124494171,-77.50582051020591,-123.14952731110485,-100.02479872531435,-42.27058729137403,89.84221562859658,-15.725508373482512,109.95264706346306,0.0,158.881379519422,18.650177468318493,-14.45176831955668,16.412049077844514,-15.0,30.0,-10.0,35.0,0.0,50.0,1.00000001,1.0484795353846066,1.0338280215736484,1.01140768212397,1.0079427384091215,1.0439251890969723,1.030474116655055,1.0416674609305119,0.9942731195628288,0.0,4.304601987250393,4.568577135656296,-2.5578756880895757,-4.307560518145779,1.2102118308831527,-2.2031338476838163,-0.10536561522296449,-6.774599306052709,77.50582051020591,33.19321864856325,-56.648996980033296,100.02479872531434,59.10131011876355,-50.85133694469952,-123.14952731110485,72.29819036640532,-86.58318915301666
76,70.37065357882221,105.55755601088744,67.80605007554131,86.44060499782192,96.83975448252384,132.0112876857379,28.813534999273973,33.89391406888334,52.80451507429516,46.3099256219782,28.59005997878045,13.89297768659346,9.530019992926816,-67.02805547889632,-105.55755601088744,-67.80605007554132,-46.3099256219782,86.44060499782192,-28.59005997878045,96.83975448252384,0.0,132.0112876857379,18.650177468318493,-14.45176831955668,16.412049077844514,-15.0,30.0,-10.0,35.0,0.0,50.0,1.00000001,1.0484795353846066,1.0338280215736484,1.01140768212397,1.0079427384091215,1.0439251890969723,1.030474116655055,1.0416674609305119,0.9942731195628288,0.0,3.2724948845801816,2.6244909300654196,-2.212084620235868,-4.269651935481644,0.34788064012361675,-2.4814691518377017,-0.507506649882096,-5.830791119117306,67.02805547889632,39.034048078759696,-47.40655691906223,67.80605007554131,48.98955313525952,-47.850201347264345,-105.55755601088744,57.70735466362309,-74.30393302211482
77,80.01403930932987,101.59515848017254,72.9638721681975,83.77345920234096,102.51348018126245,126.66459247548629,27.924486400780317,35.87971806344186,50.66583699019452,25.56660663059616,36.30309799186873,7.669981989178847,12.101032663956243,-76.52279658825478,-101.59515848017253,-72.9638721681975,-25.56660663059616,83.77345920234096,-36.30309799186873,102.51348018126245,0.0,126.66459247548627,18.650177468318493,-14.45176831955668,16.412049077844514,-15.0,30.0,-10.0,35.0,0.0,50.0,1.00000001,1.0484795353846066,1.0338280215736484,1.01140768212397,1.0079427384091215,1.0439251890969723,1.030474116655055,1.0416674609305119,0.9942731195628288,0.0,2.9496563179869177,3.2468035441650844,-2.525433569881974,-4.2240346049379704,0.7970176919136011,-2.5364141722674094,-0.6884523069359709,-5.927972064760088,76.52279658825478,32.22410949946823,-51.549349702872725,72.9638721681975,57.71762045719351,-44.79585972406896,-101.59515848017254,56.79929875610358,-69.86529371938272
78,50.73196780857136,101.83549421757824,72.34151606665235,84.01872815397857,92.79218001589817,117.19411976813873,28.006242717992855,32.47726300556436,46.87764790725549,51.440607767285094,20.739868222458995,15.432182330185528,6.913289407486332,-47.64754166404082,-101.83549421757823,-72.34151606665233,-51.440607767285094,84.01872815397857,-20.739868222458995,92.79218001589817,0.0,117.19411976813873,18.650177468318493,-14.45176831955668,16.412049077844514,-15.0,30.0,-10.0,35.0,0.0,50.0,1.00000001,1.0484795353846066,1.0338280215736484,1.01140768212397,1.0079427384091215,1.0439251890969723,1.030474116655055,1.0416674609305119,0.9942731195628288,0.0,4.074977359446382,3.5484327399596203,-1.5724817519174128,-3.500842850093626,1.11954269720017,-1.5166762954091628,0.42826234488629844,-4.616576628626458,47.64754166404082,36.582880794074505,-47.43584735990407,72.34151606665233,45.64553692920725,-47.146643086690915,-101.83549421757824,54.68885113088733,-62.5052686372514
79,56.07106939044448,86.13427718440028,50.746859104316194,82.41536066656728,84.02642616319984,104.60336964441773,27.47178688885576,29.409249157119945,41.84134785776709,62.43567555182956,18.303442741212525,18.73070266554887,6.101147580404175,-53.42490189242629,-86.13427718440029,-50.7468591043162,-62.43567555182956,82.41536066656728,-18.303442741212525,84.02642616319984,0.0,104.60336964441771,18.650177468318493,-14.45176831955668,16.412049077844514,-15.0,30.0,-10.0,35.0,0.0,50.0,1.00000001,1.0484795353846066,1.0338280215736484,1.01140768212397,1.0079427384091215,1.0439251890969723,1.030474116655055,1.0416674609305119,0.9942731195628288,0.0,1.6857253916364912,0.4645183504669485,-1.7631483260178302,-4.398022942352797,-1.2393240277633513,-3.3543425740423367,-1.398731204661081,-4.971327084634986,53.42490189242629,49.98612764376906,-32.42923302279822,50.746859104316194,36.621068822730514,-47.40535734046936,-86.13427718440028,38.72891984393092,-65.87444980048679
80,81.00408992650608,118.00993006771269,95.78664619974354,102.85666297699959,109.38754701769089,134.79912656775994,34.285554325666524,38.28564145619181,53.91965062710398,33.70630451616242,22.579294195802053,10.111891354848725,7.526431398600684,-76.96116158302968,-118.0099300677127,-95.78664619974353,-33.70630451616242,102.85666297699959,-22.57929419580205,109.38754701769088,0.0,134.7991265677599,18.650177468318493,-14.45176831955668,16.412049077844514,-15.0,30.0,-10.0,35.0,0.0,50.0,1.00000001,1.0484795353846066,1.0338280215736484,1.01140768212397,1.0079427384091215,1.0439251890969723,1.030474116655055,1.0416674609305119,0.9942731195628288,0.0,4.361358501050674,4.475980256349776,-2.5399006531960144,-4.7235721313831975,1.2599123076283114,-2.028357163054666,0.13543916760446717,-5.912040018184621,76.96116158302968,41.42636638723682,-61.43029658976275,95.78664619974356,56.935643805782846,-52.45190321190806,-118.0099300677127,65.55802685580463,-69.24109971195529
81,59.21758292625957,110.66912842166052,89.81908673626553,83.26448779019286,89.79827927778149,119.29215592524085,27.754829263397617,31.42939774722352,47.716862370096344,17.749603248661533,18.461155172243714,5.32488097459846,6.153718390747905,-55.65594941438385,-110.6691284216605,-89.81908673626552,-17.749603248661533,83.26448779019286,-18.461155172243714,89.79827927778149,0.0,119.29215592524082,18.650177468318493,-14.45176831955668,16.412049077844514,-15.0,30.0,-10.0,35.0,0.0,50.0,1.00000001,1.0484795353846066,1.0338280215736484,1.01140768212397,1.0079427384091215,1.0439251890969723,1.030474116655055,1.0416674609305119,0.9942731195628288,0.0,5.920604142399527,5.948703045478853,-1.8367781795929727,-3.009750197470279,2.932997855910266,0.2030650052087576,1.9575579043042435,-4.328008138996246,55.65594941438385,22.252417114913897,-61.01207067527897,89.81908673626555,47.26817123323028,-42.53010804455121,-110.6691284216605,68.1390203771093,-51.153135548131516
82,79.82291079090564,133.64109930022033,106.00511310880718,108.09551012728119,119.6701333585847,144.34215755682663,36.031836709093724,41.884546675504644,57.73686302273066,29.68822913342121,27.33168295051438,8.906468740026362,9.110560983504794,-75.44167654972944,-133.64109930022033,-106.00511310880717,-29.68822913342121,108.09551012728119,-27.331682950514377,119.67013335858469,0.0,144.34215755682663,18.650177468318493,-14.45176831955668,16.412049077844514,-15.0,30.0,-10.0,35.0,0.0,50.0,1.00000001,1.0484795353846066,1.0338280215736484,1.01140768212397,1.0079427384091215,1.0439251890969723,1.030474116655055,1.0416674609305119,0.9942731195628288,0.0,6.021446478910163,6.029832042242957,-2.489754047437769,-4.445062458014073,2.470675727709199,-1.1294510896251497,1.235777129290561,-5.8031940146985725,75.44167654972944,37.09409745271047,-71.0014126745707,106.00511310880718,62.33538338475084,-57.33474997383386,-133.64109930022033,76.30634932638648,-68.03580823044018
83,86.4425889160446,107.35992035424265,101.09342582894266,98.97061607514699,103.12657240604891,147.94711012326678,32.990205358382326,36.094300342117116,59.17884404930672,41.514388055515866,17.678210321303677,12.454316416654759,5.892736773767892,-82.39835404445793,-107.35992035424263,-101.09342582894266,-41.514388055515866,98.97061607514699,-17.67821032130368,103.12657240604891,0.0,147.9471101232668,18.650177468318493,-14.45176831955668,16.412049077844514,-15.0,30.0,-10.0,35.0,0.0,50.0,1.00000001,1.0484795353846066,1.0338280215736484,1.01140768212397,1.0079427384091215,1.0439251890969723,1.030474116655055,1.0416674609305119,0.9942731195628288,0.0,2.999196989982271,4.253093294802624,-2.719340885129562,-4.847921795174399,0.8588484858035215,-2.616926815036773,-0.8453469632419582,-6.787442795928611,82.39835404445793,40.381244864543085,-58.5893712106039,101.09342582894266,60.18226493964242,-42.944307466406514,-107.35992035424266,64.41561288783613,-83.53149723543069
84,57.235713671143145,117.17170141832993,80.94321933612237,77.49323562065943,88.49913176387727,134.84920447370052,25.83107854021981,30.974696117357045,53.93968178948021,29.069568743983474,19.92327501326835,8.720870623195042,6.641091671089449,-53.73380734653309,-117.17170141832992,-80.94321933612238,-29.069568743983474,77.49323562065943,-19.92327501326835,88.49913176387727,0.0,134.84920447370052,18.650177468318493,-14.45176831955668,16.412049077844514,-15.0,30.0,-10.0,35.0,0.0,50.0,1.00000001,1.0484795353846066,1.0338280215736484,1.01140768212397,1.0079427384091215,1.0439251890969723,1.030474116655055,1.0416674609305119,0.9942731195628288,0.0,6.1237264345519025,5.368884269512203,-1.773342937800232,-2.8701542666965936,2.651189228489548,0.09956292035919233,1.92782395352856,-4.792626027306068,53.73380734653309,20.807574959147743,-56.685660661511676,80.94321933612234,44.18083368787903,-44.318298075998236,-117.17170141832995,72.8534033423317,-61.9958011313688
85,58.362721968816,96.02461810518173,60.2996928487471,81.71734442685461,90.22819148018604,124.8040036622708,27.239114808951534,31.579867018065112,49.92160146490832,61.93765993777673,23.06908798743455,18.58129798133302,7.689695995811516,-55.418480690171364,-96.02461810518172,-60.2996928487471,-61.93765993777673,81.71734442685461,-23.06908798743455,90.22819148018604,0.0,124.80400366227082,18.650177468318493,-14.45176831955668,16.412049077844514,-15.0,30.0,-10.0,35.0,0.0,50.0,1.00000001,1.0484795353846066,1.0338280215736484,1.01140768212397,1.0079427384091215,1.0439251890969723,1.030474116655055,1.0416674609305119,0.9942731195628288,0.0,2.560237903232324,1.7873444532596812,-1.8289411491306635,-4.064961295353235,-0.23723743975500142,-2.782515072956911,-0.8783904385066917,-5.478462794791879,55.418480690171364,42.41947140490099,-39.29787302195362,60.2996928487471,44.070907814228036,-46.15728366595802,-96.02461810518173,49.86733443922371,-74.93666922304709
86,53.72695050569328,101.08566259789129,68.0779908553951,86.2782328262326,98.4998950995101,112.53819896917976,28.75941094207753,34.47496328482853,45.015279587671905,52.903275548956294,24.579193329505568,15.870982664686888,8.193064443168522,-50.67020456317423,-101.08566259789129,-68.07799085539511,-52.903275548956294,86.2782328262326,-24.579193329505568,98.4998950995101,0.0,112.53819896917976,18.650177468318493,-14.45176831955668,16.412049077844514,-15.0,30.0,-10.0,35.0,0.0,50.0,1.00000001,1.0484795353846066,1.0338280215736484,1.01140768212397,1.0079427384091215,1.0439251890969723,1.030474116655055,1.0416674609305119,0.9942731195628288,0.0,3.5309285790909244,2.839463134043785,-1.6722367882758191,-3.8415351610286814,0.5537223435495947,-2.1914850209185968,-0.08893506849820786,-4.712168514414443,50.67020456317423,41.153694633361624,-45.12453819287097,68.0779908553951,47.5326459920297,-50.96724910748043,-101.08566259789129,50.11841349041086,-62.4197854787689
87,54.146358298287296,88.14616104405565,75.64215801940976,78.69583846054475,91.56127501172134,107.95322755511017,26.231946153514915,32.04644625410246,43.18129102204407,48.81903942434261,14.445404068367527,14.645711827302783,4.815134689455842,-51.157578471200765,-88.14616104405565,-75.64215801940978,-48.81903942434261,78.69583846054475,-14.445404068367527,91.56127501172134,0.0,107.95322755511019,18.650177468318493,-14.45176831955668,16.412049077844514,-15.0,30.0,-10.0,35.0,0.0,50.0,1.00000001,1.0484795353846066,1.0338280215736484,1.01140768212397,1.0079427384091215,1.0439251890969723,1.030474116655055,1.0416674609305119,0.9942731195628288,0.0,2.555516078468846,2.956513452860507,-1.6883212818292566,-3.6407131294518913,0.41680327790504035,-2.380258360974447,-0.6009858015966906,-4.753483504925808,51.157578471200765,37.03876742403304,-41.657071036511724,75.64215801940976,48.43049105126558,-43.13078396045579,-88.14616104405565,45.01537708359986,-62.93785047151035
88,90.3560577547769,116.08704684891671,84.98622635358595,116.4484819520624,123.09878091317974,144.96308574247746,38.816160650687465,43.08457331961291,57.98523429699099,67.76338327494283,29.3143278615029,20.329014982482846,9.771442620500967,-86.35936426877126,-116.08704684891671,-84.98622635358592,-67.76338327494283,116.4484819520624,-29.3143278615029,123.09878091317974,0.0,144.9630857424775,18.650177468318493,-14.45176831955668,16.412049077844514,-15.0,30.0,-10.0,35.0,0.0,50.0,1.00000001,1.0484795353846066,1.0338280215736484,1.01140768212397,1.0079427384091215,1.0439251890969723,1.030474116655055,1.0416674609305119,0.9942731195628288,0.0,1.9838388461034264,1.7308342477035459,-2.850063606163283,-6.226306854368544,-1.1226060751635782,-4.697742598139018,-2.1732223042593177,-7.23670394822386,86.35936426877126,64.05060981457603,-52.397872137486345,84.98622635358595,61.902682077602506,-61.19609883557727,-116.08704684891671,54.89094801333944,-90.07213772913808
89,74.41258157326055,129.75524210273616,70.73425102335679,90.91000531735614,103.72720256271276,131.25969482598862,30.30333510578538,36.30452089694946,52.50387793039545,30.45846071975928,24.30640418622099,9.137538215927783,8.10213472874033,-70.64254467398428,-129.75524210273616,-70.73425102335679,-30.45846071975928,90.91000531735614,-24.306404186220995,103.72720256271275,0.0,131.25969482598862,18.650177468318493,-14.45176831955668,16.412049077844514,-15.0,30.0,-10.0,35.0,0.0,50.0,1.00000001,1.0484795353846066,1.0338280215736484,1.01140768212397,1.0079427384091215,1.0439251890969723,1.030474116655055,1.0416674609305119,0.9942731195628288,0.0,5.5453432077453435,3.1771171958377065,-2.331371326396994,-4.340387414840337,0.8021916021525476,-1.637553398490912,0.8988258688797264,-5.39897693427876,70.64254467398428,38.11298420529776,-52.79702111205839,70.73425102335679,42.24363409751939,-61.48356846519336,-129.75524210273616,68.2716736375428,-62.988021188445806
90,78.09113962120294,121.81868168632955,84.77969429923827,104.91811226594452,103.32041192392553,134.36937106640502,34.97270408864817,36.16214417337393,53.74774842656201,36.50649747736082,25.316145098672585,10.951949243208245,8.438715032890862,-74.1868766946739,-121.81868168632955,-84.77969429923829,-36.50649747736082,104.91811226594453,-25.316145098672585,103.32041192392555,0.0,134.36937106640502,18.650177468318493,-14.45176831955668,16.412049077844514,-15.0,30.0,-10.0,35.0,0.0,50.0,1.00000001,1.0484795353846066,1.0338280215736484,1.01140768212397,1.0079427384091215,1.0439251890969723,1.030474116655055,1.0416674609305119,0.9942731195628288,0.0,4.91338473036318,4.007500688660459,-2.448342679600662,-4.769405454502429,1.1609947470116317,-1.6811179355272334,0.5510745263167441,-5.694806193239093,74.1868766946739,44.03281257338243,-60.8852996925621,84.77969429923826,49.21053970534876,-54.109872218576804,-121.81868168632954,67.70880946775274,-66.6605615986523
91,55.33309265172855,101.7755939082022,55.49175434713019,88.83046991200865,85.11071793782212,106.84614089087798,29.610156637336217,29.78875127823774,42.73845635635119,41.124982879295075,29.977530483547454,12.337494863788523,9.992510161182484,-52.41746712253385,-101.77559390820218,-55.49175434713018,-41.124982879295075,88.83046991200865,-29.977530483547454,85.11071793782212,0.0,106.84614089087798,18.650177468318493,-14.45176831955668,16.412049077844514,-15.0,30.0,-10.0,35.0,0.0,50.0,1.00000001,1.0484795353846066,1.0338280215736484,1.01140768212397,1.0079427384091215,1.0439251890969723,1.030474116655055,1.0416674609305119,0.9942731195628288,0.0,4.304298095597341,2.6956222296196874,-1.729900591998878,-3.868363233273204,0.8324684430054506,-1.3164204256614094,0.6597281028614919,-4.309796516590123,52.41746712253385,40.56871089253411,-48.26175901947455,55.49175434713018,37.20752581120309,-47.90319212661903,-101.77559390820221,53.87240178158317,-52.97373910929479
92,64.64111309955416,118.43152505429889,68.11627636689546,91.20353222236268,110.73911663248806,121.75840194649886,30.401177407454227,38.75869082137082,48.703360778599546,53.65546088846328,22.301507438123814,16.096638266538985,7.433835812707938,-61.19628105356821,-118.43152505429887,-68.11627636689545,-53.65546088846328,91.20353222236268,-22.301507438123814,110.73911663248808,0.0,121.75840194649888,18.650177468318493,-14.45176831955668,16.412049077844514,-15.0,30.0,-10.0,35.0,0.0,50.0,1.00000001,1.0484795353846066,1.0338280215736484,1.01140768212397,1.0079427384091215,1.0439251890969723,1.030474116655055,1.0416674609305119,0.9942731195628288,0.0,3.9447610321027615,2.0367383642978902,-2.019622248729136,-4.517719784515016,-0.2502878747564258,-2.941953641869599,-0.29625555971548434,-5.305039422089115,61.19628105356821,47.39133373415271,-43.812198488209965,68.11627636689546,46.605585316809304,-64.1335313156788,-118.43152505429887,54.29799373862009,-67.46040820787877
93,67.31817296672367,149.80205839080054,83.1117680655778,91.88054008089281,119.36217007921466,136.76419783514143,30.626846693630938,41.77675952772513,54.705679134056574,25.95010081075426,25.942221998467723,7.785030243226278,8.647407332822574,-63.20075872964861,-149.80205839080054,-83.11176806557779,-25.95010081075426,91.88054008089281,-25.942221998467723,119.36217007921465,0.0,136.76419783514146,18.650177468318493,-14.45176831955668,16.412049077844514,-15.0,30.0,-10.0,35.0,0.0,50.0,1.00000001,1.0484795353846066,1.0338280215736484,1.01140768212397,1.0079427384091215,1.0439251890969723,1.030474116655055,1.0416674609305119,0.9942731195628288,0.0,7.70943975494001,4.988800632029005,-2.0857747606464727,-3.7239905155365,2.1982958587447246,-0.5884567277825052,2.3450486873367646,-4.913978649556381,63.20075872964861,31.078542153125404,-60.80199792776741,83.1117680655778,48.251992136278105,-71.11017794293653,-149.80205839080054,78.691880447864,-58.07231738727748
94,66.84071855813997,96.65528777930764,74.01106879770063,85.58234466262951,93.32522878113511,131.30186111197904,28.5274482208765,32.663830073397286,52.52074444479162,54.600980165206906,21.358577070566742,16.38029404956207,7.1195256901889135,-63.58352074296176,-96.65528777930766,-74.01106879770063,-54.600980165206906,85.58234466262951,-21.358577070566742,93.32522878113511,0.0,131.30186111197904,18.650177468318493,-14.45176831955668,16.412049077844514,-15.0,30.0,-10.0,35.0,0.0,50.0,1.00000001,1.0484795353846066,1.0338280215736484,1.01140768212397,1.0079427384091215,1.0439251890969723,1.030474116655055,1.0416674609305119,0.9942731195628288,0.0,2.512738105596036,2.6563940480646075,-2.098406813848838,-4.228490228064355,0.17144822675928337,-2.7276395169636682,-0.9484744302644211,-5.886147103771808,63.58352074296176,40.40974882628582,-45.17259583634369,74.01106879770063,50.19705003192369,-43.12817874921144,-96.65528777930764,53.5271090300962,-77.77475208188287
95,60.72940866345881,123.30189271566357,73.37134171121113,91.5263231843512,121.02501318872667,122.49764799862398,30.50877439478373,42.358754616054334,48.99905919944959,60.97666620003277,20.19972287556593,18.29299986000983,6.733240958521976,-57.19936086922847,-123.30189271566356,-73.37134171121113,-60.97666620003277,91.5263231843512,-20.19972287556593,121.02501318872666,0.0,122.49764799862399,18.650177468318493,-14.45176831955668,16.412049077844514,-15.0,30.0,-10.0,35.0,0.0,50.0,1.00000001,1.0484795353846066,1.0338280215736484,1.01140768212397,1.0079427384091215,1.0439251890969723,1.030474116655055,1.0416674609305119,0.9942731195628288,0.0,4.058808063198583,2.1549037877267305,-1.8877144139438649,-4.46363401206423,-0.308562987590309,-3.2489671880712003,-0.3566157234154109,-5.263128150377754,57.19936086922847,48.867693754184266,-42.658629430166954,73.37134171121113,50.9124351566101,-70.11257803211657,-123.30189271566357,53.189314683547,-69.308333315077
96,40.72527339973035,65.80919097222623,62.9978182926733,83.25554809732861,86.55835841370677,115.14032330342809,27.751849365776202,30.295425444797367,46.05612932137124,69.17697585717237,48.569955423694736,20.75309275715171,16.189985141231578,-38.40028926869687,-65.80919097222625,-62.997818292673315,-69.17697585717237,83.25554809732861,-48.569955423694736,86.55835841370677,0.0,115.14032330342809,18.650177468318493,-14.45176831955668,16.412049077844514,-15.0,30.0,-10.0,35.0,0.0,50.0,1.00000001,1.0484795353846066,1.0338280215736484,1.01140768212397,1.0079427384091215,1.0439251890969723,1.030474116655055,1.0416674609305119,0.9942731195628288,0.0,1.3964530626313842,3.7932020428160427,-1.2673005161344342,-3.0806118686682256,1.678029706288534,-1.9438772239821842,-0.9601649972929921,-4.831123279422631,38.40028926869687,34.40027550598509,-48.85527259134353,62.9978182926733,62.71250112502451,-23.845857288682282,-65.80919097222623,41.96333368354395,-73.17698961988415
97,51.661163354465394,84.09421850200488,53.63961498870025,83.84166373724362,83.73553418212045,104.75734236656038,27.947221245747873,29.307436963742155,41.90293694662415,56.81166197705471,28.72526501355235,17.043498593116414,9.575088337850783,-49.063779804612274,-84.09421850200488,-53.63961498870026,-56.81166197705471,83.84166373724362,-28.72526501355235,83.73553418212045,0.0,104.75734236656037,18.650177468318493,-14.45176831955668,16.412049077844514,-15.0,30.0,-10.0,35.0,0.0,50.0,1.00000001,1.0484795353846066,1.0338280215736484,1.01140768212397,1.0079427384091215,1.0439251890969723,1.030474116655055,1.0416674609305119,0.9942731195628288,0.0,2.285066278571918,1.7957025125617494,-1.619220965623768,-3.920084445089703,-0.005265089823938859,-2.4409207799072195,-0.7263360974379817,-4.649706758629104,49.063779804612274,43.64961234301468,-40.19205139422893,53.63961498870025,42.17282860802365,-41.56270557409681,-84.09421850200488,42.53151292790807,-62.225829438652305
98,77.34497288642913,122.31213928469231,77.40139963020239,96.79000304529981,112.15772343509077,145.97924216492302,32.26333434843327,39.25520320228177,58.39169686596921,34.73170611882544,46.93636123698711,10.419511835647633,15.645453745662369,-73.54536237460641,-122.31213928469231,-77.4013996302024,-34.73170611882544,96.79000304529981,-46.93636123698711,112.15772343509077,0.0,145.97924216492305,18.650177468318493,-14.45176831955668,16.412049077844514,-15.0,30.0,-10.0,35.0,0.0,50.0,1.00000001,1.0484795353846066,1.0338280215736484,1.01140768212397,1.0079427384091215,1.0439251890969723,1.030474116655055,1.0416674609305119,0.9942731195628288,0.0,4.899087936117141,4.549184349019128,-2.427171187291309,-4.200468201041565,1.9504070620705247,-1.583506886347174,0.5191070834739258,-6.062045132640595,73.54536237460641,33.641164680135994,-63.14883836516381,77.40139963020238,61.18892250202569,-50.968800933065104,-122.3121392846923,71.3433383516272,-74.63590381329584
99,80.40914750859855,106.1642320281862,73.56311243138035,88.05022915642013,102.78501204868329,125.43596260127904,29.350076385473375,35.97475421703915,50.17438504051162,30.25783210318065,29.444419829598868,9.077349630954195,9.814806609866288,-76.84160741403643,-106.16423202818619,-73.56311243138032,-30.25783210318065,88.05022915642013,-29.444419829598868,102.78501204868329,0.0,125.43596260127904,18.650177468318493,-14.45176831955668,16.412049077844514,-15.0,30.0,-10.0,35.0,0.0,50.0,1.00000001,1.0484795353846066,1.0338280215736484,1.01140768212397,1.0079427384091215,1.0439251890969723,1.030474116655055,1.0416674609305119,0.9942731195628288,0.0,3.1108828616685966,2.7915230131256745,-2.5359550823954664,-4.544072273078744,0.3216174732093052,-2.7424267557504542,-0.6908436573705716,-5.896523408760454,76.84160741403643,38.095931242741294,-49.95429791367883,73.56311243138035,53.05323434730038,-49.73177770138291,-106.1642320281862,56.432454326803295,-69.00350827447576
100,67.73271976468212,110.2492409415367,77.39904053428661,92.92278378356761,103.53893026248444,126.66954106025887,30.974261261189202,36.23862559186955,50.66781642410355,42.670969544327384,28.581607099884877,12.801290863298215,9.527202366628291,-64.23039698627535,-110.24924094153671,-77.3990405342866,-42.670969544327384,92.92278378356761,-28.581607099884877,103.53893026248446,0.0,126.66954106025887,18.650177468318493,-14.45176831955668,16.412049077844514,-15.0,30.0,-10.0,35.0,0.0,50.0,1.00000001,1.0484795353846066,1.0338280215736484,1.01140768212397,1.0079427384091215,1.0439251890969723,1.030474116655055,1.0416674609305119,0.9942731195628288,0.0,4.0145543303760585,3.5986646373914244,-2.1197552623277067,-4.202473680551257,0.999966557859133,-2.0361141767170516,0.06654420508169875,-5.4017521072654775,64.23039698627535,39.51118890209696,-53.41159488147063,77.3990405342866,52.569052752700856,-50.969877509783615,-110.24924094153671,59.27936343175308,-67.39017762850575
101,59.8018529097157,81.41293651842554,74.20712786579325,79.90219821541295,81.8531633827157,99.48306990100775,26.634066071804316,28.648607183950496,39.7932279604031,27.647144596852883,21.123689171048547,8.294143379055864,7.041229723682848,-56.84753334701622,-81.41293651842554,-74.20712786579324,-27.647144596852883,79.90219821541295,-21.123689171048547,81.8531633827157,0.0,99.48306990100775,18.650177468318493,-14.45176831955668,16.412049077844514,-15.0,30.0,-10.0,35.0,0.0,50.0,1.00000001,1.0484795353846066,1.0338280215736484,1.01140768212397,1.0079427384091215,1.0439251890969723,1.030474116655055,1.0416674609305119,0.9942731195628288,0.0,2.7745808718024696,3.6398579357986076,-1.8761032722316235,-3.5469451912675085,1.1483293672110155,-1.5733989137671451,-0.14080516586770397,-4.447400801519821,56.84753334701622,31.697492138605128,-48.20470607680782,74.20712786579325,47.126110960033984,-34.72705242268174,-81.41293651842554,46.6858840957438,-52.79718580526397
